; G-Code generated by Simplify3D(R) Version 4.1.2
; Mar 25, 2022 at 9:47:40 AM
; Settings Summary
;   processName,Process1
;   applyToModels,cloth_vase
;   profileName,MANU Easy Food_Chocolate_1mm_R012(2) (modified)
;   profileVersion,2021-11-04 15:48:21
;   baseProfile,Default
;   printMaterial,PLA (MHI3D)
;   printQuality,Medium
;   printExtruders,
;   extruderName,Extruder 1
;   extruderToolheadNumber,0
;   extruderDiameter,1
;   extruderAutoWidth,0
;   extruderWidth,1
;   extrusionMultiplier,1
;   extruderUseRetract,1
;   extruderRetractionDistance,0.05
;   extruderExtraRestartDistance,0
;   extruderRetractionZLift,0.7
;   extruderRetractionSpeed,480
;   extruderUseCoasting,0
;   extruderCoastingDistance,0.5
;   extruderUseWipe,0
;   extruderWipeDistance,0
;   primaryExtruder,0
;   layerHeight,0.8
;   topSolidLayers,0
;   bottomSolidLayers,2
;   perimeterOutlines,1
;   printPerimetersInsideOut,1
;   startPointOption,2
;   startPointOriginX,70
;   startPointOriginY,50
;   sequentialIslands,1
;   spiralVaseMode,0
;   firstLayerHeightPercentage,100
;   firstLayerWidthPercentage,100
;   firstLayerUnderspeed,1
;   useRaft,0
;   raftExtruder,0
;   raftTopLayers,3
;   raftBaseLayers,3
;   raftOffset,3
;   raftSeparationDistance,0.14
;   raftTopInfill,100
;   aboveRaftSpeedMultiplier,0.3
;   useSkirt,0
;   skirtExtruder,0
;   skirtLayers,1
;   skirtOutlines,1
;   skirtOffset,4
;   usePrimePillar,0
;   primePillarExtruder,999
;   primePillarWidth,12
;   primePillarLocation,7
;   primePillarSpeedMultiplier,1
;   useOozeShield,0
;   oozeShieldExtruder,999
;   oozeShieldOffset,2
;   oozeShieldOutlines,1
;   oozeShieldSidewallShape,1
;   oozeShieldSidewallAngle,30
;   oozeShieldSpeedMultiplier,1
;   infillExtruder,0
;   internalInfillPattern,Rectilinear
;   externalInfillPattern,Rectilinear
;   infillPercentage,0
;   outlineOverlapPercentage,5
;   infillExtrusionWidthPercentage,100
;   minInfillLength,20
;   infillLayerInterval,1
;   internalInfillAngles,45,-45
;   overlapInternalInfillAngles,0
;   externalInfillAngles,45,-45
;   generateSupport,0
;   supportExtruder,0
;   supportInfillPercentage,25
;   supportExtraInflation,0.2
;   supportBaseLayers,2
;   denseSupportExtruder,0
;   denseSupportLayers,2
;   denseSupportInfillPercentage,50
;   supportLayerInterval,1
;   supportHorizontalPartOffset,0.3
;   supportUpperSeparationLayers,1
;   supportLowerSeparationLayers,0
;   supportType,1
;   supportGridSpacing,3
;   maxOverhangAngle,45
;   supportAngles,0
;   temperatureName,Extruder 1
;   temperatureNumber,0
;   temperatureSetpointCount,1
;   temperatureSetpointLayers,1
;   temperatureSetpointTemperatures,30
;   temperatureStabilizeAtStartup,1
;   temperatureHeatedBed,0
;   fanLayers,1
;   fanSpeeds,10
;   blipFanToFullPower,0
;   adjustSpeedForCooling,1
;   minSpeedLayerTime,45
;   minCoolingSpeedSlowdown,30
;   increaseFanForCooling,0
;   minFanLayerTime,45
;   maxCoolingFanSpeed,100
;   increaseFanForBridging,0
;   bridgingFanSpeed,100
;   use5D,1
;   relativeEdistances,1
;   allowEaxisZeroing,1
;   independentExtruderAxes,0
;   includeM10123,0
;   stickySupport,1
;   applyToolheadOffsets,0
;   gcodeXoffset,0
;   gcodeYoffset,0
;   gcodeZoffset,0
;   overrideMachineDefinition,1
;   machineTypeOverride,0
;   strokeXoverride,200
;   strokeYoverride,155
;   strokeZoverride,140
;   originOffsetXoverride,0
;   originOffsetYoverride,0
;   originOffsetZoverride,0
;   homeXdirOverride,-1
;   homeYdirOverride,-1
;   homeZdirOverride,-1
;   flipXoverride,1
;   flipYoverride,-1
;   flipZoverride,1
;   toolheadOffsets,0,0|0,0|0,0|0,0|0,0|0,0
;   overrideFirmwareConfiguration,0
;   firmwareTypeOverride,RepRap (Marlin/Repetier/Sprinter)
;   GPXconfigOverride,r2
;   baudRateOverride,250000
;   overridePrinterModels,0
;   printerModelsOverride
;   startingGcode,;Pressure advances,M400 ; Finish all current moves and for pressure advances.,M572 D0 S0.00                      ;Pressure advance enabled,G1 E-0.1                               ;Relieve pressure,;Wipe,G1 Z1 F900			;Wipe height,M83			;Extruder to relative mode,M400,G1 Y140 E0.2 F900		;Draw first thin line,G1 X1 F900,G1 Y5 E0.2 F900		;Draw second thin line,G1 X2 F900,G1 Y50 F900			;Coast in case of leakage,;M82			;Extruder to absolute mode (default),M400			; wait for moves to finish,G1 E-0.1                               ;Relieve pressure,G92 E0			; zero extruder,;MHI3D CODE END
;   layerChangeGcode,
;   retractionGcode,
;   toolChangeGcode,
;   endingGcode,G28 Z0	;Home Z,M83	;Extruder to relative mode,G1 E-0.1 F10	;Extrude back,M82	;Extruder to absolute mode (default),M400	; wait for moves to finishng,G92 E0	; zero extruder,G28	;Home,;M104 S0	;Set Extruder Temperature,;M140 S0	;Set Bed Temperature (Fast) or Configure Bed Heater,M18 X Z E0	;Disable XZE stepper motors,G1 Y145 F3000	;Move,G92 E0	;Set position,M107	;Fan off,M18 Y	;Disable Y stepper motor
;   exportFileFormat,gcode
;   celebration,0
;   celebrationSong,Random Song
;   postProcessing,
;   defaultSpeed,600
;   outlineUnderspeed,1
;   solidInfillUnderspeed,1
;   supportUnderspeed,1
;   rapidXYspeed,2100
;   rapidZspeed,900
;   minBridgingArea,50
;   bridgingExtraInflation,0
;   bridgingExtrusionMultiplier,1
;   bridgingSpeedMultiplier,1
;   useFixedBridgingAngle,0
;   fixedBridgingAngle,0
;   applyBridgingToPerimeters,0
;   filamentDiameters,30|1.75|1.75|1.75|1.75|1.75
;   filamentPricesPerKg,10|46|46|46|46|46
;   filamentDensities,1.3|1.25|1.25|1.25|1.25|1.25
;   useMinPrintHeight,0
;   minPrintHeight,2.5
;   useMaxPrintHeight,1
;   maxPrintHeight,40
;   useDiaphragm,0
;   diaphragmLayerInterval,20
;   robustSlicing,1
;   mergeAllIntoSolid,1
;   onlyRetractWhenCrossingOutline,1
;   retractBetweenLayers,0
;   useRetractionMinTravel,0
;   retractionMinTravel,3
;   retractWhileWiping,0
;   onlyWipeOutlines,0
;   avoidCrossingOutline,0
;   maxMovementDetourFactor,15
;   toolChangeRetractionDistance,12
;   toolChangeExtraRestartDistance,-0.5
;   toolChangeRetractionSpeed,600
;   externalThinWallType,1
;   internalThinWallType,1
;   thinWallAllowedOverlapPercentage,5
;   singleExtrusionMinLength,5
;   singleExtrusionMinPrintingWidthPercentage,100
;   singleExtrusionMaxPrintingWidthPercentage,200
;   singleExtrusionEndpointExtension,1
;   horizontalSizeCompensation,0
G90
M83
M106 S26
M104 S30 T0
;Pressure advances
M400 ; Finish all current moves and for pressure advances.
M572 D0 S0.00                      ;Pressure advance enabled
G1 E-0.1                               ;Relieve pressure
;Wipe
G1 Z1 F900			;Wipe height
M83			;Extruder to relative mode
M400
G1 Y140 E0.2 F900		;Draw first thin line
G1 X1 F900
G1 Y5 E0.2 F900		;Draw second thin line
G1 X2 F900
G1 Y50 F900			;Coast in case of leakage
;M82			;Extruder to absolute mode (default)
M400			; wait for moves to finish
G1 E-0.1                               ;Relieve pressure
G92 E0			; zero extruder
;MHI3D CODE END
; process Process1
; layer 1, Z = 0.800
T0
G1 E-0.0500 F480
; feature outer perimeter
; tool H0.800 W1.000
G1 Z0.800 F900
G1 X72.658 Y57.338 F2100
G1 E0.0500 F480
G1 X73.317 Y56.533 E0.0012 F600
G1 X74.303 Y55.408 E0.0017
G1 X75.526 Y54.094 E0.0020
G1 X77.792 Y51.788 E0.0037
G1 X78.629 Y50.953 E0.0013
G1 X79.822 Y49.797 E0.0019
G1 X80.266 Y49.378 E0.0007
G1 X81.073 Y48.655 E0.0012
G1 X81.879 Y47.981 E0.0012
G1 X82.854 Y47.240 E0.0014
G1 X83.506 Y46.785 E0.0009
G1 X84.152 Y46.367 E0.0009
G1 X85.155 Y45.777 E0.0013
G1 X85.983 Y45.342 E0.0011
G1 X87.076 Y44.831 E0.0014
G1 X87.647 Y44.594 E0.0007
G1 X88.482 Y44.280 E0.0010
G1 X89.314 Y44.005 E0.0010
G1 X90.146 Y43.766 E0.0010
G1 X90.982 Y43.553 E0.0010
G1 X92.637 Y43.211 E0.0019
G1 X95.089 Y42.763 E0.0028
G1 X96.668 Y42.433 E0.0018
G1 X97.493 Y42.228 E0.0010
G1 X98.152 Y42.043 E0.0008
G1 X100.294 Y41.394 E0.0025
G1 X100.957 Y41.218 E0.0008
G1 X101.610 Y41.081 E0.0008
G1 X102.257 Y40.992 E0.0007
G1 X102.907 Y40.959 E0.0007
G1 X103.401 Y40.979 E0.0006
G1 X103.568 Y40.987 E0.0002
G1 X104.253 Y41.072 E0.0008
G1 X104.959 Y41.205 E0.0008
G1 X105.684 Y41.378 E0.0008
G1 X107.704 Y41.949 E0.0024
G1 X111.743 Y43.159 E0.0048
G1 X113.335 Y43.693 E0.0019
G1 X114.420 Y44.091 E0.0013
G1 X115.971 Y44.722 E0.0019
G1 X117.662 Y45.488 E0.0021
G1 X119.182 Y46.242 E0.0019
G1 X120.575 Y46.991 E0.0018
G1 X121.855 Y47.743 E0.0017
G1 X123.119 Y48.559 E0.0017
G1 X124.135 Y49.285 E0.0014
G1 X124.879 Y49.866 E0.0011
G1 X125.751 Y50.605 E0.0013
G1 X126.612 Y51.406 E0.0013
G1 X127.733 Y52.566 E0.0018
G1 X128.476 Y53.416 E0.0013
G1 X129.144 Y54.240 E0.0012
G1 X129.933 Y55.291 E0.0015
G1 X130.438 Y56.009 E0.0010
G1 X131.021 Y56.881 E0.0012
G1 X131.606 Y57.797 E0.0012
G1 X132.103 Y58.620 E0.0011
G1 X132.606 Y59.486 E0.0011
G1 X133.081 Y60.346 E0.0011
G1 X133.526 Y61.201 E0.0011
G1 X133.941 Y62.051 E0.0011
G1 X134.320 Y62.896 E0.0010
G1 X134.666 Y63.735 E0.0010
G1 X134.975 Y64.571 E0.0010
G1 X135.249 Y65.405 E0.0010
G1 X135.477 Y66.168 E0.0009
G1 X135.712 Y67.062 E0.0010
G1 X136.103 Y68.699 E0.0019
G1 X136.659 Y71.148 E0.0028
G1 X137.359 Y73.870 E0.0032
G1 X137.562 Y74.737 E0.0010
G1 X137.736 Y75.661 E0.0011
G1 X137.820 Y76.351 E0.0008
G1 X137.852 Y77.030 E0.0008
G1 X137.824 Y77.706 E0.0008
G1 X137.742 Y78.388 E0.0008
G1 X137.612 Y79.082 E0.0008
G1 X137.443 Y79.791 E0.0008
G1 X136.591 Y82.843 E0.0036
G1 X136.184 Y84.480 E0.0019
G1 X135.672 Y86.645 E0.0025
G1 X135.354 Y87.867 E0.0014
G1 X135.055 Y88.905 E0.0012
G1 X134.840 Y89.576 E0.0008
G1 X134.540 Y90.434 E0.0010
G1 X134.211 Y91.289 E0.0010
G1 X133.642 Y92.606 E0.0016
G1 X133.027 Y93.869 E0.0016
G1 X132.566 Y94.725 E0.0011
G1 X132.071 Y95.578 E0.0011
G1 X131.530 Y96.428 E0.0011
G1 X131.236 Y96.858 E0.0006
G1 X130.947 Y97.270 E0.0006
G1 X130.391 Y98.012 E0.0010
G1 X129.634 Y98.946 E0.0014
G1 X128.650 Y100.062 E0.0017
G1 X127.319 Y101.473 E0.0022
G1 X125.608 Y103.185 E0.0027
G1 X124.308 Y104.416 E0.0020
G1 X123.470 Y105.167 E0.0013
G1 X122.636 Y105.875 E0.0012
G1 X122.094 Y106.307 E0.0008
G1 X120.976 Y107.149 E0.0016
G1 X120.149 Y107.717 E0.0011
G1 X119.358 Y108.217 E0.0011
G1 X118.495 Y108.712 E0.0011
G1 X117.673 Y109.133 E0.0010
G1 X116.853 Y109.501 E0.0010
G1 X116.035 Y109.815 E0.0010
G1 X115.217 Y110.080 E0.0010
G1 X114.403 Y110.301 E0.0010
G1 X112.763 Y110.651 E0.0019
G1 X110.332 Y111.071 E0.0028
G1 X108.753 Y111.380 E0.0018
G1 X107.977 Y111.561 E0.0009
G1 X105.777 Y112.138 E0.0026
G1 X104.993 Y112.325 E0.0009
G1 X104.391 Y112.446 E0.0007
G1 X103.717 Y112.546 E0.0008
G1 X103.052 Y112.598 E0.0008
G1 X102.385 Y112.597 E0.0008
G1 X101.708 Y112.547 E0.0008
G1 X101.016 Y112.456 E0.0008
G1 X100.310 Y112.332 E0.0008
G1 X97.297 Y111.683 E0.0035
G1 X93.268 Y110.876 E0.0047
G1 X92.448 Y110.697 E0.0010
G1 X91.626 Y110.495 E0.0010
G1 X89.955 Y110.032 E0.0020
G1 X89.120 Y109.762 E0.0010
G1 X88.277 Y109.468 E0.0010
G1 X87.436 Y109.147 E0.0010
G1 X86.026 Y108.540 E0.0017
G1 X84.895 Y107.981 E0.0014
G1 X84.468 Y107.753 E0.0005
G1 X83.212 Y107.018 E0.0016
G1 X82.372 Y106.472 E0.0011
G1 X81.814 Y106.087 E0.0008
G1 X80.693 Y105.262 E0.0016
G1 X79.561 Y104.355 E0.0016
G1 X78.165 Y103.150 E0.0021
G1 X77.572 Y102.608 E0.0009
G1 X76.658 Y101.736 E0.0014
G1 X75.778 Y100.848 E0.0014
G1 X74.804 Y99.797 E0.0016
G1 X73.977 Y98.837 E0.0014
G1 X73.163 Y97.813 E0.0015
G1 X72.253 Y96.545 E0.0018
G1 X71.593 Y95.512 E0.0014
G1 X71.193 Y94.821 E0.0009
G1 X70.732 Y93.959 E0.0011
G1 X70.154 Y92.722 E0.0015
G1 X69.624 Y91.372 E0.0016
G1 X69.337 Y90.517 E0.0010
G1 X69.083 Y89.661 E0.0010
G1 X68.858 Y88.811 E0.0010
G1 X68.477 Y87.112 E0.0020
G1 X67.982 Y84.611 E0.0029
G1 X67.634 Y82.992 E0.0019
G1 X67.441 Y82.198 E0.0009
G1 X67.173 Y81.195 E0.0012
G1 X66.611 Y79.220 E0.0023
G1 X66.446 Y78.532 E0.0008
G1 X66.320 Y77.860 E0.0008
G1 X66.244 Y77.204 E0.0007
G1 X66.225 Y76.560 E0.0007
G1 X66.268 Y75.915 E0.0007
G1 X66.366 Y75.260 E0.0007
G1 X66.516 Y74.568 E0.0008
G1 X66.728 Y73.766 E0.0009
G1 X67.316 Y71.710 E0.0024
G1 X67.510 Y70.936 E0.0009
G1 X67.835 Y69.365 E0.0018
G1 X68.243 Y66.959 E0.0028
G1 X68.561 Y65.346 E0.0019
G1 X68.758 Y64.548 E0.0009
G1 X68.996 Y63.749 E0.0009
G1 X69.283 Y62.931 E0.0010
G1 X69.610 Y62.153 E0.0010
G1 X69.995 Y61.348 E0.0010
G1 X70.431 Y60.555 E0.0010
G1 X70.919 Y59.753 E0.0011
G1 X71.456 Y58.949 E0.0011
G1 X72.037 Y58.143 E0.0011
G1 X72.658 Y57.338 E0.0012
; feature solid layer
G1 X82.977 Y105.732 F2100
G1 X72.656 Y95.410 E0.0165 F600
G1 X72.404 Y95.018 E0.0005
G1 X72.023 Y94.359 E0.0009
G1 X71.582 Y93.534 E0.0011
G1 X71.046 Y92.387 E0.0014
G1 X86.250 Y107.591 E0.0243
G1 X86.425 Y107.677 E0.0002
G1 X87.793 Y108.266 E0.0017
G1 X88.604 Y108.576 E0.0010
G1 X88.674 Y108.600 E0.0001
G1 X70.217 Y90.144 E0.0295
G1 X69.997 Y89.403 E0.0009
G1 X69.781 Y88.586 E0.0010
G1 X69.696 Y88.208 E0.0004
G1 X90.756 Y109.268 E0.0337
G1 X91.866 Y109.576 E0.0013
G1 X92.663 Y109.771 E0.0009
G1 X92.676 Y109.774 E0.0000
G1 X69.305 Y86.403 E0.0374
G1 X68.957 Y84.640 E0.0020
G1 X94.463 Y110.147 E0.0408
G1 X96.231 Y110.501 E0.0020
G1 X68.574 Y82.844 E0.0443
G1 X68.560 Y82.780 E0.0001
G1 X68.361 Y81.963 E0.0010
G1 X68.089 Y80.944 E0.0012
G1 X98.009 Y110.864 E0.0479
G1 X99.812 Y111.253 E0.0021
G1 X67.527 Y78.969 E0.0517
G1 X67.376 Y78.334 E0.0007
G1 X67.260 Y77.718 E0.0007
G1 X67.204 Y77.231 E0.0006
G1 X101.540 Y111.567 E0.0550
G1 X101.805 Y111.602 E0.0003
G1 X102.421 Y111.647 E0.0007
G1 X103.016 Y111.648 E0.0007
G1 X103.034 Y111.646 E0.0000
G1 X67.238 Y75.851 E0.0573
G1 X67.301 Y75.431 E0.0005
G1 X67.440 Y74.790 E0.0007
G1 X67.472 Y74.671 E0.0001
G1 X104.297 Y111.496 E0.0589
G1 X104.789 Y111.397 E0.0006
G1 X105.454 Y111.239 E0.0008
G1 X67.776 Y73.560 E0.0603
G1 X68.090 Y72.460 E0.0013
G1 X106.576 Y110.946 E0.0616
G1 X107.697 Y110.652 E0.0013
G1 X68.387 Y71.343 E0.0629
G1 X68.436 Y71.147 E0.0002
G1 X68.637 Y70.179 E0.0011
G1 X108.851 Y110.393 E0.0644
G1 X110.034 Y110.161 E0.0014
G1 X68.863 Y68.990 E0.0659
G1 X69.068 Y67.781 E0.0014
G1 X111.237 Y109.950 E0.0675
G1 X112.443 Y109.742 E0.0014
G1 X69.285 Y66.584 E0.0691
G1 X69.489 Y65.551 E0.0012
G1 X69.524 Y65.409 E0.0002
G1 X113.613 Y109.498 E0.0706
G1 X114.180 Y109.377 E0.0007
G1 X114.751 Y109.222 E0.0007
G1 X69.825 Y64.295 E0.0719
G1 X69.900 Y64.042 E0.0003
G1 X70.170 Y63.273 E0.0009
G1 X70.184 Y63.240 E0.0000
G1 X115.822 Y108.879 E0.0730
G1 X116.488 Y108.623 E0.0008
G1 X116.829 Y108.471 E0.0004
G1 X70.614 Y62.256 E0.0740
G1 X70.840 Y61.782 E0.0006
G1 X71.094 Y61.322 E0.0006
G1 X117.782 Y108.010 E0.0747
G1 X118.043 Y107.876 E0.0003
G1 X118.691 Y107.505 E0.0008
G1 X71.618 Y60.432 E0.0753
G1 X71.720 Y60.264 E0.0002
G1 X72.178 Y59.578 E0.0009
G1 X119.564 Y106.963 E0.0758
G1 X119.626 Y106.924 E0.0001
G1 X120.404 Y106.389 E0.0011
G1 X72.768 Y58.753 E0.0762
G1 X72.798 Y58.711 E0.0001
G1 X73.382 Y57.953 E0.0011
G1 X121.211 Y105.782 E0.0766
G1 X121.512 Y105.556 E0.0004
G1 X122.006 Y105.162 E0.0007
G1 X74.019 Y57.176 E0.0768
G1 X74.042 Y57.147 E0.0000
G1 X74.678 Y56.421 E0.0011
G1 X122.771 Y104.514 E0.0770
G1 X122.845 Y104.451 E0.0001
G1 X123.519 Y103.847 E0.0010
G1 X75.350 Y55.678 E0.0771
G1 X76.031 Y54.946 E0.0011
G1 X124.249 Y103.163 E0.0772
G1 X124.945 Y102.505 E0.0011
G1 X124.975 Y102.475 E0.0000
G1 X76.727 Y54.227 E0.0772
G1 X77.428 Y53.514 E0.0011
G1 X125.682 Y101.768 E0.0772
G1 X126.389 Y101.060 E0.0011
G1 X78.129 Y52.800 E0.0772
G1 X78.467 Y52.456 E0.0005
G1 X78.833 Y52.091 E0.0006
G1 X127.082 Y100.340 E0.0772
G1 X127.769 Y99.612 E0.0011
G1 X79.545 Y51.388 E0.0772
G1 X80.263 Y50.692 E0.0011
G1 X128.438 Y98.867 E0.0771
G1 X128.909 Y98.332 E0.0008
G1 X129.092 Y98.106 E0.0003
G1 X80.990 Y50.005 E0.0770
G1 X81.695 Y49.374 E0.0011
G1 X81.738 Y49.338 E0.0001
G1 X129.721 Y97.322 E0.0768
G1 X130.178 Y96.712 E0.0009
G1 X130.321 Y96.508 E0.0003
G1 X82.509 Y48.696 E0.0765
G1 X83.312 Y48.084 E0.0011
G1 X130.891 Y95.663 E0.0762
G1 X131.259 Y95.084 E0.0008
G1 X131.431 Y94.789 E0.0004
G1 X84.145 Y47.503 E0.0757
G1 X84.650 Y47.176 E0.0007
G1 X85.017 Y46.961 E0.0005
G1 X131.940 Y93.884 E0.0751
G1 X132.182 Y93.436 E0.0006
G1 X132.419 Y92.948 E0.0006
G1 X85.919 Y46.449 E0.0744
G1 X86.405 Y46.193 E0.0006
G1 X86.864 Y45.979 E0.0006
G1 X132.874 Y91.989 E0.0736
