; G-Code generated by Simplify3D(R) Version 4.1.2
; Feb 11, 2022 at 3:11:28 PM
; Settings Summary
;   processName,Process1
;   applyToModels,heart
;   profileName,MANU Easy Food_Butter_1mm_1.0.0_S3D
;   profileVersion,2022-02-11 15:07:20
;   baseProfile,Default
;   printMaterial,PLA (MHI3D)
;   printQuality,Medium
;   printExtruders,
;   extruderName,Extruder 1
;   extruderToolheadNumber,0
;   extruderDiameter,1
;   extruderAutoWidth,0
;   extruderWidth,1
;   extrusionMultiplier,1
;   extruderUseRetract,1
;   extruderRetractionDistance,0.3
;   extruderExtraRestartDistance,0
;   extruderRetractionZLift,0.7
;   extruderRetractionSpeed,480
;   extruderUseCoasting,0
;   extruderCoastingDistance,0.5
;   extruderUseWipe,0
;   extruderWipeDistance,0
;   primaryExtruder,0
;   layerHeight,0.8
;   topSolidLayers,3
;   bottomSolidLayers,2
;   perimeterOutlines,2
;   printPerimetersInsideOut,1
;   startPointOption,2
;   startPointOriginX,70
;   startPointOriginY,50
;   sequentialIslands,1
;   spiralVaseMode,0
;   firstLayerHeightPercentage,100
;   firstLayerWidthPercentage,100
;   firstLayerUnderspeed,1
;   useRaft,0
;   raftExtruder,0
;   raftTopLayers,3
;   raftBaseLayers,3
;   raftOffset,3
;   raftSeparationDistance,0.14
;   raftTopInfill,100
;   aboveRaftSpeedMultiplier,0.3
;   useSkirt,0
;   skirtExtruder,0
;   skirtLayers,1
;   skirtOutlines,1
;   skirtOffset,4
;   usePrimePillar,0
;   primePillarExtruder,999
;   primePillarWidth,12
;   primePillarLocation,7
;   primePillarSpeedMultiplier,1
;   useOozeShield,0
;   oozeShieldExtruder,999
;   oozeShieldOffset,2
;   oozeShieldOutlines,1
;   oozeShieldSidewallShape,1
;   oozeShieldSidewallAngle,30
;   oozeShieldSpeedMultiplier,1
;   infillExtruder,0
;   internalInfillPattern,Rectilinear
;   externalInfillPattern,Rectilinear
;   infillPercentage,50
;   outlineOverlapPercentage,1
;   infillExtrusionWidthPercentage,100
;   minInfillLength,20
;   infillLayerInterval,1
;   internalInfillAngles,45,-45
;   overlapInternalInfillAngles,0
;   externalInfillAngles,45,-45
;   generateSupport,0
;   supportExtruder,0
;   supportInfillPercentage,25
;   supportExtraInflation,0.2
;   supportBaseLayers,2
;   denseSupportExtruder,0
;   denseSupportLayers,2
;   denseSupportInfillPercentage,50
;   supportLayerInterval,1
;   supportHorizontalPartOffset,0.3
;   supportUpperSeparationLayers,1
;   supportLowerSeparationLayers,0
;   supportType,1
;   supportGridSpacing,3
;   maxOverhangAngle,45
;   supportAngles,0
;   temperatureName,Extruder 1
;   temperatureNumber,0
;   temperatureSetpointCount,1
;   temperatureSetpointLayers,1
;   temperatureSetpointTemperatures,0
;   temperatureStabilizeAtStartup,1
;   temperatureHeatedBed,0
;   fanLayers,1
;   fanSpeeds,10
;   blipFanToFullPower,0
;   adjustSpeedForCooling,1
;   minSpeedLayerTime,10
;   minCoolingSpeedSlowdown,30
;   increaseFanForCooling,0
;   minFanLayerTime,45
;   maxCoolingFanSpeed,100
;   increaseFanForBridging,0
;   bridgingFanSpeed,100
;   use5D,1
;   relativeEdistances,1
;   allowEaxisZeroing,1
;   independentExtruderAxes,0
;   includeM10123,0
;   stickySupport,1
;   applyToolheadOffsets,0
;   gcodeXoffset,0
;   gcodeYoffset,0
;   gcodeZoffset,0
;   overrideMachineDefinition,1
;   machineTypeOverride,0
;   strokeXoverride,200
;   strokeYoverride,155
;   strokeZoverride,140
;   originOffsetXoverride,0
;   originOffsetYoverride,0
;   originOffsetZoverride,0
;   homeXdirOverride,-1
;   homeYdirOverride,-1
;   homeZdirOverride,-1
;   flipXoverride,1
;   flipYoverride,-1
;   flipZoverride,1
;   toolheadOffsets,0,0|0,0|0,0|0,0|0,0|0,0
;   overrideFirmwareConfiguration,0
;   firmwareTypeOverride,RepRap (Marlin/Repetier/Sprinter)
;   GPXconfigOverride,r2
;   baudRateOverride,250000
;   overridePrinterModels,0
;   printerModelsOverride
;   startingGcode,;Pressure advances,M400 ; Finish all current moves and for pressure advances.,M572 D0 S0.00                      ;Pressure advance enabled,;Wipe,G1 Z1 F900			;Wipe height,M83			;Extruder to relative mode,M400,G1 Y140 E0.2 F900		;Draw first thin line,G1 X1 F900,G1 Y5 E0.2 F900		;Draw second thin line,G1 X2 F900,G1 Y50 F900			;Coast in case of leakage,;M82			;Extruder to absolute mode (default),M400			; wait for moves to finish,G92 E0			; zero extruder,;MHI3D CODE END
;   layerChangeGcode,
;   retractionGcode,
;   toolChangeGcode,
;   endingGcode,G28 Z0	;Home Z,M83	;Extruder to relative mode,G1 E-0.1 F10	;Extrude back,M82	;Extruder to absolute mode (default),M400	; wait for moves to finishng,G92 E0	; zero extruder,G28	;Home,;M104 S0	;Set Extruder Temperature,;M140 S0	;Set Bed Temperature (Fast) or Configure Bed Heater,M18 X Z E0	;Disable XZE stepper motors,G1 Y145 F3000	;Move,G92 E0	;Set position,M107	;Fan off,M18 Y	;Disable Y stepper motor
;   exportFileFormat,gcode
;   celebration,0
;   celebrationSong,Random Song
;   postProcessing,
;   defaultSpeed,1200
;   outlineUnderspeed,1
;   solidInfillUnderspeed,1
;   supportUnderspeed,1
;   rapidXYspeed,4800
;   rapidZspeed,900
;   minBridgingArea,50
;   bridgingExtraInflation,0
;   bridgingExtrusionMultiplier,1
;   bridgingSpeedMultiplier,1
;   useFixedBridgingAngle,0
;   fixedBridgingAngle,0
;   applyBridgingToPerimeters,0
;   filamentDiameters,30|1.75|1.75|1.75|1.75|1.75
;   filamentPricesPerKg,10|46|46|46|46|46
;   filamentDensities,0.91|1.25|1.25|1.25|1.25|1.25
;   useMinPrintHeight,0
;   minPrintHeight,2.5
;   useMaxPrintHeight,1
;   maxPrintHeight,50
;   useDiaphragm,0
;   diaphragmLayerInterval,20
;   robustSlicing,1
;   mergeAllIntoSolid,0
;   onlyRetractWhenCrossingOutline,1
;   retractBetweenLayers,0
;   useRetractionMinTravel,1
;   retractionMinTravel,10
;   retractWhileWiping,0
;   onlyWipeOutlines,0
;   avoidCrossingOutline,0
;   maxMovementDetourFactor,15
;   toolChangeRetractionDistance,12
;   toolChangeExtraRestartDistance,-0.5
;   toolChangeRetractionSpeed,600
;   externalThinWallType,1
;   internalThinWallType,1
;   thinWallAllowedOverlapPercentage,5
;   singleExtrusionMinLength,5
;   singleExtrusionMinPrintingWidthPercentage,100
;   singleExtrusionMaxPrintingWidthPercentage,200
;   singleExtrusionEndpointExtension,1
;   horizontalSizeCompensation,0
G90
M83
M106 S26
M104 S0 T0
;Pressure advances
M400 ; Finish all current moves and for pressure advances.
M572 D0 S0.00                      ;Pressure advance enabled
;Wipe
G1 Z1 F900			;Wipe height
M83			;Extruder to relative mode
M400
G1 Y140 E0.2 F900		;Draw first thin line
G1 X1 F900
G1 Y5 E0.2 F900		;Draw second thin line
G1 X2 F900
G1 Y50 F900			;Coast in case of leakage
;M82			;Extruder to absolute mode (default)
M400			; wait for moves to finish
G92 E0			; zero extruder
;MHI3D CODE END
; process Process1
; layer 1, Z = 0.800
T0
G1 E-0.3000 F480
; feature inner perimeter
; tool H0.800 W1.000
G1 Z0.800 F900
G1 X29.479 Y44.333 F4800
G1 E0.3000 F480
G1 X49.576 Y24.236 E0.0322 F1200
G1 X68.668 Y43.327 E0.0306
G1 X68.610 Y43.386 E0.0001
G1 X70.667 Y45.443 E0.0033
G1 X72.204 Y47.809 E0.0032
G1 X73.214 Y50.442 E0.0032
G1 X73.656 Y53.228 E0.0032
G1 X73.508 Y56.045 E0.0032
G1 X72.778 Y58.769 E0.0032
G1 X71.497 Y61.282 E0.0032
G1 X69.722 Y63.474 E0.0032
G1 X67.530 Y65.249 E0.0032
G1 X65.017 Y66.530 E0.0032
G1 X62.293 Y67.260 E0.0032
G1 X59.476 Y67.407 E0.0032
G1 X56.690 Y66.966 E0.0032
G1 X54.057 Y65.955 E0.0032
G1 X51.692 Y64.419 E0.0032
G1 X49.737 Y62.464 E0.0031
G1 X46.315 Y65.250 E0.0050
G1 X43.804 Y66.530 E0.0032
G1 X41.080 Y67.260 E0.0032
G1 X38.263 Y67.407 E0.0032
G1 X35.477 Y66.966 E0.0032
G1 X32.844 Y65.955 E0.0032
G1 X30.479 Y64.419 E0.0032
G1 X28.484 Y62.425 E0.0032
G1 X26.948 Y60.059 E0.0032
G1 X25.937 Y57.426 E0.0032
G1 X25.496 Y54.640 E0.0032
G1 X25.644 Y51.823 E0.0032
G1 X26.374 Y49.099 E0.0032
G1 X27.654 Y46.586 E0.0032
G1 X29.479 Y44.333 E0.0033
; feature outer perimeter
G1 X28.735 Y43.662 F4800
G1 X49.576 Y22.821 E0.0334 F1200
G1 X70.082 Y43.327 E0.0328
G1 X70.024 Y43.386 E0.0001
G1 X71.449 Y44.811 E0.0023
G1 X73.100 Y47.352 E0.0034
G1 X74.186 Y50.182 E0.0034
G1 X74.660 Y53.175 E0.0034
G1 X74.501 Y56.202 E0.0034
G1 X73.717 Y59.129 E0.0034
G1 X72.341 Y61.830 E0.0034
G1 X70.433 Y64.185 E0.0034
G1 X68.078 Y66.092 E0.0034
G1 X65.378 Y67.468 E0.0034
G1 X62.450 Y68.253 E0.0034
G1 X59.424 Y68.411 E0.0034
G1 X56.430 Y67.937 E0.0034
G1 X53.601 Y66.851 E0.0034
G1 X51.059 Y65.200 E0.0034
G1 X49.668 Y63.810 E0.0022
G1 X46.864 Y66.093 E0.0041
G1 X44.165 Y67.468 E0.0034
G1 X41.237 Y68.253 E0.0034
G1 X38.210 Y68.411 E0.0034
G1 X35.217 Y67.937 E0.0034
G1 X32.388 Y66.851 E0.0034
G1 X29.846 Y65.200 E0.0034
G1 X27.703 Y63.057 E0.0034
G1 X26.052 Y60.516 E0.0034
G1 X24.966 Y57.686 E0.0034
G1 X24.492 Y54.693 E0.0034
G1 X24.650 Y51.666 E0.0034
G1 X25.435 Y48.739 E0.0034
G1 X26.811 Y46.038 E0.0034
G1 X28.735 Y43.662 E0.0035
; feature solid layer
G1 X27.536 Y58.830 F4800
G1 X34.073 Y65.367 E0.0105 F1200
G1 X35.735 Y66.004 E0.0020
G1 X36.199 Y66.078 E0.0005
G1 X26.825 Y56.704 E0.0150
G1 X26.559 Y55.024 E0.0019
G1 X37.879 Y66.344 E0.0181
G1 X38.315 Y66.413 E0.0005
G1 X39.310 Y66.361 E0.0011
G1 X26.542 Y53.593 E0.0204
G1 X26.613 Y52.249 E0.0015
G1 X40.654 Y66.291 E0.0225
G1 X40.924 Y66.276 E0.0003
G1 X41.815 Y66.038 E0.0010
G1 X26.866 Y51.088 E0.0239
G1 X27.164 Y49.973 E0.0013
G1 X42.931 Y65.739 E0.0252
G1 X43.447 Y65.600 E0.0006
G1 X43.950 Y65.344 E0.0006
G1 X27.559 Y48.953 E0.0262
G1 X28.036 Y48.016 E0.0012
G1 X44.887 Y64.867 E0.0270
G1 X45.772 Y64.416 E0.0011
G1 X45.815 Y64.381 E0.0001
G1 X28.522 Y47.087 E0.0277
G1 X29.155 Y46.306 E0.0011
G1 X46.595 Y63.746 E0.0279
G1 X47.374 Y63.111 E0.0011
G1 X29.787 Y45.524 E0.0281
G1 X30.216 Y44.996 E0.0008
G1 X30.444 Y44.767 E0.0004
G1 X48.154 Y62.477 E0.0283
G1 X48.933 Y61.842 E0.0011
G1 X31.151 Y44.060 E0.0285
G1 X31.858 Y43.353 E0.0011
G1 X49.713 Y61.207 E0.0286
G1 X49.805 Y61.132 E0.0001
G1 X52.318 Y63.645 E0.0040
G1 X54.509 Y65.068 E0.0030
G1 X55.286 Y65.367 E0.0009
G1 X32.566 Y42.646 E0.0364
G1 X33.273 Y41.939 E0.0011
G1 X57.412 Y66.078 E0.0386
G1 X59.092 Y66.344 E0.0019
G1 X33.980 Y41.232 E0.0402
G1 X34.687 Y40.524 E0.0011
G1 X60.523 Y66.361 E0.0414
G1 X61.867 Y66.291 E0.0015
G1 X35.394 Y39.817 E0.0424
G1 X36.101 Y39.110 E0.0011
G1 X63.028 Y66.038 E0.0431
G1 X64.144 Y65.739 E0.0013
G1 X36.808 Y38.403 E0.0438
G1 X37.515 Y37.696 E0.0011
G1 X65.163 Y65.344 E0.0443
G1 X66.100 Y64.867 E0.0012
G1 X38.222 Y36.989 E0.0446
G1 X38.930 Y36.282 E0.0011
G1 X67.029 Y64.381 E0.0450
G1 X67.810 Y63.749 E0.0011
G1 X39.637 Y35.575 E0.0451
G1 X40.344 Y34.868 E0.0011
G1 X68.592 Y63.116 E0.0452
G1 X69.019 Y62.770 E0.0006
G1 X69.306 Y62.415 E0.0005
G1 X41.051 Y34.160 E0.0452
G1 X41.758 Y33.453 E0.0011
G1 X69.939 Y61.634 E0.0451
G1 X70.571 Y60.853 E0.0011
G1 X42.465 Y32.746 E0.0450
G1 X43.172 Y32.039 E0.0011
G1 X71.071 Y59.938 E0.0447
G1 X71.548 Y59.001 E0.0012
G1 X43.879 Y31.332 E0.0443
G1 X44.586 Y30.625 E0.0011
G1 X71.960 Y57.998 E0.0438
G1 X72.258 Y56.883 E0.0013
G1 X45.294 Y29.918 E0.0432
G1 X46.001 Y29.211 E0.0011
G1 X72.532 Y55.743 E0.0425
G1 X72.603 Y54.399 E0.0015
G1 X46.708 Y28.504 E0.0414
G1 X47.415 Y27.796 E0.0011
G1 X72.617 Y52.999 E0.0403
G1 X72.351 Y51.318 E0.0019
G1 X48.122 Y27.089 E0.0388
G1 X48.829 Y26.382 E0.0011
G1 X71.696 Y49.249 E0.0366
G1 X71.317 Y48.261 E0.0012
G1 X69.894 Y46.070 E0.0030
G1 X67.210 Y43.386 E0.0043
G1 X67.228 Y43.367 E0.0000
G1 X49.536 Y25.675 E0.0283
; layer 2, Z = 1.600
; feature inner perimeter
G1 Z1.600 F900
G1 X49.576 Y24.236 F4800
G1 X68.668 Y43.327 E0.0306 F1200
G1 X68.610 Y43.386 E0.0001
G1 X70.667 Y45.443 E0.0033
G1 X72.204 Y47.809 E0.0032
G1 X73.214 Y50.442 E0.0032
G1 X73.656 Y53.228 E0.0032
G1 X73.508 Y56.045 E0.0032
G1 X72.778 Y58.769 E0.0032
G1 X71.497 Y61.282 E0.0032
G1 X69.722 Y63.474 E0.0032
G1 X67.530 Y65.249 E0.0032
G1 X65.017 Y66.530 E0.0032
G1 X62.293 Y67.260 E0.0032
G1 X59.476 Y67.407 E0.0032
G1 X56.690 Y66.966 E0.0032
G1 X54.057 Y65.955 E0.0032
G1 X51.692 Y64.419 E0.0032
G1 X49.737 Y62.464 E0.0031
G1 X46.315 Y65.250 E0.0050
G1 X43.804 Y66.530 E0.0032
G1 X41.080 Y67.260 E0.0032
G1 X38.263 Y67.407 E0.0032
G1 X35.477 Y66.966 E0.0032
G1 X32.844 Y65.955 E0.0032
G1 X30.479 Y64.419 E0.0032
G1 X28.484 Y62.425 E0.0032
G1 X26.948 Y60.059 E0.0032
G1 X25.937 Y57.426 E0.0032
G1 X25.496 Y54.640 E0.0032
G1 X25.644 Y51.823 E0.0032
G1 X26.374 Y49.099 E0.0032
G1 X27.654 Y46.586 E0.0032
G1 X29.479 Y44.333 E0.0033
G1 X49.576 Y24.236 E0.0322
; feature outer perimeter
G1 X49.576 Y22.821 F4800
G1 X70.082 Y43.327 E0.0328 F1200
G1 X70.024 Y43.386 E0.0001
G1 X71.449 Y44.811 E0.0023
G1 X73.100 Y47.352 E0.0034
G1 X74.186 Y50.182 E0.0034
G1 X74.660 Y53.175 E0.0034
G1 X74.501 Y56.202 E0.0034
G1 X73.717 Y59.129 E0.0034
G1 X72.341 Y61.830 E0.0034
G1 X70.433 Y64.185 E0.0034
G1 X68.078 Y66.092 E0.0034
G1 X65.378 Y67.468 E0.0034
G1 X62.450 Y68.253 E0.0034
G1 X59.424 Y68.411 E0.0034
G1 X56.430 Y67.937 E0.0034
G1 X53.601 Y66.851 E0.0034
G1 X51.059 Y65.200 E0.0034
G1 X49.668 Y63.810 E0.0022
G1 X46.864 Y66.093 E0.0041
G1 X44.165 Y67.468 E0.0034
G1 X41.237 Y68.253 E0.0034
G1 X38.210 Y68.411 E0.0034
G1 X35.217 Y67.937 E0.0034
G1 X32.388 Y66.851 E0.0034
G1 X29.846 Y65.200 E0.0034
G1 X27.703 Y63.057 E0.0034
G1 X26.052 Y60.516 E0.0034
G1 X24.966 Y57.686 E0.0034
G1 X24.492 Y54.693 E0.0034
G1 X24.650 Y51.666 E0.0034
G1 X25.435 Y48.739 E0.0034
G1 X26.811 Y46.038 E0.0034
G1 X28.735 Y43.662 E0.0035
G1 X49.576 Y22.821 E0.0334
; feature solid layer
G1 X29.878 Y45.412 F4800
G1 X49.615 Y25.675 E0.0316 F1200
G1 X50.322 Y26.382 E0.0011
G1 X27.359 Y49.346 E0.0368
G1 X27.303 Y49.456 E0.0001
G1 X26.805 Y51.314 E0.0022
G1 X51.030 Y27.089 E0.0388
G1 X51.737 Y27.797 E0.0011
G1 X26.575 Y52.958 E0.0403
G1 X26.497 Y54.450 E0.0017
G1 X52.444 Y28.504 E0.0415
G1 X53.151 Y29.211 E0.0011
G1 X26.666 Y55.696 E0.0424
G1 X26.859 Y56.917 E0.0014
G1 X53.858 Y29.918 E0.0432
G1 X54.565 Y30.625 E0.0011
G1 X27.210 Y57.980 E0.0438
G1 X27.602 Y59.002 E0.0012
G1 X55.272 Y31.332 E0.0443
G1 X55.979 Y32.039 E0.0011
G1 X28.062 Y59.957 E0.0447
G1 X28.619 Y60.814 E0.0012
G1 X56.686 Y32.746 E0.0449
G1 X57.394 Y33.453 E0.0011
G1 X29.175 Y61.671 E0.0452
G1 X29.258 Y61.798 E0.0002
G1 X29.860 Y62.401 E0.0010
G1 X58.101 Y34.160 E0.0452
G1 X58.808 Y34.868 E0.0011
G1 X30.567 Y63.108 E0.0452
G1 X31.105 Y63.645 E0.0009
G1 X31.311 Y63.779 E0.0003
G1 X59.515 Y35.575 E0.0451
G1 X60.222 Y36.282 E0.0011
G1 X32.168 Y64.336 E0.0449
G1 X33.025 Y64.893 E0.0012
G1 X60.929 Y36.989 E0.0447
G1 X61.636 Y37.696 E0.0011
G1 X33.995 Y65.337 E0.0442
G1 X35.017 Y65.729 E0.0012
G1 X62.343 Y38.403 E0.0437
G1 X63.050 Y39.110 E0.0011
G1 X36.099 Y66.062 E0.0431
G1 X37.319 Y66.255 E0.0014
G1 X63.758 Y39.817 E0.0423
G1 X64.465 Y40.524 E0.0011
G1 X38.590 Y66.399 E0.0414
G1 X40.083 Y66.320 E0.0017
G1 X65.172 Y41.232 E0.0402
G1 X65.879 Y41.939 E0.0011
G1 X41.767 Y66.051 E0.0386
G1 X43.447 Y65.600 E0.0020
G1 X43.823 Y65.409 E0.0005
G1 X66.586 Y42.646 E0.0364
G1 X67.268 Y43.328 E0.0011
G1 X67.210 Y43.386 E0.0001
G1 X67.235 Y43.411 E0.0000
G1 X48.237 Y62.408 E0.0304
G1 X49.805 Y61.132 E0.0023
G1 X50.366 Y61.694 E0.0009
G1 X67.942 Y44.118 E0.0281
G1 X68.649 Y44.825 E0.0011
G1 X51.074 Y62.401 E0.0281
G1 X51.781 Y63.108 E0.0011
G1 X69.356 Y45.532 E0.0281
G1 X69.894 Y46.070 E0.0009
G1 X70.027 Y46.275 E0.0003
G1 X52.524 Y63.779 E0.0280
G1 X53.381 Y64.336 E0.0012
G1 X70.584 Y47.133 E0.0275
G1 X71.141 Y47.990 E0.0012
G1 X54.239 Y64.893 E0.0271
G1 X54.509 Y65.068 E0.0004
G1 X55.209 Y65.337 E0.0008
G1 X71.585 Y48.960 E0.0262
G1 X71.977 Y49.982 E0.0012
G1 X56.231 Y65.729 E0.0252
G1 X56.948 Y66.004 E0.0009
G1 X57.312 Y66.062 E0.0004
G1 X72.310 Y51.063 E0.0240
G1 X72.504 Y52.284 E0.0014
G1 X58.533 Y66.255 E0.0224
G1 X59.528 Y66.413 E0.0011
G1 X59.804 Y66.399 E0.0003
G1 X72.647 Y53.555 E0.0206
G1 X72.569 Y55.048 E0.0017
G1 X61.296 Y66.320 E0.0180
G1 X62.137 Y66.276 E0.0010
G1 X62.980 Y66.051 E0.0010
G1 X72.299 Y56.732 E0.0149
G1 X71.849 Y58.412 E0.0020
G1 X71.657 Y58.788 E0.0005
G1 X65.036 Y65.409 E0.0106
; layer 3, Z = 2.400
; feature inner perimeter
G1 Z2.400 F900
G1 X65.017 Y66.530 F4800
G1 X62.293 Y67.260 E0.0032 F1200
G1 X59.476 Y67.407 E0.0032
G1 X56.690 Y66.966 E0.0032
G1 X54.057 Y65.955 E0.0032
G1 X51.692 Y64.419 E0.0032
