;FLAVOR:RepRap
;TIME:1697
;Filament used: 0.011841m
;Layer height: 0.7
;MINX:84.509
;MINY:62.877
;MINZ:0.7
;MAXX:115.491
;MAXY:92.104
;MAXZ:38.4
;Generated with Cura_SteamEngine 4.11.0
T0
M104 S35
M109 S35
M82 ;absolute extrusion mode
;Pressure advances
M400 ; Finish all current moves and for pressure advances.
M572 D0 S0.00                      ;Pressure advance enabled
;Wipe
G1 Z1 F900			;Wipe height
M83			;Extruder to relative mode
M400
G1 Y140 E0.2 F900		;Draw first thin line
G1 X1 F900
G1 Y5 E0.2 F900		;Draw second thin line
G1 X2 F900
G1 Y50 F900			;Coast in case of leakage
;M82			;Extruder to absolute mode (default)
M400			; wait for moves to finish
G92 E0			; zero extruder
;MHI3D CODE END
M83 ;relative extrusion mode
G1 F480 E-0.05
;LAYER_COUNT:53
;LAYER:0
M107
G1 F600 Z2.7
;MESH:panda.stl
G0 F4800 X89.296 Y70.098 Z2.7
;TYPE:WALL-INNER
G1 F600 Z0.7
G1 F480 E0.05
G1 F420 X89.548 Y69.823 E0.00037
G1 X89.598 Y69.768 E0.00007
G1 X89.957 Y69.594 E0.0004
G1 X90.239 Y69.659 E0.00029
G1 X90.403 Y69.782 E0.0002
G1 X90.459 Y69.823 E0.00007
G1 X90.509 Y69.878 E0.00007
G1 X90.715 Y70.105 E0.0003
G1 X90.954 Y70.528 E0.00048
G1 X90.912 Y70.583 E0.00007
G1 X90.681 Y70.883 E0.00037
G1 X90.286 Y71.462 E0.00069
G1 X89.914 Y72.093 E0.00073
G1 X89.907 Y72.105 E0.00001
G1 X89.655 Y72.605 E0.00055
G1 X89.582 Y72.75 E0.00016
G1 X89.46 Y73.032 E0.0003
G1 X89.37 Y73.238 E0.00022
G0 F4800 X89.15 Y72.898
G1 F420 X88.988 Y72.415 E0.00032
G1 X88.928 Y72.239 E0.00014
G1 X88.926 Y72.225 E0.00001
G1 X88.871 Y71.846 E0.00038
G1 X88.872 Y71.4 E0.00044
G1 X89.019 Y70.667 E0.00074
G1 X89.296 Y70.098 E0.00063
G1 F480 E-0.05
G1 F600 Z2.7
G0 F4800 X109.278 Y70.121 Z2.7
G1 F600 Z0.7
G1 F480 E0.05
G1 F420 X109.55 Y69.823 E0.0004
G1 X109.601 Y69.766 E0.00008
G1 X109.632 Y69.751 E0.00003
G1 X109.957 Y69.594 E0.00036
G1 X110.239 Y69.659 E0.00029
G1 X110.459 Y69.822 E0.00027
G1 X110.51 Y69.879 E0.00008
G1 X110.661 Y70.045 E0.00022
G1 X110.972 Y70.637 E0.00066
G1 X111.129 Y71.404 E0.00078
G1 X111.129 Y71.843 E0.00043
G1 X111.047 Y72.251 E0.00041
G1 X111.043 Y72.274 E0.00002
G1 X110.983 Y72.575 E0.0003
G1 X110.815 Y72.923 E0.00038
G1 X110.703 Y73.154 E0.00025
G1 X110.632 Y73.242 E0.00011
G0 F4800 X110.408 Y72.727
G1 F420 X110.081 Y72.083 E0.00061
G1 X110.069 Y72.063 E0.00002
G1 X109.713 Y71.462 E0.00069
G1 X109.308 Y70.866 E0.00071
G1 X109.068 Y70.555 E0.00039
G1 X109.047 Y70.528 E0.00003
G1 X109.278 Y70.121 E0.00046
G0 F4800 X108.448 Y69.557
G1 F420 X108.73 Y69.206 E0.00045
G1 X108.997 Y68.963 E0.00036
G1 X109.396 Y68.72 E0.00046
G1 X109.77 Y68.605 E0.00039
G1 X109.976 Y68.583 E0.00021
G1 X110.46 Y68.665 E0.00049
G1 X110.742 Y68.787 E0.0003
G1 X111.131 Y69.076 E0.00048
G1 X111.197 Y69.149 E0.0001
G1 X111.466 Y69.444 E0.0004
G1 X111.741 Y69.893 E0.00052
G1 X111.921 Y70.313 E0.00045
G1 X112.054 Y70.81 E0.00051
G1 X112.129 Y71.332 E0.00052
G1 X112.129 Y71.918 E0.00058
G1 X112.047 Y72.481 E0.00056
G1 X111.922 Y72.928 E0.00046
G1 X111.554 Y73.69 E0.00084
G1 X111.483 Y73.778 E0.00011
G1 X111.272 Y74.042 E0.00033
G1 X110.744 Y74.467 E0.00067
G1 X110.186 Y74.753 E0.00062
G1 X110.109 Y74.793 E0.00009
G0 F4800 X110.072 Y74.663
G1 F420 X109.983 Y74.36 E0.00019
G1 X109.765 Y73.757 E0.00063
G1 X109.503 Y73.153 E0.00065
G1 X109.204 Y72.565 E0.00065
G1 X108.868 Y71.998 E0.00065
G1 X108.498 Y71.453 E0.00065
G1 X108.094 Y70.93 E0.00065
G1 X107.836 Y70.637 E0.00039
G1 X108.448 Y69.557 E0.00123
G1 F480 E-0.05
G1 F600 Z2.7
G0 F4800 X92.164 Y70.639 Z2.7
G1 F600 Z0.7
G1 F480 E0.05
G1 F420 X91.905 Y70.932 E0.00039
G1 X91.491 Y71.47 E0.00067
G1 X91.131 Y71.998 E0.00063
G1 X90.785 Y72.585 E0.00067
G1 X90.488 Y73.174 E0.00065
G1 X90.235 Y73.758 E0.00063
G1 X90.07 Y74.214 E0.00048
G1 X90.01 Y74.38 E0.00017
G1 X89.928 Y74.666 E0.00029
G1 X89.892 Y74.789 E0.00013
G0 F4800 X89.822 Y74.754
G1 F420 X89.281 Y74.48 E0.0004
G1 X89.139 Y74.375 E0.00017
G1 X88.868 Y74.173 E0.00033
G1 X88.529 Y73.8 E0.0005
G1 X88.261 Y73.361 E0.00051
G1 X88.079 Y72.937 E0.00046
G1 X87.946 Y72.44 E0.00051
G1 X87.871 Y71.917 E0.00052
G1 X87.872 Y71.327 E0.00058
G1 X87.952 Y70.771 E0.00056
G1 X88.08 Y70.313 E0.00047
G1 X88.447 Y69.558 E0.00083
G1 X88.728 Y69.208 E0.00044
G1 X88.997 Y68.963 E0.00036
G1 X89.396 Y68.72 E0.00046
G1 X89.77 Y68.605 E0.00039
G1 X89.976 Y68.583 E0.00021
G1 X90.46 Y68.665 E0.00049
G1 X90.742 Y68.787 E0.0003
G1 X91.131 Y69.076 E0.00048
G1 X91.489 Y69.469 E0.00053
G1 X91.554 Y69.558 E0.00011
G1 X92.164 Y70.639 E0.00123
G0 F4800 X91.165 Y74.127
;TYPE:WALL-OUTER
G1 F420 X90.962 Y74.689 E0.00059
G1 X90.796 Y75.262 E0.00059
G1 X90.662 Y75.865 E0.00061
G1 X90.572 Y76.446 E0.00058
G1 X90.517 Y77.049 E0.0006
G1 X90.497 Y77.625 E0.00057
G1 X90.517 Y78.222 E0.00059
G1 X90.573 Y78.815 E0.00059
G1 X90.666 Y79.405 E0.00059
G1 X90.802 Y80.008 E0.00061
G1 X90.962 Y80.562 E0.00057
G1 X91.165 Y81.124 E0.00059
G1 X91.412 Y81.688 E0.00061
G1 X91.672 Y82.203 E0.00057
G1 X91.977 Y82.717 E0.00059
G1 X92.32 Y83.22 E0.0006
G1 X92.677 Y83.682 E0.00058
G1 X93.073 Y84.131 E0.00059
G1 X93.295 Y84.352 E0.00031
G1 X93.335 Y84.392 E0.00006
G1 X93.51 Y84.566 E0.00024
G1 X93.958 Y84.96 E0.00059
G1 X94.006 Y84.997 E0.00006
G1 X94.419 Y85.315 E0.00052
G1 X94.483 Y85.358 E0.00008
G1 X94.926 Y85.659 E0.00053
G1 X95.322 Y85.893 E0.00046
G1 X95.422 Y85.952 E0.00011
G1 X95.82 Y86.154 E0.00044
G1 X95.955 Y86.223 E0.00015
G1 X96.058 Y86.267 E0.00011
G1 X96.52 Y86.466 E0.0005
G1 X96.645 Y86.511 E0.00013
G1 X97.064 Y86.663 E0.00044
G1 X97.255 Y86.718 E0.0002
G1 X97.465 Y86.778 E0.00022
G1 X97.656 Y86.833 E0.0002
G1 X98.061 Y86.923 E0.00041
G1 X98.22 Y86.959 E0.00016
G1 X98.79 Y87.048 E0.00057
G1 X98.81 Y87.052 E0.00002
G1 X99.424 Y87.108 E0.00061
G1 X99.511 Y87.11 E0.00009
G1 X100.021 Y87.127 E0.00051
G1 X100.484 Y87.112 E0.00046
G1 X100.555 Y87.109 E0.00007
G1 X100.616 Y87.106 E0.00006
G1 X101.19 Y87.052 E0.00057
G1 X101.203 Y87.05 E0.00001
G1 X101.759 Y86.964 E0.00056
G1 X101.939 Y86.924 E0.00018
G1 X102.363 Y86.829 E0.00043
G1 X102.494 Y86.792 E0.00013
G1 X102.724 Y86.725 E0.00024
G1 X102.936 Y86.663 E0.00022
G1 X103.368 Y86.507 E0.00045
G1 X103.499 Y86.46 E0.00014
G1 X103.937 Y86.269 E0.00047
G1 X104.063 Y86.213 E0.00014
G1 X104.18 Y86.154 E0.00013
G1 X104.578 Y85.952 E0.00044
G1 X104.664 Y85.901 E0.0001
G1 X105.105 Y85.639 E0.00051
G1 X105.526 Y85.353 E0.0005
G1 X105.585 Y85.313 E0.00007
G1 X105.993 Y84.998 E0.00051
G1 X106.058 Y84.948 E0.00008
G1 X106.505 Y84.553 E0.00059
G1 X106.664 Y84.394 E0.00022
G1 X106.722 Y84.336 E0.00008
G1 X106.928 Y84.13 E0.00029
G1 X107.327 Y83.677 E0.0006
G1 X107.699 Y83.193 E0.0006
G1 X108.024 Y82.716 E0.00057
G1 X108.337 Y82.185 E0.00061
G1 X108.606 Y81.652 E0.00059
G1 X108.835 Y81.123 E0.00057
G1 X109.038 Y80.561 E0.00059
G1 X109.208 Y79.969 E0.00061
G1 X109.334 Y79.404 E0.00057
G1 X109.429 Y78.796 E0.00061
G1 X109.483 Y78.221 E0.00057
G1 X109.503 Y77.604 E0.00061
G1 X109.482 Y77.018 E0.00058
G1 X109.427 Y76.435 E0.00058
G1 X109.334 Y75.845 E0.00059
G1 X109.198 Y75.242 E0.00061
G1 X109.032 Y74.67 E0.00059
G1 X108.835 Y74.126 E0.00057
G1 X108.598 Y73.579 E0.00059
G1 X108.327 Y73.047 E0.00059
G1 X108.023 Y72.534 E0.00059
G1 X107.688 Y72.04 E0.00059
G1 X107.323 Y71.567 E0.00059
G1 X106.928 Y71.12 E0.00059
G1 X106.505 Y70.697 E0.00059
G1 X106.453 Y70.651 E0.00007
G1 X106.042 Y70.29 E0.00054
G1 X105.981 Y70.243 E0.00008
G1 X105.584 Y69.937 E0.0005
G1 X105.528 Y69.899 E0.00007
G1 X105.074 Y69.591 E0.00054
G1 X104.678 Y69.357 E0.00046
G1 X104.57 Y69.293 E0.00012
G1 X104.175 Y69.093 E0.00044
G1 X104.045 Y69.027 E0.00014
G1 X103.942 Y68.983 E0.00011
G1 X103.48 Y68.784 E0.0005
G1 X103.355 Y68.739 E0.00013
G1 X102.937 Y68.587 E0.00044
G1 X102.744 Y68.532 E0.0002
G1 X102.534 Y68.471 E0.00022
G1 X102.363 Y68.421 E0.00018
G1 X101.94 Y68.328 E0.00043
G1 X101.761 Y68.288 E0.00018
G1 X101.21 Y68.2 E0.00055
G1 X101.191 Y68.197 E0.00002
G1 X100.596 Y68.141 E0.00059
G1 X100.578 Y68.141 E0.00002
G1 X100.477 Y68.138 E0.0001
G1 X99.979 Y68.122 E0.00049
G1 X99.515 Y68.137 E0.00046
G1 X99.443 Y68.14 E0.00007
G1 X99.384 Y68.143 E0.00006
G1 X98.809 Y68.197 E0.00057
G1 X98.79 Y68.2 E0.00002
G1 X98.22 Y68.291 E0.00057
G1 X98.063 Y68.326 E0.00016
G1 X97.617 Y68.427 E0.00045
G1 X97.507 Y68.459 E0.00011
G1 X97.276 Y68.526 E0.00024
G1 X97.045 Y68.593 E0.00024
G1 X96.633 Y68.742 E0.00043
G1 X96.501 Y68.79 E0.00014
G1 X96.06 Y68.981 E0.00048
G1 X95.945 Y69.031 E0.00012
G1 X95.828 Y69.091 E0.00013
G1 X95.421 Y69.298 E0.00045
G1 X95.341 Y69.346 E0.00009
G1 X94.892 Y69.613 E0.00052
G1 X94.508 Y69.873 E0.00046
G1 X94.415 Y69.937 E0.00011
G1 X94.006 Y70.252 E0.00051
G1 X93.942 Y70.302 E0.00008
G1 X93.548 Y70.65 E0.00052
G1 X93.494 Y70.698 E0.00007
G1 X93.059 Y71.135 E0.00061
G1 X92.677 Y71.568 E0.00057
G1 X92.301 Y72.057 E0.00061
G1 X91.976 Y72.534 E0.00057
G1 X91.663 Y73.065 E0.00061
G1 X91.394 Y73.598 E0.00059
G1 X91.165 Y74.127 E0.00057
G0 F4800 X90.995 Y74.597
G0 X89.961 Y74.223
G1 F480 E-0.05
G1 F600 Z2.7
G0 F4800 X101.848 Y87.586 Z2.7
G1 F600 Z0.7
G1 F480 E0.05
G1 F420 X101.298 Y87.664 E0.00034
G1 X101.248 Y87.668 E0.00004
G1 X100.674 Y87.722 E0.00035
G1 X100.577 Y87.731 E0.00007
G0 F4800 X100.506 Y87.735
G1 F420 X100.021 Y87.735 E0.0003
G1 X99.492 Y87.734 E0.00033
G1 X99.413 Y87.73 E0.00005
G0 F4800 X99.367 Y87.726
G1 F420 X98.752 Y87.668 E0.00038
G0 F4800 X98.694 Y87.662
G1 F420 X98.133 Y87.583 E0.00035
G1 X97.921 Y87.553 E0.00014
G1 X97.528 Y87.474 E0.00026
G1 X97.28 Y87.424 E0.00017
G1 X97.068 Y87.373 E0.00015
G1 X96.867 Y87.312 E0.00013
G1 X96.406 Y87.172 E0.00033
G0 F4800 X96.291 Y87.133
G1 F420 X95.765 Y86.951 E0.00041
G0 F4800 X95.674 Y86.914
G1 F420 X95.475 Y86.833 E0.00017
G1 X95.096 Y86.658 E0.00031
G1 X94.919 Y86.576 E0.00015
G1 X94.555 Y86.392 E0.00032
G1 X94.465 Y86.346 E0.00007
G1 X93.998 Y86.075 E0.00045
G1 X93.946 Y86.041 E0.00005
G1 X93.46 Y85.724 E0.00051
G1 X93.451 Y85.718 E0.00001
G1 X93.42 Y85.696 E0.00003
G1 X92.94 Y85.344 E0.00056
G1 X92.854 Y85.28 E0.0001
G1 X92.631 Y85.1 E0.00028
G1 X92.59 Y85.062 E0.00006
G1 X92.042 Y84.553 E0.00074
G1 X91.563 Y84.053 E0.00069
G1 X91.4 Y83.87 E0.00024
G1 X91.071 Y83.453 E0.00053
G1 X90.777 Y83.056 E0.00049
G1 X90.372 Y82.402 E0.00076
G1 X89.971 Y81.648 E0.00085
G1 X89.764 Y81.162 E0.00052
G1 X89.629 Y80.821 E0.00036
G1 X89.424 Y80.183 E0.00066
G1 X89.362 Y79.956 E0.00023
G1 X89.189 Y79.147 E0.00082
G1 X89.171 Y79.039 E0.00011
G1 X89.074 Y78.113 E0.00092
G1 X89.076 Y77.1 E0.001
G1 X89.172 Y76.203 E0.00089
G1 X89.294 Y75.607 E0.0006
G1 X88.753 Y75.333 E0.0006
G1 X88.193 Y74.917 E0.00069
G1 X87.728 Y74.406 E0.00068
G1 X87.369 Y73.818 E0.00068
G1 X87.131 Y73.262 E0.0006
G1 X86.965 Y72.645 E0.00063
G1 X86.875 Y72.015 E0.00063
G1 X86.871 Y71.974 E0.00004
G1 X86.872 Y71.271 E0.0007
G1 X86.875 Y71.232 E0.00004
G1 X86.967 Y70.597 E0.00064
G1 X86.993 Y70.478 E0.00012
G1 X87.135 Y69.98 E0.00051
G1 X87.367 Y69.438 E0.00058
G1 X87.612 Y69.002 E0.0005
G1 X88 Y68.518 E0.00061
G1 X88.395 Y68.158 E0.00053
G1 X88.983 Y67.801 E0.00068
G1 X89.565 Y67.622 E0.0006
G1 X90.006 Y67.573 E0.00044
G1 X90.745 Y67.699 E0.00074
G1 X91.247 Y67.917 E0.00054
G1 X91.802 Y68.328 E0.00068
G1 X92.271 Y68.843 E0.00069
G1 X92.397 Y69.017 E0.00021
G1 X92.871 Y69.859 E0.00096
G1 X92.913 Y69.932 E0.00008
G1 X93.398 Y69.572 E0.00038
G1 X93.45 Y69.533 E0.00004
G1 X93.943 Y69.213 E0.00052
G1 X94.023 Y69.16 E0.00008
G1 X94.45 Y68.912 E0.00042
G1 X94.518 Y68.878 E0.00004
G1 X94.935 Y68.666 E0.00037
G1 X95.095 Y68.592 E0.00014
G1 X95.482 Y68.414 E0.00032
G1 X95.665 Y68.34 E0.00016
G1 X95.764 Y68.3 E0.00008
G1 X96.27 Y68.125 E0.00039
G1 X96.393 Y68.082 E0.00009
G1 X96.849 Y67.945 E0.00033
G1 X97.086 Y67.873 E0.00017
G1 X97.32 Y67.816 E0.00017
G1 X97.489 Y67.783 E0.00009
G1 X97.92 Y67.697 E0.00028
G1 X98.131 Y67.667 E0.00012
G1 X98.692 Y67.587 E0.00035
G1 X98.751 Y67.582 E0.00004
G1 X99.326 Y67.528 E0.00035
G0 F4800 X99.494 Y67.515
G1 F420 X99.979 Y67.515 E0.0003
G1 X100.496 Y67.516 E0.00032
G1 X100.593 Y67.52 E0.00006
G0 F4800 X100.653 Y67.525
G1 F420 X101.248 Y67.581 E0.00037
G0 F4800 X101.307 Y67.587
G1 F420 X101.849 Y67.664 E0.00034
G1 X102.079 Y67.697 E0.00016
G1 X102.491 Y67.78 E0.00027
G1 X102.72 Y67.826 E0.00016
G1 X102.932 Y67.877 E0.00015
G1 X103.133 Y67.938 E0.00014
G1 X103.594 Y68.078 E0.00033
G0 F4800 X103.709 Y68.117
G1 F420 X104.235 Y68.299 E0.00041
G0 F4800 X104.325 Y68.335
G1 F420 X104.518 Y68.414 E0.00015
G1 X104.895 Y68.588 E0.00031
G1 X105.081 Y68.674 E0.00016
G1 X105.445 Y68.858 E0.00032
G1 X105.533 Y68.903 E0.00007
G1 X106.013 Y69.182 E0.00047
G1 X106.059 Y69.212 E0.00005
G1 X106.534 Y69.524 E0.0005
G1 X106.574 Y69.553 E0.00004
G1 X107.072 Y69.913 E0.00057
G1 X107.089 Y69.926 E0.00002
G0 F4800 X107.126 Y69.86
G1 F420 X107.618 Y68.993 E0.00099
G1 X108 Y68.518 E0.0006
G1 X108.395 Y68.158 E0.00053
G1 X108.983 Y67.801 E0.00068
G1 X109.565 Y67.622 E0.0006
G1 X110.006 Y67.573 E0.00044
G1 X110.745 Y67.699 E0.00074
G1 X111.247 Y67.917 E0.00054
G1 X111.802 Y68.328 E0.00068
G1 X112.271 Y68.843 E0.00069
G1 X112.631 Y69.432 E0.00068
G1 X112.869 Y69.988 E0.0006
G1 X113.035 Y70.605 E0.00063
G1 X113.125 Y71.235 E0.00063
G1 X113.129 Y71.276 E0.00004
G1 X113.129 Y71.983 E0.0007
G1 X113.127 Y72.007 E0.00002
G1 X113.033 Y72.653 E0.00065
G1 X113.009 Y72.763 E0.00011
G1 X112.868 Y73.259 E0.00051
G1 X112.633 Y73.812 E0.0006
G1 X112.388 Y74.248 E0.0005
G1 X112 Y74.732 E0.00061
G1 X111.605 Y75.092 E0.00053
G1 X111.255 Y75.329 E0.00042
G1 X110.709 Y75.609 E0.00061
G1 X110.827 Y76.193 E0.00059
G1 X110.923 Y77.102 E0.00091
G1 X110.926 Y77.174 E0.00007
G1 X110.924 Y78.15 E0.00097
G1 X110.827 Y79.057 E0.0009
G1 X110.815 Y79.131 E0.00007
G1 X110.636 Y79.964 E0.00084
G1 X110.574 Y80.193 E0.00023
G1 X110.368 Y80.826 E0.00066
G1 X110.237 Y81.16 E0.00036
G1 X110.031 Y81.64 E0.00052
G1 X109.626 Y82.408 E0.00086
G1 X109.217 Y83.066 E0.00077
G1 X108.929 Y83.453 E0.00048
G1 X108.6 Y83.87 E0.00053
G1 X108.438 Y84.052 E0.00024
G1 X107.957 Y84.553 E0.00069
G1 X107.43 Y85.044 E0.00071
G1 X107.37 Y85.099 E0.00008
G1 X107.148 Y85.279 E0.00028
G1 X107.077 Y85.331 E0.00009
G1 X106.597 Y85.683 E0.00055
G1 X106.549 Y85.718 E0.00005
G1 X106.058 Y86.038 E0.00052
G1 X106.012 Y86.068 E0.00005
G1 X105.55 Y86.338 E0.00045
G1 X105.479 Y86.374 E0.00004
G1 X105.069 Y86.582 E0.00036
G1 X104.904 Y86.658 E0.00013
G1 X104.525 Y86.833 E0.00031
G1 X104.344 Y86.906 E0.00015
G1 X104.236 Y86.95 E0.00008
G1 X103.73 Y87.125 E0.00039
G1 X103.607 Y87.168 E0.00009
G1 X103.132 Y87.311 E0.00034
G1 X102.914 Y87.377 E0.00015
G1 X102.68 Y87.434 E0.00016
G1 X102.491 Y87.471 E0.00011
G1 X102.08 Y87.553 E0.00027
G1 X101.848 Y87.586 E0.00013
G0 F4800 X101.353 Y87.656
G0 X100.876 Y89.448
G1 F420 X100.874 Y89.809 E0.00036
G1 X100.745 Y90.121 E0.00033
G1 X100.491 Y90.377 E0.00036
G1 X100.476 Y90.392 E0.00002
G1 X100.085 Y90.51 E0.0004
G1 X99.786 Y90.489 E0.0003
G1 X99.52 Y90.39 E0.00028
G1 X99.505 Y90.375 E0.00002
G1 X99.254 Y90.12 E0.00035
G1 X99.124 Y89.802 E0.00034
G1 X99.126 Y89.441 E0.00036
G1 X99.255 Y89.129 E0.00033
G1 X99.515 Y88.871 E0.00036
G1 X99.532 Y88.854 E0.00002
G1 X99.925 Y88.739 E0.00041
G1 X100.211 Y88.76 E0.00028
G1 X100.481 Y88.86 E0.00029
G1 X100.498 Y88.877 E0.00002
G1 X100.746 Y89.13 E0.00035
G1 X100.876 Y89.448 E0.00034
G0 F4800 X100.874 Y89.809
G0 X100.821 Y89.937
G1 F480 E-0.05
G1 F600 Z2.7
;MESH:NONMESH
G0 F4800 X89.352 Y69.611 Z2.7
;TIME_ELAPSED:37.568102
;LAYER:1
;MESH:panda.stl
G0 X89.352 Y69.611 Z3.4
;TYPE:WALL-INNER
G1 F600 Z1.4
G1 F480 E0.05
G1 F441.8 X89.748 Y69.338 E0.00048
G1 X90.049 Y69.298 E0.0003
G1 X90.361 Y69.394 E0.00032
G1 X90.599 Y69.574 E0.0003
G1 X90.67 Y69.627 E0.00009
G1 X90.821 Y69.808 E0.00023
G1 X91.147 Y70.279 E0.00057
G1 X91.117 Y70.318 E0.00005
G1 X91.063 Y70.388 E0.00009
G1 X90.692 Y70.866 E0.0006
G1 X90.287 Y71.462 E0.00071
G1 X89.919 Y72.083 E0.00071
G1 X89.741 Y72.433 E0.00039
G1 X89.592 Y72.727 E0.00033
G1 X89.425 Y73.114 E0.00042
G1 X89.339 Y73.312 E0.00021
G1 X89.305 Y73.389 E0.00008
G1 X89.259 Y73.516 E0.00013
G0 F4800 X89.215 Y73.457
G1 F441.8 X88.998 Y73.165 E0.00019
G0 F4800 X88.855 Y72.868
G1 F441.8 X88.774 Y72.549 E0.00029
G1 X88.654 Y72.083 E0.00048
G1 X88.624 Y71.632 E0.00045
