;FLAVOR:RepRap
;TIME:2073
;Filament used: 0.0188344m
;Layer height: 1
;MINX:66.817
;MINY:44.321
;MINZ:1
;MAXX:133.184
;MAXY:110.679
;MAXZ:66.553
;Generated with Cura_SteamEngine 4.11.0
T0
M104 S35
M109 S35
M82 ;absolute extrusion mode
;Pressure advances
M400 ; Finish all current moves and for pressure advances.
M572 D0 S0.00                      ;Pressure advance enabled
;Wipe
G1 Z1 F900			;Wipe height
M83			;Extruder to relative mode
M400
G1 Y140 E0.2 F900		;Draw first thin line
G1 X1 F900
G1 Y5 E0.2 F900		;Draw second thin line
G1 X2 F900
G1 Y50 F900			;Coast in case of leakage
;M82			;Extruder to absolute mode (default)
M400			; wait for moves to finish
G92 E0			; zero extruder
;MHI3D CODE END
M83 ;relative extrusion mode
G1 F480 E-0.05
;LAYER_COUNT:66
;LAYER:0
M106 S25.5
G1 F600 Z3
;MESH:NoText_body.stl
G0 F4800 X85.107 Y87.771 Z3
;TYPE:WALL-OUTER
G1 F600 Z1
G1 F480 E0.05
G1 F600 X84.84 Y87.373 E0.00068
G1 X84.527 Y86.877 E0.00083
G1 X84.409 Y86.678 E0.00033
G1 X84.126 Y86.176 E0.00082
G1 X83.904 Y85.759 E0.00067
G1 X83.64 Y85.224 E0.00084
G1 X83.445 Y84.794 E0.00067
G1 X83.218 Y84.255 E0.00083
G1 X83.131 Y84.035 E0.00033
G1 X82.928 Y83.488 E0.00083
G1 X82.776 Y83.036 E0.00067
G1 X82.607 Y82.481 E0.00082
G1 X82.403 Y81.698 E0.00114
G1 X82.25 Y80.993 E0.00102
G1 X82.146 Y80.419 E0.00083
G1 X82.11 Y80.186 E0.00033
G1 X82.033 Y79.616 E0.00081
G1 X81.955 Y78.792 E0.00117
G1 X81.928 Y78.33 E0.00065
G1 X81.907 Y77.5 E0.00117
G1 X81.925 Y76.72 E0.0011
G1 X81.976 Y75.965 E0.00107
G1 X82.015 Y75.543 E0.0006
G1 X82.118 Y74.758 E0.00112
G1 X82.249 Y74.014 E0.00107
G1 X82.339 Y73.58 E0.00063
G1 X82.517 Y72.845 E0.00107
G1 X82.733 Y72.103 E0.00109
G1 X82.982 Y71.37 E0.0011
G1 X83.293 Y70.564 E0.00122
G1 X83.6 Y69.863 E0.00108
G1 X83.947 Y69.158 E0.00111
G1 X84.319 Y68.479 E0.0011
G1 X84.71 Y67.834 E0.00107
G1 X84.94 Y67.476 E0.0006
G1 X85.393 Y66.825 E0.00112
G1 X85.853 Y66.226 E0.00107
G1 X86.132 Y65.883 E0.00063
G1 X86.628 Y65.313 E0.00107
G1 X87.162 Y64.753 E0.00109
G1 X87.72 Y64.217 E0.00109
G1 X88.369 Y63.647 E0.00122
G1 X88.963 Y63.166 E0.00108
G1 X89.597 Y62.699 E0.00111
G1 X90.239 Y62.267 E0.00109
G1 X90.883 Y61.875 E0.00107
G1 X91.268 Y61.656 E0.00063
G1 X91.937 Y61.304 E0.00107
G1 X92.638 Y60.975 E0.0011
G1 X93.045 Y60.799 E0.00063
G1 X93.757 Y60.518 E0.00108
G1 X94.48 Y60.272 E0.00108
G1 X94.903 Y60.142 E0.00063
G1 X95.637 Y59.942 E0.00108
G1 X96.387 Y59.773 E0.00109
G1 X97.155 Y59.635 E0.0011
G1 X98.01 Y59.521 E0.00122
G1 X98.777 Y59.451 E0.00109
G1 X99.551 Y59.414 E0.0011
G1 X100.31 Y59.41 E0.00107
G1 X101.081 Y59.44 E0.00109
G1 X101.522 Y59.472 E0.00063
G1 X102.274 Y59.551 E0.00107
G1 X103.049 Y59.668 E0.00111
G1 X103.459 Y59.742 E0.00059
G1 X104.233 Y59.91 E0.00112
G1 X104.975 Y60.105 E0.00109
G1 X105.701 Y60.332 E0.00108
G1 X106.517 Y60.625 E0.00123
G1 X107.223 Y60.913 E0.00108
G1 X107.936 Y61.241 E0.00111
G1 X108.625 Y61.595 E0.0011
G1 X109.28 Y61.97 E0.00107
G1 X109.659 Y62.201 E0.00063
G1 X110.297 Y62.622 E0.00108
G1 X110.915 Y63.071 E0.00108
G1 X111.264 Y63.342 E0.00063
G1 X111.855 Y63.832 E0.00109
G1 X112.432 Y64.354 E0.0011
G1 X112.729 Y64.642 E0.00059
G1 X113.137 Y65.059 E0.00083
G1 X113.687 Y65.668 E0.00116
G1 X113.999 Y66.038 E0.00068
G1 X114.355 Y66.485 E0.00081
G1 X114.639 Y66.867 E0.00067
G1 X114.975 Y67.347 E0.00083
G1 X115.105 Y67.54 E0.00033
G1 X115.425 Y68.043 E0.00084
G1 X115.662 Y68.441 E0.00066
G1 X115.953 Y68.961 E0.00084
G1 X116.317 Y69.682 E0.00114
G1 X116.516 Y70.11 E0.00067
G1 X116.746 Y70.649 E0.00083
G1 X117.04 Y71.42 E0.00117
G1 X117.197 Y71.874 E0.00068
G1 X117.369 Y72.429 E0.00082
G1 X117.493 Y72.877 E0.00066
G1 X117.634 Y73.442 E0.00082
G1 X117.797 Y74.242 E0.00116
G1 X117.88 Y74.727 E0.0007
G1 X117.958 Y75.292 E0.00081
G1 X118.039 Y76.103 E0.00115
G1 X118.07 Y76.576 E0.00067
G1 X118.095 Y77.417 E0.00119
G1 X118.08 Y78.233 E0.00115
G1 X118.027 Y79.044 E0.00115
G1 X117.953 Y79.751 E0.00101
G1 X117.873 Y80.323 E0.00082
G1 X117.833 Y80.558 E0.00034
G1 X117.724 Y81.144 E0.00084
G1 X117.679 Y81.36 E0.00031
G1 X117.543 Y81.931 E0.00083
G1 X117.419 Y82.397 E0.00068
G1 X117.255 Y82.947 E0.00081
G1 X117.103 Y83.407 E0.00069
G1 X116.907 Y83.948 E0.00081
G1 X116.818 Y84.177 E0.00035
G1 X116.597 Y84.706 E0.00081
G1 X116.403 Y85.138 E0.00067
G1 X116.148 Y85.665 E0.00083
G1 X115.761 Y86.386 E0.00116
G1 X115.524 Y86.796 E0.00067
G1 X115.217 Y87.291 E0.00082
G1 X114.756 Y87.971 E0.00116
G1 X114.478 Y88.354 E0.00067
G1 X114.122 Y88.813 E0.00082
G1 X113.81 Y89.192 E0.00069
G1 X113.438 Y89.619 E0.0008
G1 X112.871 Y90.216 E0.00116
G1 X112.533 Y90.55 E0.00067
G1 X112.109 Y90.947 E0.00082
G1 X111.479 Y91.485 E0.00117
G1 X111.116 Y91.777 E0.00066
G1 X110.64 Y92.135 E0.00084
G1 X110.25 Y92.411 E0.00068
G1 X109.777 Y92.726 E0.0008
G1 X109.068 Y93.157 E0.00117
G1 X108.663 Y93.385 E0.00066
G1 X108.136 Y93.663 E0.00084
G1 X107.405 Y94.008 E0.00114
G1 X106.972 Y94.197 E0.00067
G1 X106.419 Y94.417 E0.00084
G1 X105.973 Y94.58 E0.00067
G1 X105.431 Y94.761 E0.00081
G1 X104.642 Y94.988 E0.00116
G1 X104.173 Y95.106 E0.00068
G1 X103.602 Y95.232 E0.00083
G1 X103.146 Y95.317 E0.00066
G1 X102.558 Y95.413 E0.00084
G1 X101.756 Y95.508 E0.00114
G1 X100.942 Y95.568 E0.00115
G1 X100.451 Y95.588 E0.0007
G1 X99.648 Y95.591 E0.00114
G1 X98.826 Y95.557 E0.00116
G1 X98.351 Y95.518 E0.00067
G1 X97.771 Y95.456 E0.00083
G1 X97.528 Y95.424 E0.00035
G1 X96.96 Y95.335 E0.00081
G1 X96.496 Y95.251 E0.00067
G1 X95.914 Y95.126 E0.00084
G1 X95.698 Y95.075 E0.00031
G1 X95.123 Y94.922 E0.00084
G1 X94.664 Y94.789 E0.00068
G1 X94.12 Y94.611 E0.00081
G1 X93.665 Y94.448 E0.00068
G1 X93.12 Y94.234 E0.00083
G1 X92.914 Y94.147 E0.00032
G1 X92.371 Y93.906 E0.00084
G1 X91.943 Y93.7 E0.00067
G1 X91.423 Y93.431 E0.00083
G1 X90.716 Y93.028 E0.00115
G1 X90.309 Y92.777 E0.00068
G1 X89.817 Y92.456 E0.00083
G1 X89.441 Y92.19 E0.00065
G1 X88.962 Y91.835 E0.00084
G1 X88.779 Y91.692 E0.00033
G1 X88.326 Y91.321 E0.00083
G1 X87.966 Y91.011 E0.00067
G1 X87.548 Y90.627 E0.0008
G1 X86.96 Y90.04 E0.00118
G1 X86.633 Y89.692 E0.00068
G1 X86.246 Y89.254 E0.00083
G1 X86.096 Y89.075 E0.00033
G1 X85.73 Y88.619 E0.00083
G1 X85.439 Y88.238 E0.00068
G1 X85.107 Y87.771 E0.00081
G0 F4800 X84.84 Y87.373
G0 X84.829 Y87.356
G0 X85.662 Y86.821
;TYPE:SKIN
G1 F600 X85.365 Y86.349 E0.00079
G1 X85.267 Y86.183 E0.00027
G1 X84.981 Y85.676 E0.00082
G1 X84.778 Y85.294 E0.00061
G1 X84.534 Y84.8 E0.00078
G1 X84.358 Y84.41 E0.00061
G1 X84.131 Y83.871 E0.00083
G1 X84.051 Y83.671 E0.0003
G1 X83.856 Y83.144 E0.00079
G1 X83.719 Y82.734 E0.00061
G1 X83.559 Y82.21 E0.00078
G1 X83.37 Y81.483 E0.00106
G1 X83.218 Y80.783 E0.00101
G1 X83.12 Y80.243 E0.00078
G1 X83.09 Y80.044 E0.00028
G1 X83.017 Y79.503 E0.00077
G1 X82.941 Y78.699 E0.00114
G1 X82.918 Y78.304 E0.00056
G1 X82.897 Y77.497 E0.00114
G1 X82.913 Y76.787 E0.001
G1 X82.962 Y76.056 E0.00104
G1 X82.997 Y75.672 E0.00055
G1 X83.097 Y74.908 E0.00109
G1 X83.216 Y74.231 E0.00097
G1 X83.309 Y73.781 E0.00065
G1 X83.479 Y73.078 E0.00102
G1 X83.677 Y72.401 E0.001
G1 X83.919 Y71.689 E0.00106
G1 X84.208 Y70.942 E0.00113
G1 X84.489 Y70.3 E0.00099
G1 X84.826 Y69.615 E0.00108
G1 X85.183 Y68.964 E0.00105
G1 X85.543 Y68.369 E0.00098
G1 X85.763 Y68.026 E0.00058
G1 X86.179 Y67.428 E0.00103
G1 X86.639 Y66.829 E0.00107
G1 X86.89 Y66.52 E0.00056
G1 X87.36 Y65.979 E0.00101
G1 X87.857 Y65.459 E0.00102
G1 X88.39 Y64.946 E0.00105
G1 X88.992 Y64.417 E0.00113
G1 X89.559 Y63.958 E0.00103
G1 X90.185 Y63.497 E0.0011
G1 X90.784 Y63.094 E0.00102
G1 X91.372 Y62.736 E0.00097
G1 X91.743 Y62.525 E0.0006
G1 X92.366 Y62.197 E0.001
G1 X93.045 Y61.878 E0.00106
G1 X93.424 Y61.714 E0.00058
G1 X94.108 Y61.444 E0.00104
G1 X94.785 Y61.214 E0.00101
G1 X95.179 Y61.093 E0.00058
G1 X95.87 Y60.905 E0.00101
G1 X96.6 Y60.74 E0.00106
G1 X97.286 Y60.617 E0.00099
G1 X98.137 Y60.503 E0.00121
G1 X98.866 Y60.437 E0.00104
G1 X99.557 Y60.404 E0.00098
G1 X100.278 Y60.4 E0.00102
G1 X101.031 Y60.43 E0.00107
G1 X101.451 Y60.46 E0.0006
G1 X102.139 Y60.532 E0.00098
G1 X102.887 Y60.645 E0.00107
G1 X103.249 Y60.71 E0.00052
G1 X104.007 Y60.875 E0.0011
G1 X104.707 Y61.058 E0.00102
G1 X105.382 Y61.27 E0.001
G1 X106.163 Y61.55 E0.00117
G1 X106.849 Y61.83 E0.00105
G1 X107.494 Y62.127 E0.001
G1 X108.165 Y62.472 E0.00107
G1 X108.765 Y62.815 E0.00098
G1 X109.129 Y63.037 E0.0006
G1 X109.733 Y63.436 E0.00102
G1 X110.32 Y63.863 E0.00103
G1 X110.656 Y64.124 E0.0006
G1 X111.211 Y64.584 E0.00102
G1 X111.743 Y65.065 E0.00101
G1 X112.022 Y65.335 E0.00055
G1 X112.43 Y65.752 E0.00083
G1 X112.952 Y66.331 E0.0011
G1 X113.225 Y66.654 E0.0006
G1 X113.561 Y67.075 E0.00076
G1 X113.81 Y67.41 E0.00059
G1 X114.159 Y67.909 E0.00086
G1 X114.269 Y68.071 E0.00028
G1 X114.581 Y68.562 E0.00082
G1 X114.826 Y68.973 E0.00068
G1 X115.079 Y69.426 E0.00073
G1 X115.426 Y70.114 E0.00109
G1 X115.605 Y70.498 E0.0006
G1 X115.835 Y71.037 E0.00083
G1 X116.104 Y71.743 E0.00107
G1 X116.251 Y72.167 E0.00063
G1 X116.419 Y72.708 E0.0008
G1 X116.533 Y73.117 E0.0006
G1 X116.664 Y73.64 E0.00076
G1 X116.821 Y74.409 E0.00111
G1 X116.97 Y75.37 E0.00138
G1 X117.053 Y76.202 E0.00118
G1 X117.08 Y76.606 E0.00057
G1 X117.105 Y77.447 E0.00119
G1 X117.09 Y78.192 E0.00105
G1 X117.039 Y78.979 E0.00112
G1 X116.973 Y79.614 E0.0009
G1 X116.897 Y80.156 E0.00077
G1 X116.859 Y80.377 E0.00032
G1 X116.742 Y81.004 E0.0009
G1 X116.716 Y81.13 E0.00018
G1 X116.586 Y81.676 E0.00079
G1 X116.47 Y82.114 E0.00064
G1 X116.31 Y82.65 E0.00079
G1 X116.167 Y83.083 E0.00065
G1 X115.984 Y83.59 E0.00076
G1 X115.905 Y83.795 E0.00031
G1 X115.694 Y84.3 E0.00077
G1 X115.506 Y84.719 E0.00065
G1 X115.275 Y85.197 E0.00075
G1 X114.896 Y85.904 E0.00113
G1 X114.682 Y86.274 E0.0006
G1 X114.397 Y86.735 E0.00077
G1 X113.954 Y87.389 E0.00112
G1 X113.676 Y87.772 E0.00067
G1 X113.358 Y88.184 E0.00074
G1 X113.054 Y88.552 E0.00068
G1 X112.705 Y88.953 E0.00075
G1 X112.166 Y89.521 E0.00111
G1 X111.847 Y89.836 E0.00063
G1 X111.455 Y90.204 E0.00076
G1 X110.859 Y90.713 E0.00111
G1 X110.52 Y90.985 E0.00061
G1 X110.044 Y91.343 E0.00084
G1 X109.689 Y91.595 E0.00062
G1 X109.262 Y91.88 E0.00073
G1 X108.568 Y92.302 E0.00115
G1 X108.189 Y92.516 E0.00062
G1 X107.694 Y92.778 E0.00079
G1 X107.009 Y93.101 E0.00107
G1 X106.592 Y93.283 E0.00064
G1 X106.079 Y93.487 E0.00078
G1 X105.144 Y93.813 E0.0014
G1 X104.374 Y94.034 E0.00113
G1 X103.946 Y94.142 E0.00062
G1 X103.411 Y94.26 E0.00078
G1 X102.935 Y94.349 E0.00069
G1 X102.435 Y94.43 E0.00072
G1 X101.656 Y94.522 E0.00111
G1 X100.889 Y94.578 E0.00109
G1 X100.411 Y94.598 E0.00068
G1 X99.685 Y94.601 E0.00103
G1 X98.867 Y94.567 E0.00116
G1 X98.454 Y94.534 E0.00059
G1 X97.9 Y94.474 E0.00079
G1 X97.657 Y94.442 E0.00035
G1 X97.127 Y94.359 E0.00076
G1 X96.693 Y94.28 E0.00062
G1 X96.142 Y94.162 E0.0008
G1 X95.939 Y94.114 E0.0003
G1 X95.378 Y93.965 E0.00082
G1 X94.951 Y93.842 E0.00063
G1 X94.47 Y93.685 E0.00072
G1 X93.999 Y93.516 E0.00071
G1 X93.308 Y93.238 E0.00105
G1 X92.801 Y93.013 E0.00078
G1 X92.373 Y92.808 E0.00067
G1 X91.896 Y92.561 E0.00076
G1 X91.221 Y92.176 E0.0011
G1 X90.828 Y91.934 E0.00065
G1 X90.374 Y91.637 E0.00077
G1 X90.023 Y91.388 E0.00061
G1 X89.552 Y91.04 E0.00083
G1 X89.398 Y90.919 E0.00028
G1 X88.954 Y90.555 E0.00081
G1 X88.624 Y90.271 E0.00062
G1 X88.23 Y89.909 E0.00076
G1 X87.659 Y89.339 E0.00114
G1 X87.365 Y89.026 E0.00061
G1 X86.988 Y88.599 E0.00081
G1 X86.868 Y88.455 E0.00027
G1 X86.502 Y87.999 E0.00083
G1 X86.252 Y87.672 E0.00058
G1 X85.922 Y87.208 E0.00081
G1 X85.662 Y86.821 E0.00066
G0 F4800 X85.28 Y85.28
G1 F600 X92.222 Y92.222 E0.01389
G1 X92.398 Y92.398
G0 F4800 X94.701 Y93.287
G1 F600 X84.214 Y82.8 E0.02098
G1 X84.038 Y82.624
G0 F4800 X83.695 Y80.867
G1 F600 X96.635 Y93.806 E0.02589
G0 F4800 X98.308 Y94.065
G1 F600 X83.439 Y79.196 E0.02975
G0 F4800 X83.35 Y77.694
G1 F600 X99.807 Y94.15 E0.03292
G0 F4800 X101.175 Y94.104
G1 F600 X83.394 Y76.322 E0.03558
G0 F4800 X83.531 Y75.046
G1 F600 X102.455 Y93.97 E0.03786
G0 F4800 X103.647 Y93.747
G1 F600 X83.753 Y73.853 E0.0398
G0 F4800 X84.047 Y72.733
G1 F600 X104.766 Y93.452 E0.04145
G0 F4800 X105.825 Y93.097
G1 F600 X84.404 Y71.676 E0.04286
G0 F4800 X84.815 Y70.673
G1 F600 X106.83 Y92.688 E0.04405
G0 F4800 X107.779 Y92.222
G1 F600 X85.279 Y69.722 E0.04502
G0 F4800 X85.793 Y68.823
G1 F600 X108.677 Y91.706 E0.04578
G0 F4800 X109.535 Y91.15
G1 F600 X86.351 Y67.966 E0.04638
G0 F4800 X86.955 Y67.156
G1 F600 X110.345 Y90.546 E0.0468
G0 F4800 X111.114 Y89.901
G1 F600 X87.599 Y66.386 E0.04705
G0 F4800 X88.292 Y65.664
G1 F600 X111.838 Y89.21 E0.04711
G0 F4800 X112.521 Y88.479
G1 F600 X89.026 Y64.985 E0.04701
G0 F4800 X89.799 Y64.343
G1 F600 X113.159 Y87.703 E0.04674
G0 F4800 X113.752 Y86.882
G1 F600 X90.617 Y63.747 E0.04629
G0 F4800 X91.48 Y63.196
G1 F600 X114.307 Y86.023 E0.04567
G0 F4800 X114.81 Y85.111
G1 F600 X92.391 Y62.692 E0.04485
G0 F4800 X93.349 Y62.236
G1 F600 X115.266 Y84.153 E0.04385
G0 F4800 X115.667 Y83.14
G1 F600 X94.36 Y61.833 E0.04263
G0 F4800 X95.431 Y61.49
G1 F600 X116.012 Y82.071 E0.04118
G0 F4800 X116.295 Y80.939
G1 F600 X96.565 Y61.209 E0.03947
G0 F4800 X97.775 Y61.006
G1 F600 X116.502 Y79.732 E0.03747
G0 F4800 X116.622 Y78.438
G1 F600 X99.061 Y60.877 E0.03513
G0 F4800 X100.455 Y60.857
G1 F600 X116.642 Y77.044 E0.03239
G0 F4800 X116.531 Y75.519
G1 F600 X101.98 Y60.968 E0.02911
G0 F4800 X103.694 Y61.267
G1 F600 X116.239 Y73.813 E0.0251
G1 X116.415 Y73.989
G0 F4800 X115.646 Y71.805
G1 F600 X105.706 Y61.865 E0.01989
G1 X105.53 Y61.689
G0 F4800 X108.353 Y63.098
G1 F600 X114.411 Y69.157 E0.01212
G1 X114.587 Y69.333
G1 F480 E-0.05
G1 F600 Z3
;MESH:NONMESH
G0 F4800 X84.41 Y66.219 Z3
;TIME_ELAPSED:116.746940
;LAYER:1
;MESH:NoText_body.stl
G0 X84.41 Y66.219 Z4
;TYPE:WALL-OUTER
G1 F600 Z2
G1 F480 E0.05
G1 F482.6 X84.824 Y65.669 E0.00097
G1 X85.288 Y65.096 E0.00104
G1 X85.748 Y64.57 E0.00099
G1 X86.22 Y64.068 E0.00097
G1 X86.686 Y63.61 E0.00092
G1 X86.729 Y63.565 E0.00009
G1 X87.207 Y63.13 E0.00091
G1 X87.263 Y63.075 E0.00011
G1 X87.799 Y62.62 E0.00099
G1 X88.298 Y62.228 E0.0009
G1 X88.359 Y62.177 E0.00011
G1 X88.868 Y61.807 E0.00089
G1 X88.925 Y61.763 E0.0001
G1 X89.453 Y61.409 E0.0009
G1 X89.512 Y61.367 E0.0001
G1 X90.099 Y61 E0.00098
G1 X90.73 Y60.638 E0.00103
G1 X91.341 Y60.316 E0.00098
G1 X91.996 Y60.001 E0.00103
G1 X92.653 Y59.715 E0.00101
G1 X93.297 Y59.461 E0.00098
G1 X93.955 Y59.231 E0.00099
G1 X94.645 Y59.017 E0.00102
G1 X95.334 Y58.832 E0.00101
G1 X96.011 Y58.675 E0.00098
G1 X96.72 Y58.538 E0.00102
G1 X97.4 Y58.433 E0.00097
G1 X98.05 Y58.358 E0.00093
G1 X98.125 Y58.347 E0.00011
G1 X98.811 Y58.294 E0.00097
G1 X99.537 Y58.263 E0.00103
G1 X100.231 Y58.258 E0.00098
G1 X100.951 Y58.281 E0.00102
G1 X101.663 Y58.328 E0.00101
G1 X102.352 Y58.4 E0.00098
G1 X103.058 Y58.5 E0.00101
G1 X103.747 Y58.625 E0.00099
G1 X104.458 Y58.78 E0.00103
G1 X105.143 Y58.956 E0.001
G1 X105.805 Y59.153 E0.00098
G1 X106.494 Y59.385 E0.00103
G1 X107.147 Y59.632 E0.00099
G1 X107.8 Y59.907 E0.001
G1 X108.449 Y60.21 E0.00101
G1 X109.071 Y60.528 E0.00099
G1 X109.708 Y60.884 E0.00103
G1 X110.289 Y61.237 E0.00096
G1 X110.832 Y61.597 E0.00092
G1 X110.905 Y61.643 E0.00012
G1 X111.411 Y62.007 E0.00088
G1 X111.466 Y62.044 E0.00009
G1 X112.033 Y62.482 E0.00101
G1 X112.563 Y62.922 E0.00097
G1 X113.049 Y63.359 E0.00092
G1 X113.105 Y63.407 E0.0001
G1 X113.561 Y63.849 E0.0009
G1 X114.134 Y64.442 E0.00117
G1 X114.678 Y65.054 E0.00116
G1 X115.169 Y65.656 E0.0011
G1 X115.64 Y66.285 E0.00111
G1 X116.086 Y66.935 E0.00112
G1 X116.506 Y67.603 E0.00112
G1 X116.883 Y68.267 E0.00108
G1 X117.246 Y68.962 E0.00111
G1 X117.593 Y69.698 E0.00115
G1 X117.897 Y70.423 E0.00111
G1 X118.172 Y71.159 E0.00111
G1 X118.407 Y71.886 E0.00108
G1 X118.622 Y72.643 E0.00111
G1 X118.804 Y73.407 E0.00111
G1 X118.962 Y74.204 E0.00115
G1 X119.08 Y74.981 E0.00111
G1 X119.163 Y75.739 E0.00108
G1 X119.168 Y75.772 E0.00005
G1 X119.222 Y76.545 E0.0011
G1 X119.245 Y77.353 E0.00114
G1 X119.235 Y78.137 E0.00111
G1 X119.196 Y78.843 E0.001
G1 X119.122 Y79.669 E0.00117
G1 X119.017 Y80.449 E0.00111
G1 X118.877 Y81.251 E0.00115
G1 X118.708 Y82.02 E0.00111
G1 X118.508 Y82.778 E0.00111
G1 X118.283 Y83.508 E0.00108
G1 X118.022 Y84.25 E0.00111
G1 X117.73 Y84.983 E0.00112
