;FLAVOR:RepRap
;TIME:1312
;Filament used: 0.00671568m
;Layer height: 0.7
;MINX:72.501
;MINY:62.001
;MINZ:0.7
;MAXX:127.5
;MAXY:92.999
;MAXZ:32.584
;Generated with Cura_SteamEngine 4.11.0
T0
M104 S35
M109 S35
M82 ;absolute extrusion mode
;Pressure advances
M400 ; Finish all current moves and for pressure advances.
M572 D0 S0.00                      ;Pressure advance enabled
;Wipe
G1 Z1 F900			;Wipe height
M83			;Extruder to relative mode
M400
G1 Y140 E0.2 F900		;Draw first thin line
G1 X1 F900
G1 Y5 E0.2 F900		;Draw second thin line
G1 X2 F900
G1 Y50 F900			;Coast in case of leakage
;M82			;Extruder to absolute mode (default)
M400			; wait for moves to finish
G92 E0			; zero extruder
;MHI3D CODE END
M83 ;relative extrusion mode
G1 F480 E-0.05
;LAYER_COUNT:46
;LAYER:0
M107
G1 F600 Z2.7
;MESH:kotelo 4 v1.stl
G0 F4800 X101.522 Y88.449 Z2.7
;TYPE:WALL-OUTER
G1 F600 Z0.7
G1 F480 E0.05
G1 F584.2 X101.595 Y88.425 E0.00008
G1 X104.215 Y87.64 E0.00271
G1 X104.281 Y87.62 E0.00007
G1 X106.928 Y86.906 E0.00272
G1 X107.002 Y86.886 E0.00008
G1 X109.66 Y86.246 E0.00271
G1 X109.726 Y86.23 E0.00007
G1 X112.411 Y85.662 E0.00272
G1 X112.472 Y85.649 E0.00006
G1 X115.174 Y85.152 E0.00272
G1 X115.221 Y85.143 E0.00005
G1 X117.953 Y84.719 E0.00274
G1 X118.015 Y84.709 E0.00006
G1 X120.76 Y84.358 E0.00274
G1 X120.814 Y84.351 E0.00005
G1 X121.511 Y84.23 E0.0007
G1 X121.588 Y84.216 E0.00008
G1 X122.177 Y84.041 E0.00061
G1 X122.343 Y83.991 E0.00017
G1 X122.859 Y83.77 E0.00056
G1 X123.083 Y83.674 E0.00024
G1 X123.481 Y83.445 E0.00045
G1 X123.794 Y83.265 E0.00036
G1 X124.063 Y83.065 E0.00033
G1 X124.427 Y82.794 E0.00045
G1 X124.631 Y82.602 E0.00028
G1 X125.012 Y82.243 E0.00052
G1 X125.127 Y82.105 E0.00018
G1 X125.539 Y81.615 E0.00063
G1 X125.568 Y81.571 E0.00005
G1 X125.973 Y80.957 E0.00073
G1 X126.32 Y80.265 E0.00077
G1 X126.334 Y80.238 E0.00003
G1 X126.56 Y79.615 E0.00066
G1 X126.614 Y79.466 E0.00016
G1 X126.741 Y78.928 E0.00055
G1 X126.795 Y78.701 E0.00023
G1 X126.853 Y78.202 E0.0005
G1 X126.889 Y77.902 E0.0003
G1 X126.889 Y77.5 E0.0004
G1 X126.889 Y77.098 E0.0004
G1 X126.854 Y76.797 E0.0003
G1 X126.795 Y76.298 E0.0005
G1 X126.749 Y76.104 E0.0002
G1 X126.605 Y75.501 E0.00061
G1 X126.569 Y75.401 E0.00011
G1 X126.334 Y74.761 E0.00068
G1 X126.323 Y74.739 E0.00002
G1 X125.972 Y74.043 E0.00077
G1 X125.586 Y73.46 E0.00069
G1 X125.519 Y73.359 E0.00012
G1 X125.133 Y72.9 E0.00059
G1 X125.012 Y72.757 E0.00019
G1 X124.63 Y72.398 E0.00052
G1 X124.426 Y72.206 E0.00028
G1 X124.091 Y71.958 E0.00041
G1 X123.766 Y71.718 E0.0004
G1 X123.485 Y71.557 E0.00032
G1 X123.083 Y71.326 E0.00046
G1 X122.854 Y71.228 E0.00025
G1 X122.343 Y71.009 E0.00055
G1 X122.219 Y70.973 E0.00013
G1 X121.572 Y70.78 E0.00067
G1 X121.51 Y70.77 E0.00006
G1 X120.797 Y70.646 E0.00072
G1 X120.78 Y70.644 E0.00002
G1 X118.03 Y70.293 E0.00275
G1 X117.96 Y70.284 E0.00007
G1 X115.221 Y69.857 E0.00275
G1 X115.191 Y69.852 E0.00003
G1 X112.487 Y69.354 E0.00272
G1 X112.412 Y69.34 E0.00008
G1 X109.737 Y68.772 E0.00271
G1 X109.667 Y68.757 E0.00007
G1 X107.003 Y68.114 E0.00271
G1 X106.943 Y68.099 E0.00006
G1 X104.289 Y67.381 E0.00272
G1 X104.216 Y67.361 E0.00007
G1 X101.567 Y66.566 E0.00274
G1 X101.534 Y66.556 E0.00003
G1 X98.926 Y65.695 E0.00272
G1 X98.854 Y65.671 E0.00008
G1 X96.281 Y64.742 E0.00271
G1 X96.221 Y64.72 E0.00006
G1 X93.681 Y63.725 E0.0027
G1 X93.591 Y63.69 E0.0001
G1 X92.542 Y63.31 E0.0011
G1 X92.53 Y63.305 E0.00001
G1 X91.478 Y63.014 E0.00108
G1 X91.406 Y62.994 E0.00007
G1 X90.375 Y62.796 E0.00104
G1 X90.237 Y62.769 E0.00014
G1 X89.26 Y62.659 E0.00097
G1 X89.101 Y62.64 E0.00016
G1 X88.179 Y62.609 E0.00091
G1 X87.935 Y62.6 E0.00024
G1 X87.019 Y62.639 E0.00091
G1 X86.77 Y62.65 E0.00025
G1 X85.916 Y62.754 E0.00085
G1 X85.612 Y62.792 E0.0003
G1 X84.813 Y62.954 E0.00081
G1 X84.468 Y63.024 E0.00035
G1 X83.726 Y63.237 E0.00076
G1 X83.323 Y63.353 E0.00042
G1 X82.674 Y63.595 E0.00069
G1 X82.253 Y63.752 E0.00044
G1 X81.64 Y64.037 E0.00067
G1 X81.196 Y64.244 E0.00049
G1 X80.643 Y64.555 E0.00063
G1 X80.178 Y64.817 E0.00053
G1 X79.724 Y65.123 E0.00054
G1 X79.191 Y65.483 E0.00064
G1 X78.787 Y65.804 E0.00051
G1 X78.296 Y66.193 E0.00062
G1 X77.935 Y66.528 E0.00049
G1 X77.441 Y66.987 E0.00067
G1 X77.14 Y67.314 E0.00044
G1 X76.636 Y67.864 E0.00074
G1 X76.419 Y68.14 E0.00035
G1 X75.929 Y68.763 E0.00078
G1 X75.741 Y69.047 E0.00034
G1 X75.272 Y69.756 E0.00084
G1 X75.139 Y69.995 E0.00027
G1 X74.715 Y70.752 E0.00086
G1 X74.61 Y70.98 E0.00025
G1 X74.227 Y71.813 E0.00091
G1 X74.162 Y71.991 E0.00019
G1 X73.825 Y72.908 E0.00097
G1 X73.783 Y73.059 E0.00016
G1 X73.504 Y74.056 E0.00103
G1 X73.486 Y74.149 E0.00009
G1 X73.282 Y75.176 E0.00104
G1 X73.275 Y75.24 E0.00006
G1 X73.145 Y76.334 E0.00109
G1 X73.145 Y76.354 E0.00002
G1 X73.1 Y77.5 E0.00114
G1 X73.144 Y78.642 E0.00113
G1 X73.145 Y78.666 E0.00002
G1 X73.274 Y79.758 E0.00109
G1 X73.282 Y79.824 E0.00007
G1 X73.486 Y80.849 E0.00103
G1 X73.515 Y80.993 E0.00015
G1 X73.778 Y81.927 E0.00096
G1 X73.825 Y82.092 E0.00017
G1 X74.146 Y82.967 E0.00092
G1 X74.227 Y83.187 E0.00023
G1 X74.609 Y84.019 E0.00091
G1 X74.715 Y84.248 E0.00025
G1 X75.134 Y84.996 E0.00085
G1 X75.297 Y85.286 E0.00033
G1 X75.733 Y85.942 E0.00078
G1 X75.93 Y86.238 E0.00035
G1 X76.392 Y86.825 E0.00074
G1 X76.667 Y87.174 E0.00044
G1 X77.139 Y87.685 E0.00069
G1 X77.442 Y88.013 E0.00044
G1 X77.935 Y88.471 E0.00067
G1 X78.296 Y88.807 E0.00049
G1 X78.795 Y89.201 E0.00063
G1 X79.231 Y89.546 E0.00055
G1 X79.665 Y89.838 E0.00052
G1 X80.178 Y90.183 E0.00061
G1 X80.649 Y90.448 E0.00054
G1 X81.196 Y90.756 E0.00062
G1 X81.639 Y90.962 E0.00048
G1 X82.253 Y91.248 E0.00067
G1 X82.672 Y91.403 E0.00044
G1 X83.37 Y91.662 E0.00074
G1 X83.724 Y91.763 E0.00036
G1 X84.469 Y91.976 E0.00077
G1 X84.81 Y92.045 E0.00034
G1 X85.612 Y92.208 E0.00081
G1 X85.89 Y92.242 E0.00028
G1 X86.77 Y92.35 E0.00088
G1 X86.993 Y92.359 E0.00022
G1 X87.935 Y92.4 E0.00093
G1 X88.127 Y92.394 E0.00019
G1 X89.101 Y92.36 E0.00097
G1 X89.259 Y92.342 E0.00016
G1 X90.286 Y92.223 E0.00102
G1 X90.373 Y92.206 E0.00009
G1 X91.431 Y92 E0.00107
G1 X91.477 Y91.988 E0.00005
G1 X92.53 Y91.695 E0.00108
G1 X92.546 Y91.69 E0.00002
G1 X93.63 Y91.296 E0.00114
G1 X93.643 Y91.291 E0.00001
G1 X96.209 Y90.287 E0.00273
G1 X96.279 Y90.259 E0.00007
G1 X98.854 Y89.331 E0.00271
G1 X98.912 Y89.31 E0.00006
G1 X101.522 Y88.449 E0.00272
G0 F4800 X101.595 Y88.425
G0 X102.001 Y88.304
G1 F480 E-0.05
G1 F600 Z2.7
G0 F4800 X125.047 Y71.954 Z2.7
G1 F600 Z0.7
G1 F480 E0.05
G1 F584.2 X125.431 Y72.34 E0.00033
G1 X125.597 Y72.508 E0.00013
G1 X125.981 Y72.988 E0.00037
G0 F4800 X126.091 Y73.125
G1 F584.2 X126.473 Y73.72 E0.00042
G0 F4800 X126.505 Y73.769
G1 F584.2 X126.859 Y74.468 E0.00047
G1 X126.889 Y74.548 E0.00006
G1 X127.136 Y75.193 E0.00041
G0 F4800 X127.177 Y75.35
G1 F584.2 X127.339 Y75.963 E0.00038
G1 X127.377 Y76.205 E0.00015
G1 X127.46 Y76.725 E0.00032
G1 X127.477 Y77.067 E0.00021
G1 X127.5 Y77.5 E0.00026
G1 X127.478 Y77.932 E0.00026
G1 X127.46 Y78.273 E0.00021
G1 X127.377 Y78.794 E0.00032
G1 X127.333 Y79.067 E0.00017
G1 X127.185 Y79.619 E0.00034
G0 F4800 X127.13 Y79.821
G1 F584.2 X126.891 Y80.45 E0.0004
G0 F4800 X126.858 Y80.534
G1 F584.2 X126.508 Y81.226 E0.00046
G0 F4800 X126.473 Y81.28
G1 F584.2 X126.07 Y81.902 E0.00044
G0 F4800 X126.003 Y81.986
G1 F584.2 X125.594 Y82.496 E0.00039
G1 X125.432 Y82.659 E0.00015
G1 X125.049 Y83.045 E0.00033
G1 X124.798 Y83.249 E0.0002
G1 X124.426 Y83.552 E0.00029
G1 X124.117 Y83.755 E0.00023
G1 X123.786 Y83.973 E0.00024
G1 X123.354 Y84.196 E0.00029
G1 X123.099 Y84.329 E0.00018
G1 X122.558 Y84.54 E0.00035
G1 X122.351 Y84.621 E0.00011
G1 X121.746 Y84.787 E0.00037
G0 F4800 X121.615 Y84.824
G1 F584.2 X120.913 Y84.941 E0.00042
G1 X120.837 Y84.954 E0.00005
G1 X118.091 Y85.304 E0.00164
G1 X118.045 Y85.31 E0.00002
G1 X115.314 Y85.735 E0.00164
G0 F4800 X115.283 Y85.74
G1 F584.2 X112.581 Y86.238 E0.00163
G1 X112.535 Y86.247 E0.00002
G1 X109.851 Y86.817 E0.00163
G1 X109.801 Y86.828 E0.00003
G1 X107.144 Y87.469 E0.00162
G1 X107.085 Y87.484 E0.00003
G1 X104.438 Y88.199 E0.00163
G1 X104.387 Y88.213 E0.00003
G1 X101.768 Y88.999 E0.00162
G1 X101.71 Y89.017 E0.00003
G1 X99.101 Y89.879 E0.00163
G1 X99.057 Y89.894 E0.00002
G1 X96.483 Y90.823 E0.00162
G1 X96.428 Y90.843 E0.00003
G1 X93.861 Y91.847 E0.00163
G1 X93.835 Y91.858 E0.00002
G1 X92.751 Y92.254 E0.00068
G1 X92.692 Y92.27 E0.00005
G1 X91.638 Y92.567 E0.00065
G1 X91.549 Y92.584 E0.00006
G1 X90.489 Y92.798 E0.00064
G1 X90.36 Y92.814 E0.00009
G1 X89.329 Y92.943 E0.00062
G1 X89.13 Y92.952 E0.00013
G1 X88.148 Y92.999 E0.00058
G1 X87.918 Y92.993 E0.00014
G1 X86.968 Y92.965 E0.00057
G1 X86.709 Y92.938 E0.00016
G1 X85.817 Y92.845 E0.00053
G1 X85.508 Y92.79 E0.00019
G1 X84.689 Y92.642 E0.0005
G1 X84.322 Y92.548 E0.00023
G1 X83.557 Y92.35 E0.00047
G1 X83.18 Y92.222 E0.00024
G1 X82.46 Y91.976 E0.00046
G1 X82.023 Y91.79 E0.00029
G1 X81.382 Y91.516 E0.00042
G1 X80.925 Y91.279 E0.00031
G1 X80.35 Y90.98 E0.00039
G1 X79.869 Y90.682 E0.00034
G1 X79.326 Y90.344 E0.00038
G1 X78.885 Y90.023 E0.00033
G1 X78.416 Y89.681 E0.00035
G1 X77.916 Y89.256 E0.00039
G1 X77.519 Y88.919 E0.00031
G1 X77.028 Y88.432 E0.00041
G1 X76.691 Y88.099 E0.00029
G1 X76.223 Y87.56 E0.00043
G1 X75.914 Y87.203 E0.00029
G1 X75.458 Y86.59 E0.00046
G1 X75.227 Y86.28 E0.00024
G1 X74.798 Y85.603 E0.00048
G1 X74.603 Y85.295 E0.00022
G1 X74.194 Y84.526 E0.00052
G1 X74.059 Y84.273 E0.00018
G1 X73.687 Y83.424 E0.00055
G1 X73.578 Y83.176 E0.00017
G1 X73.266 Y82.29 E0.00056
G1 X73.196 Y82.092 E0.00013
G1 X72.943 Y81.147 E0.00058
G1 X72.894 Y80.968 E0.00012
G1 X72.697 Y79.937 E0.00062
G1 X72.676 Y79.829 E0.00007
G1 X72.552 Y78.734 E0.00065
G1 X72.544 Y78.666 E0.00005
G1 X72.502 Y77.523 E0.00068
G1 X72.501 Y77.5 E0.00002
G1 X72.501 Y77.478 E0.00002
G1 X72.544 Y76.331 E0.00068
G1 X72.551 Y76.267 E0.00005
G1 X72.676 Y75.17 E0.00066
G1 X72.696 Y75.064 E0.00007
G1 X72.894 Y74.032 E0.00062
G1 X72.929 Y73.902 E0.00009
G1 X73.199 Y72.896 E0.00062
G1 X73.265 Y72.71 E0.00013
G1 X73.594 Y71.783 E0.00058
G1 X73.685 Y71.575 E0.00014
G1 X74.059 Y70.727 E0.00055
G1 X74.193 Y70.475 E0.00018
G1 X74.607 Y69.698 E0.00053
G1 X74.771 Y69.439 E0.00019
G1 X75.232 Y68.711 E0.00051
G1 X75.456 Y68.411 E0.00023
G1 X75.94 Y67.764 E0.00048
G1 X76.19 Y67.477 E0.00023
G1 X76.69 Y66.902 E0.00046
G1 X77.026 Y66.569 E0.00029
G1 X77.519 Y66.081 E0.00042
G1 X77.914 Y65.745 E0.00031
G1 X78.407 Y65.326 E0.00039
G1 X78.846 Y65.008 E0.00033
G1 X79.383 Y64.618 E0.0004
G1 X79.868 Y64.318 E0.00034
G1 X80.343 Y64.024 E0.00034
G1 X80.924 Y63.722 E0.00039
G1 X81.382 Y63.484 E0.00031
G1 X82.022 Y63.211 E0.00042
G1 X82.46 Y63.024 E0.00029
G1 X83.132 Y62.795 E0.00042
G1 X83.557 Y62.65 E0.00027
G1 X84.32 Y62.453 E0.00047
G1 X84.691 Y62.357 E0.00023
G1 X85.507 Y62.211 E0.00049
G1 X85.841 Y62.151 E0.00021
G1 X86.709 Y62.062 E0.00052
G1 X86.992 Y62.033 E0.00018
G1 X87.919 Y62.01 E0.00055
G1 X88.199 Y62.002 E0.00017
G1 X89.129 Y62.047 E0.00056
G1 X89.328 Y62.057 E0.00013
G1 X90.31 Y62.179 E0.00059
G1 X90.489 Y62.202 E0.00012
G1 X91.523 Y62.409 E0.00063
G1 X91.638 Y62.433 E0.00008
G1 X92.691 Y62.729 E0.00065
G1 X92.746 Y62.745 E0.00004
G1 X93.796 Y63.128 E0.00066
G1 X93.899 Y63.166 E0.00007
G1 X96.439 Y64.16 E0.00162
G1 X96.484 Y64.178 E0.00003
G1 X99.057 Y65.104 E0.00163
G1 X99.114 Y65.125 E0.00003
G1 X101.722 Y65.986 E0.00163
G0 F4800 X101.739 Y65.992
G1 F584.2 X104.388 Y66.786 E0.00164
G1 X104.445 Y66.803 E0.00003
G1 X107.099 Y67.52 E0.00163
G1 X107.143 Y67.532 E0.00002
G1 X109.807 Y68.172 E0.00163
G1 X109.861 Y68.185 E0.00003
G1 X112.536 Y68.752 E0.00162
G1 X112.595 Y68.765 E0.00003
G1 X115.299 Y69.262 E0.00163
G0 F4800 X115.313 Y69.265
G1 F584.2 X118.052 Y69.689 E0.00165
G1 X118.105 Y69.698 E0.00003
G1 X120.855 Y70.049 E0.00164
G0 F4800 X120.896 Y70.055
G1 F584.2 X121.612 Y70.176 E0.00043
G0 F4800 X121.731 Y70.209
G1 F584.2 X122.391 Y70.393 E0.00041
G1 X122.559 Y70.459 E0.00012
G1 X123.093 Y70.669 E0.00034
G1 X123.352 Y70.803 E0.00018
G1 X123.788 Y71.028 E0.0003
G1 X124.089 Y71.227 E0.00022
G1 X124.453 Y71.467 E0.00026
G1 X124.799 Y71.75 E0.00027
G1 X125.047 Y71.954 E0.0002
G0 F4800 X125.399 Y72.308
G1 F480 E-0.05
G1 F600 Z2.7
;MESH:NONMESH
G0 F4800 X75.931 Y67.776 Z2.7
;TIME_ELAPSED:36.080210
;LAYER:1
;MESH:kotelo 4 v1.stl
G0 X75.931 Y67.776 Z3.4
;TYPE:WALL-OUTER
G1 F600 Z1.4
G1 F480 E0.05
G1 F600 X76.69 Y66.902 E0.00115
G1 X77.519 Y66.081 E0.00116
G1 X78.415 Y65.319 E0.00116
G1 X79.352 Y64.637 E0.00115
G1 X80.343 Y64.024 E0.00115
G1 X81.382 Y63.484 E0.00116
G1 X82.46 Y63.024 E0.00116
G1 X83.557 Y62.65 E0.00115
G1 X84.691 Y62.357 E0.00116
G1 X85.841 Y62.151 E0.00116
G1 X86.992 Y62.033 E0.00115
G1 X88.174 Y62.001 E0.00117
G1 X89.328 Y62.057 E0.00114
G1 X90.489 Y62.202 E0.00116
G1 X91.638 Y62.433 E0.00116
G1 X92.751 Y62.746 E0.00114
G1 X93.861 Y63.151 E0.00117
G1 X96.456 Y64.168 E0.00276
G1 X99.085 Y65.116 E0.00277
G1 X101.739 Y65.992 E0.00277
G1 X104.416 Y66.795 E0.00277
G1 X107.114 Y67.524 E0.00277
G1 X109.83 Y68.179 E0.00277
G1 X112.565 Y68.76 E0.00277
G1 X115.313 Y69.265 E0.00277
G1 X118.075 Y69.694 E0.00277
G1 X120.837 Y70.046 E0.00276
G1 X121.615 Y70.176 E0.00078
G1 X122.372 Y70.386 E0.00078
G1 X123.094 Y70.669 E0.00077
G1 X123.786 Y71.027 E0.00077
G1 X124.442 Y71.458 E0.00078
G1 X125.048 Y71.954 E0.00078
G1 X125.594 Y72.504 E0.00077
G1 X126.084 Y73.115 E0.00078
G1 X126.505 Y73.769 E0.00077
G1 X126.859 Y74.468 E0.00078
G1 X127.136 Y75.193 E0.00077
G1 X127.337 Y75.948 E0.00077
G1 X127.46 Y76.725 E0.00078
G1 X127.5 Y77.5 E0.00077
G1 X127.46 Y78.275 E0.00077
G1 X127.337 Y79.052 E0.00078
G1 X127.136 Y79.806 E0.00077
G1 X126.859 Y80.532 E0.00077
G1 X126.505 Y81.231 E0.00078
G1 X126.084 Y81.885 E0.00077
G1 X125.594 Y82.496 E0.00078
G1 X125.048 Y83.046 E0.00077
G1 X124.442 Y83.542 E0.00078
G1 X123.786 Y83.973 E0.00078
G1 X123.094 Y84.331 E0.00077
G1 X122.372 Y84.614 E0.00077
G1 X121.615 Y84.824 E0.00078
G1 X120.837 Y84.954 E0.00078
G1 X118.075 Y85.306 E0.00276
G1 X115.313 Y85.735 E0.00277
G1 X112.565 Y86.24 E0.00277
G1 X109.83 Y86.821 E0.00277
G1 X107.114 Y87.476 E0.00277
G1 X104.416 Y88.205 E0.00277
G1 X101.739 Y89.008 E0.00277
G1 X99.085 Y89.884 E0.00277
G1 X96.456 Y90.832 E0.00277
G1 X93.861 Y91.849 E0.00276
G1 X92.751 Y92.254 E0.00117
G1 X91.638 Y92.567 E0.00114
G1 X90.489 Y92.798 E0.00116
G1 X89.328 Y92.943 E0.00116
G1 X88.174 Y92.999 E0.00114
G1 X86.992 Y92.967 E0.00117
G1 X85.841 Y92.849 E0.00115
G1 X84.691 Y92.643 E0.00116
G1 X83.557 Y92.35 E0.00116
G1 X82.46 Y91.976 E0.00115
G1 X81.382 Y91.516 E0.00116
G1 X80.343 Y90.976 E0.00116
G1 X79.352 Y90.363 E0.00115
G1 X78.415 Y89.681 E0.00115
G1 X77.519 Y88.919 E0.00116
G1 X76.69 Y88.098 E0.00116
G1 X75.931 Y87.224 E0.00115
G1 X75.227 Y86.28 E0.00117
G1 X74.603 Y85.295 E0.00115
G1 X74.059 Y84.273 E0.00115
G1 X73.581 Y83.187 E0.00118
G1 X73.201 Y82.109 E0.00113
G1 X72.894 Y80.968 E0.00117
G1 X72.676 Y79.829 E0.00115
G1 X72.544 Y78.666 E0.00116
G1 X72.501 Y77.5 E0.00116
G1 X72.544 Y76.331 E0.00116
G1 X72.676 Y75.171 E0.00116
G1 X72.894 Y74.031 E0.00115
G1 X73.201 Y72.891 E0.00117
G1 X73.582 Y71.811 E0.00113
G1 X74.059 Y70.727 E0.00117
G1 X74.603 Y69.705 E0.00115
G1 X75.227 Y68.72 E0.00115
G1 X75.931 Y67.776 E0.00117
G0 F4800 X76.651 Y67.845
G1 F600 X75.93 Y68.763 E0.00116
G1 X75.284 Y69.734 E0.00115
G1 X74.715 Y70.752 E0.00115
G1 X74.227 Y71.813 E0.00116
G1 X73.825 Y72.908 E0.00116
G1 X73.509 Y74.031 E0.00116
G1 X73.282 Y75.176 E0.00116
G1 X73.145 Y76.334 E0.00115
G1 X73.1 Y77.5 E0.00116
G1 X73.145 Y78.666 E0.00116
G1 X73.282 Y79.824 E0.00115
G1 X73.509 Y80.969 E0.00116
G1 X73.825 Y82.092 E0.00116
G1 X74.227 Y83.187 E0.00116
G1 X74.715 Y84.248 E0.00116
G1 X75.284 Y85.266 E0.00115
G1 X75.93 Y86.237 E0.00115
G1 X76.651 Y87.155 E0.00116
G1 X77.442 Y88.013 E0.00116
G1 X78.296 Y88.807 E0.00115
G1 X79.211 Y89.532 E0.00116
G1 X80.178 Y90.183 E0.00115
G1 X81.196 Y90.756 E0.00116
G1 X82.253 Y91.248 E0.00115
G1 X83.347 Y91.655 E0.00116
G1 X84.468 Y91.976 E0.00115
G1 X85.612 Y92.208 E0.00116
G1 X86.77 Y92.35 E0.00116
G1 X87.935 Y92.4 E0.00115
G1 X89.101 Y92.36 E0.00116
G1 X90.261 Y92.228 E0.00116
G1 X91.406 Y92.006 E0.00116
G1 X92.53 Y91.695 E0.00115
