;FLAVOR:RepRap
;TIME:2260
;Filament used: 0.0124266m
;Layer height: 0.7
;MINX:30.805
;MINY:51.737
;MINZ:0.7
;MAXX:169.194
;MAXY:103.263
;MAXZ:50.787
;Generated with Cura_SteamEngine 4.11.0
T0
M104 S35
M109 S35
M82 ;absolute extrusion mode
;Pressure advances
M400 ; Finish all current moves and for pressure advances.
M572 D0 S0.00                      ;Pressure advance enabled
;Wipe
G1 Z1 F900			;Wipe height
M83			;Extruder to relative mode
M400
G1 Y140 E0.2 F900		;Draw first thin line
G1 X1 F900
G1 Y5 E0.2 F900		;Draw second thin line
G1 X2 F900
G1 Y50 F900			;Coast in case of leakage
;M82			;Extruder to absolute mode (default)
M400			; wait for moves to finish
G92 E0			; zero extruder
;MHI3D CODE END
M83 ;relative extrusion mode
G1 F480 E-0.05
;LAYER_COUNT:72
;LAYER:0
M107
G1 F600 Z2.7
;MESH:kotelo 2 oma suunnittelu v3.stl
G0 F4800 X36.197 Y65.252 Z2.7
;TYPE:WALL-OUTER
G1 F600 Z0.7
G1 F480 E0.05
G1 F600 X35.353 Y66.115 E0.0012
G1 X34.971 Y66.506 E0.00054
G0 F4800 X34.165 Y67.464
G1 F600 X34.897 Y66.595 E0.00113
G0 F4800 X34.198 Y67.489
G1 F600 X33.845 Y67.939 E0.00057
G0 F4800 X32.881 Y69.489
G1 F600 X33.165 Y68.949 E0.0006
G1 X33.758 Y68.069 E0.00105
G0 F4800 X32.082 Y71.16
G1 F600 X32.327 Y70.542 E0.00066
G1 X32.796 Y69.651 E0.001
G0 F4800 X31.711 Y72.219
G1 F600 X31.483 Y72.879 E0.00069
G0 F4800 X31.669 Y72.205
G1 F600 X32.029 Y71.293 E0.00097
G0 F4800 X31.075 Y74.654
G1 F600 X31.193 Y73.932 E0.00072
G1 X31.436 Y73.048 E0.00091
G0 F4800 X31.04 Y74.863
G1 F600 X30.946 Y75.719 E0.00085
G1 X30.859 Y76.496 E0.00077
G0 F4800 X30.85 Y78.33
G1 F600 X30.805 Y77.5 E0.00082
G1 X30.85 Y76.67 E0.00082
G0 F4800 X30.945 Y79.28
G1 F600 X31.04 Y80.135 E0.00085
G0 F4800 X30.901 Y79.285
G1 F600 X30.859 Y78.504 E0.00077
G0 F4800 X31.075 Y80.35
G1 F600 X31.235 Y81.061 E0.00072
G1 X31.436 Y81.952 E0.0009
G0 F4800 X31.71 Y82.779
G1 F600 X32.031 Y83.71 E0.00098
G0 F4800 X31.668 Y82.794
G1 F600 X31.481 Y82.115 E0.0007
G0 F4800 X32.326 Y84.458
G1 F600 X32.081 Y83.838 E0.00066
G0 F4800 X32.365 Y84.439
G1 F600 X32.794 Y85.346 E0.00099
G0 F4800 X33.762 Y86.938
G1 F600 X33.165 Y86.051 E0.00106
G1 X32.881 Y85.511 E0.0006
G0 F4800 X34.891 Y88.398
G1 F600 X34.165 Y87.537 E0.00112
G1 X33.842 Y87.057 E0.00057
G0 F4800 X34.976 Y88.499
G1 F600 X35.352 Y88.884 E0.00053
G1 X36.171 Y89.723 E0.00116
G1 F480 E-0.05
G1 F600 Z2.7
G0 F4800 X69.982 Y67.961 Z2.7
G1 F600 Z0.7
G1 F480 E0.05
G1 F600 X69.949 Y67.955 E0.00003
G1 X66.905 Y67.231 E0.0031
G1 X66.856 Y67.219 E0.00005
G1 X63.871 Y66.338 E0.00308
G1 X63.83 Y66.325 E0.00004
G1 X60.889 Y65.282 E0.00309
G1 X60.838 Y65.264 E0.00005
G1 X57.95 Y64.06 E0.0031
G1 X57.926 Y64.05 E0.00003
G1 X55.141 Y62.711 E0.00306
G1 X55.058 Y62.671 E0.00009
G1 X53.459 Y61.958 E0.00173
G1 X53.418 Y61.939 E0.00004
G1 X51.758 Y61.408 E0.00173
G1 X51.665 Y61.378 E0.0001
G1 X50 Y61.044 E0.00168
G1 X49.86 Y61.015 E0.00014
G1 X48.215 Y60.871 E0.00164
G1 X48.025 Y60.854 E0.00019
G1 X46.43 Y60.889 E0.00158
G1 X46.186 Y60.895 E0.00024
G1 X44.648 Y61.1 E0.00154
G1 X44.36 Y61.139 E0.00029
G1 X42.901 Y61.501 E0.00149
G1 X42.574 Y61.583 E0.00033
G1 X41.21 Y62.087 E0.00144
G1 X40.847 Y62.222 E0.00038
G1 X39.593 Y62.851 E0.00139
G1 X39.202 Y63.048 E0.00043
G1 X38.059 Y63.789 E0.00135
G1 X37.657 Y64.05 E0.00047
G1 X36.647 Y64.876 E0.00129
G1 X36.249 Y65.202 E0.00051
G1 F480 E-0.05
G1 F600 Z2.7
G0 F4800 X69.985 Y67.942 Z2.7
G1 F600 Z0.7
G1 F480 E0.05
G1 F600 X73.069 Y68.501 E0.0031
G1 X73.08 Y68.503 E0.00001
G1 X74.765 Y68.673 E0.00168
G1 X74.978 Y68.695 E0.00021
G1 X76.472 Y68.69 E0.00148
G1 X76.892 Y68.688 E0.00042
G1 X78.152 Y68.551 E0.00126
G1 X78.794 Y68.48 E0.00064
G1 X79.833 Y68.255 E0.00105
G1 X80.638 Y68.081 E0.00082
G1 F480 E-0.05
G1 F600 Z2.7
G0 F4800 X74.763 Y86.298 Z2.7
G1 F600 Z0.7
G1 F480 E0.05
G1 F600 X74.977 Y86.295 E0.00021
G1 X76.473 Y86.274 E0.00148
G1 X76.892 Y86.307 E0.00042
G1 X78.157 Y86.408 E0.00126
G1 X78.795 Y86.519 E0.00064
G1 X79.843 Y86.703 E0.00105
G1 X80.647 Y86.922 E0.00083
G0 F4800 X74.766 Y86.326
G1 F600 X73.08 Y86.497 E0.00168
G1 X73.07 Y86.498 E0.00001
G1 X69.991 Y87.058 E0.0031
G1 X69.942 Y87.067 E0.00005
G1 X66.906 Y87.789 E0.00309
G1 X66.867 Y87.799 E0.00004
G1 X63.877 Y88.681 E0.00309
G1 X63.835 Y88.694 E0.00004
G1 X60.889 Y89.739 E0.0031
G1 X60.855 Y89.751 E0.00004
G1 X57.961 Y90.957 E0.0031
G1 X57.937 Y90.967 E0.00003
G1 X55.108 Y92.326 E0.00311
G1 X53.47 Y93.061 E0.00178
G1 X53.423 Y93.076 E0.00005
G1 X51.764 Y93.614 E0.00173
G1 X51.668 Y93.634 E0.0001
G1 X50.005 Y93.982 E0.00168
G1 X49.862 Y93.996 E0.00014
G1 X48.217 Y94.158 E0.00164
G1 X48.025 Y94.157 E0.00019
G1 X46.429 Y94.141 E0.00158
G1 X46.185 Y94.113 E0.00024
G1 X44.643 Y93.931 E0.00154
G1 X44.359 Y93.867 E0.00029
G1 X42.892 Y93.531 E0.00149
G1 X42.573 Y93.421 E0.00033
G1 X41.198 Y92.945 E0.00144
G1 X40.847 Y92.78 E0.00038
G1 X39.576 Y92.181 E0.00139
G1 X39.202 Y91.954 E0.00043
G1 X38.037 Y91.243 E0.00135
G1 X37.657 Y90.951 E0.00047
G1 X36.621 Y90.154 E0.00129
G1 X36.256 Y89.805 E0.0005
G1 F480 E-0.05
G1 F600 Z2.7
G0 F4800 X106.844 Y62.066 Z2.7
G1 F600 Z0.7
G1 F480 E0.05
G1 F600 X104.31 Y61.77 E0.00253
G1 X104.271 Y61.765 E0.00004
G1 X101.771 Y61.282 E0.00252
G1 X101.708 Y61.269 E0.00006
G1 X100.088 Y60.978 E0.00163
G1 X98.399 Y60.852 E0.00168
G1 X98.379 Y60.85 E0.00002
G1 X96.712 Y60.893 E0.00165
G1 X95.034 Y61.107 E0.00168
G1 X93.388 Y61.49 E0.00167
G1 X91.789 Y62.038 E0.00167
G1 X90.253 Y62.745 E0.00167
G1 X88.798 Y63.605 E0.00167
G1 X87.437 Y64.607 E0.00167
G1 X86.072 Y65.621 E0.00168
G1 X85.887 Y65.733 E0.00021
G1 X84.61 Y66.509 E0.00148
G1 X84.23 Y66.693 E0.00042
G1 X83.081 Y67.252 E0.00127
G1 X82.484 Y67.476 E0.00063
G1 X81.494 Y67.848 E0.00105
G1 X80.691 Y68.066 E0.00082
G1 F480 E-0.05
G1 F600 Z2.7
G0 F4800 X106.846 Y62.046 Z2.7
G1 F600 Z0.7
G1 F480 E0.05
G1 F600 X106.865 Y62.049 E0.00002
G1 X109.434 Y62.152 E0.00255
G1 X109.467 Y62.154 E0.00003
G1 X112.04 Y62.065 E0.00255
G1 X112.052 Y62.064 E0.00001
G1 X114.581 Y61.786 E0.00252
G1 X114.624 Y61.781 E0.00004
G1 X117.13 Y61.313 E0.00252
G1 X117.166 Y61.306 E0.00004
G1 X119.65 Y60.647 E0.00254
G1 X122.08 Y59.801 E0.00255
G1 X122.109 Y59.79 E0.00003
G1 X124.452 Y58.774 E0.00253
G1 X124.481 Y58.761 E0.00003
G1 X126.745 Y57.567 E0.00253
G1 X126.77 Y57.554 E0.00003
G1 X128.945 Y56.192 E0.00254
G1 X130.858 Y55.012 E0.00223
G1 X130.875 Y55.003 E0.00002
G1 X132.856 Y54.006 E0.0022
G1 X132.912 Y53.984 E0.00006
G1 X134.915 Y53.184 E0.00214
G1 X135.031 Y53.149 E0.00012
G1 X137.065 Y52.535 E0.0021
G1 X137.217 Y52.504 E0.00015
G1 X139.264 Y52.075 E0.00207
G1 X139.45 Y52.053 E0.00019
G1 X141.448 Y51.812 E0.00199
G1 X141.714 Y51.804 E0.00026
G1 X143.711 Y51.738 E0.00198
G1 X143.992 Y51.753 E0.00028
G1 X145.933 Y51.858 E0.00192
G1 X146.265 Y51.905 E0.00033
G1 X148.148 Y52.171 E0.00188
G1 X148.515 Y52.255 E0.00037
G1 X150.299 Y52.668 E0.00181
G1 X150.738 Y52.811 E0.00046
G1 X152.445 Y53.366 E0.00178
G1 X152.878 Y53.549 E0.00047
G1 X154.505 Y54.238 E0.00175
G1 X154.971 Y54.485 E0.00052
G1 X156.468 Y55.279 E0.00168
G1 X156.946 Y55.588 E0.00056
G1 X158.35 Y56.496 E0.00166
G1 X158.832 Y56.871 E0.0006
G0 F4800 X160.086 Y57.896
G1 F600 X158.863 Y56.895 E0.00157
G0 F4800 X160.111 Y57.865
G1 F600 X160.584 Y58.304 E0.00064
G0 F4800 X161.753 Y59.388
G1 F600 X162.195 Y59.876 E0.00065
G0 F4800 X161.725 Y59.417
G1 F600 X160.607 Y58.325 E0.00155
G0 F4800 X162.271 Y59.96
G1 F600 X163.246 Y61.036 E0.00144
G1 X163.68 Y61.605 E0.00071
G0 F4800 X164.558 Y62.83
G1 F600 X163.74 Y61.684 E0.00139
G0 F4800 X164.593 Y62.804
G1 F600 X164.995 Y63.442 E0.00075
G0 F4800 X165.757 Y64.729
G1 F600 X165.073 Y63.566 E0.00134
G0 F4800 X165.793 Y64.707
G1 F600 X166.143 Y65.385 E0.00076
G0 F4800 X166.816 Y66.69
G1 F600 X167.115 Y67.418 E0.00078
G0 F4800 X166.779 Y66.708
G1 F600 X166.249 Y65.592 E0.00122
G0 F4800 X167.622 Y68.763
G1 F600 X167.204 Y67.634 E0.00119
G0 F4800 X167.662 Y68.747
G1 F600 X167.914 Y69.554 E0.00084
G0 F4800 X168.332 Y70.89
G1 F600 X168.522 Y71.755 E0.00088
G0 F4800 X168.29 Y70.902
G1 F600 X167.979 Y69.761 E0.00117
G0 F4800 X168.766 Y73.07
G1 F600 X168.563 Y71.944 E0.00113
G0 F4800 X168.809 Y73.062
G1 F600 X168.927 Y73.968 E0.0009
G0 F4800 X169.097 Y75.266
G1 F600 X169.138 Y76.228 E0.00095
G0 F4800 X169.054 Y75.27
G1 F600 X168.959 Y74.207 E0.00106
G0 F4800 X169.194 Y77.515
G1 F600 X169.15 Y78.508 E0.00098
G0 F4800 X169.15 Y77.516
G1 F600 X169.149 Y76.474 E0.00103
G0 F4800 X169.051 Y79.747
G1 F600 X169.14 Y78.743 E0.001
G0 F4800 X169.095 Y79.75
G1 F600 X168.96 Y80.776 E0.00102
G0 F4800 X168.568 Y83.038
G1 F600 X168.76 Y81.958 E0.00109
G1 X168.931 Y80.996 E0.00097
G0 F4800 X168.281 Y84.131
G1 F600 X168.523 Y83.241 E0.00091
G0 F4800 X168.324 Y84.142
G1 F600 X167.979 Y85.244 E0.00114
G0 F4800 X167.217 Y87.333
G1 F600 X167.622 Y86.235 E0.00116
G1 X167.922 Y85.423 E0.00086
G0 F4800 X166.762 Y88.323
G1 F600 X167.122 Y87.562 E0.00083
G0 F4800 X166.801 Y88.341
G1 F600 X166.244 Y89.419 E0.0012
G0 F4800 X165.74 Y90.301
G1 F600 X166.142 Y89.616 E0.00079
G0 F4800 X165.777 Y90.322
G1 F600 X165.091 Y91.406 E0.00127
G0 F4800 X164.551 Y92.18
G1 F600 X165.007 Y91.539 E0.00078
G0 F4800 X164.586 Y92.204
G1 F600 X163.804 Y93.23 E0.00128
G0 F4800 X162.303 Y95.005
G1 F600 X163.203 Y93.953 E0.00137
G1 X163.668 Y93.409 E0.00071
G0 F4800 X160.673 Y96.614
G1 F600 X161.704 Y95.605 E0.00143
G1 X162.194 Y95.125 E0.00068
G0 F4800 X160.094 Y97.148
G1 F600 X158.88 Y98.092 E0.00152
G0 F4800 X160.068 Y97.118
G1 F600 X160.585 Y96.694 E0.00066
G0 F4800 X157.013 Y99.369
G1 F600 X158.31 Y98.485 E0.00155
G1 X158.825 Y98.134 E0.00062
G1 F480 E-0.05
G1 F600 Z2.7
G0 F4800 X114.591 Y93.195 Z2.7
G1 F600 Z0.7
G1 F480 E0.05
G1 F600 X114.62 Y93.199 E0.00003
G1 X117.135 Y93.669 E0.00253
G1 X117.181 Y93.678 E0.00005
G1 X119.642 Y94.332 E0.00252
G1 X119.655 Y94.336 E0.00001
G1 X122.082 Y95.18 E0.00254
G1 X122.124 Y95.195 E0.00004
G1 X124.457 Y96.208 E0.00252
G1 X124.486 Y96.221 E0.00003
G1 X126.748 Y97.411 E0.00253
G1 X126.786 Y97.431 E0.00004
G1 X128.927 Y98.773 E0.0025
G1 X128.989 Y98.812 E0.00007
G1 X130.843 Y99.954 E0.00216
G1 X130.911 Y99.996 E0.00008
G1 X132.834 Y100.958 E0.00213
G1 X132.933 Y101.008 E0.00011
G1 X134.929 Y101.795 E0.00212
G1 X135.066 Y101.849 E0.00015
G1 X137.051 Y102.433 E0.00205
G1 X137.25 Y102.492 E0.00021
G1 X139.23 Y102.891 E0.002
G1 X139.468 Y102.939 E0.00024
G1 X141.453 Y103.156 E0.00198
G1 X141.746 Y103.189 E0.00029
G1 X143.68 Y103.23 E0.00192
G1 X144.022 Y103.238 E0.00034
G1 X145.899 Y103.112 E0.00186
G1 X146.295 Y103.085 E0.00039
G1 X148.112 Y102.801 E0.00182
G1 X148.544 Y102.733 E0.00043
G1 X150.29 Y102.298 E0.00178
G1 X150.739 Y102.186 E0.00046
G1 X152.404 Y101.611 E0.00174
G1 X152.906 Y101.438 E0.00053
G1 X154.457 Y100.743 E0.00168
G1 X154.984 Y100.507 E0.00057
G1 X156.431 Y99.698 E0.00164
G1 X156.956 Y99.405 E0.0006
G1 F480 E-0.05
G1 F600 Z2.7
G0 F4800 X114.589 Y93.215 Z2.7
G1 F600 Z0.7
G1 F480 E0.05
G1 F600 X112.057 Y92.938 E0.00252
G1 X112.034 Y92.935 E0.00002
G1 X109.469 Y92.849 E0.00254
G1 X109.432 Y92.847 E0.00004
G1 X106.863 Y92.953 E0.00255
G1 X106.848 Y92.954 E0.00001
G1 X104.31 Y93.249 E0.00253
G1 X104.278 Y93.253 E0.00003
G1 X101.75 Y93.742 E0.00255
G1 X101.734 Y93.745 E0.00002
G1 X100.096 Y94.039 E0.00165
G1 X98.426 Y94.167 E0.00166
G1 X98.4 Y94.169 E0.00003
G1 X96.708 Y94.126 E0.00168
G1 X95.031 Y93.912 E0.00167
G1 X93.383 Y93.529 E0.00168
G1 X91.786 Y92.981 E0.00167
G1 X90.242 Y92.27 E0.00168
G1 X88.788 Y91.412 E0.00167
G1 X87.462 Y90.438 E0.00163
G1 X86.048 Y89.399 E0.00174
G1 X85.881 Y89.276 E0.00021
G1 X84.592 Y88.524 E0.00148
G1 X84.228 Y88.311 E0.00042
G1 X83.065 Y87.787 E0.00126
G1 X82.483 Y87.525 E0.00063
G1 X81.481 Y87.195 E0.00104
G1 X80.683 Y86.932 E0.00083
G1 F480 E-0.05
;MESH:NONMESH
G0 F600 X80.683 Y86.932 Z1.4
G0 F4800 X82.483 Y87.525
;TIME_ELAPSED:50.723677
;LAYER:1
;TYPE:WALL-OUTER
;MESH:kotelo 2 oma suunnittelu v3.stl
G1 F480 E0.05
G1 F600 X80.683 Y86.932 E0.00188
G1 X81.494 Y87.153 E0.00083
G1 X83.081 Y87.749 E0.00168
G1 X84.61 Y88.492 E0.00168
G1 X86.064 Y89.376 E0.00169
G1 X87.511 Y90.448 E0.00178
G1 X88.798 Y91.395 E0.00158
G1 X90.253 Y92.255 E0.00167
G1 X91.789 Y92.962 E0.00167
G1 X93.388 Y93.51 E0.00167
G1 X95.034 Y93.894 E0.00167
G1 X96.712 Y94.107 E0.00168
G1 X98.402 Y94.15 E0.00167
G1 X100.088 Y94.022 E0.00167
G1 X101.73 Y93.727 E0.00165
G1 X104.289 Y93.232 E0.00258
G1 X106.862 Y92.933 E0.00257
G1 X109.451 Y92.828 E0.00257
G1 X112.041 Y92.916 E0.00257
G1 X114.602 Y93.196 E0.00255
G1 X117.164 Y93.674 E0.00258
G1 X119.647 Y94.333 E0.00254
G1 X122.104 Y95.186 E0.00258
G1 X124.476 Y96.216 E0.00256
G1 X126.755 Y97.414 E0.00255
G1 X129.015 Y98.828 E0.00264
G1 X130.897 Y99.989 E0.00219
G1 X132.933 Y101.008 E0.00225
G1 X135.051 Y101.845 E0.00226
G1 X137.235 Y102.489 E0.00225
G1 X139.468 Y102.939 E0.00226
G1 X141.73 Y103.189 E0.00225
G1 X144.007 Y103.239 E0.00226
G1 X146.28 Y103.087 E0.00226
G1 X148.529 Y102.736 E0.00225
G1 X150.739 Y102.186 E0.00226
G1 X152.892 Y101.444 E0.00226
G1 X154.971 Y100.514 E0.00226
G1 X156.953 Y99.409 E0.00225
G1 X156.455 Y99.73 E0.00059
G1 X154.492 Y100.77 E0.0022
G1 X152.432 Y101.641 E0.00221
G1 X150.299 Y102.332 E0.00222
G1 X148.133 Y102.833 E0.0022
G1 X145.918 Y103.144 E0.00222
G1 X143.695 Y103.263 E0.0022
G1 X141.448 Y103.188 E0.00223
G1 X139.241 Y102.922 E0.0022
G1 X137.059 Y102.464 E0.00221
G1 X134.919 Y101.818 E0.00221
G1 X132.838 Y100.986 E0.00222
G1 X130.844 Y99.982 E0.00221
G1 X128.887 Y98.771 E0.00228
G1 X126.755 Y97.437 E0.00249
G1 X124.466 Y96.232 E0.00256
G1 X122.093 Y95.203 E0.00256
G1 X119.65 Y94.353 E0.00256
G1 X117.149 Y93.691 E0.00256
G1 X114.606 Y93.217 E0.00256
G1 X112.034 Y92.935 E0.00256
G1 X109.449 Y92.847 E0.00256
G1 X106.865 Y92.952 E0.00256
G1 X104.295 Y93.25 E0.00256
G1 X101.703 Y93.751 E0.00261
G1 X100.098 Y94.039 E0.00161
G1 X98.4 Y94.169 E0.00169
G1 X96.708 Y94.126 E0.00168
G1 X95.031 Y93.912 E0.00167
G1 X93.383 Y93.529 E0.00168
G1 X91.786 Y92.981 E0.00167
G1 X90.242 Y92.27 E0.00168
G1 X88.788 Y91.412 E0.00167
G1 X85.881 Y89.276 E0.00357
G1 X84.228 Y88.311 E0.0019
G1 X82.483 Y87.525 E0.0019
G0 F4800 X80.647 Y86.922
G1 F600 X78.795 Y86.52 E0.00188
G1 X76.892 Y86.312 E0.0019
G1 X74.978 Y86.305 E0.0019
G1 X73.08 Y86.497 E0.00189
G1 X69.964 Y87.062 E0.00314
G1 X66.888 Y87.792 E0.00313
G1 X63.855 Y88.687 E0.00313
G1 X60.875 Y89.743 E0.00313
G1 X57.956 Y90.958 E0.00313
G1 X55.131 Y92.316 E0.0031
G1 X53.47 Y93.061 E0.0018
G1 X51.764 Y93.614 E0.00178
G1 X50.005 Y93.982 E0.00178
G1 X48.217 Y94.158 E0.00178
G1 X46.429 Y94.141 E0.00177
G1 X44.643 Y93.931 E0.00178
G1 X42.892 Y93.531 E0.00178
G1 X41.198 Y92.945 E0.00178
G1 X39.576 Y92.181 E0.00178
G1 X38.037 Y91.243 E0.00178
G1 X36.621 Y90.154 E0.00177
G1 X36.256 Y89.805 E0.0005
G1 X37.657 Y90.95 E0.00179
G1 X39.202 Y91.953 E0.00182
G1 X40.847 Y92.778 E0.00182
G1 X42.574 Y93.417 E0.00182
G1 X44.36 Y93.861 E0.00182
G1 X46.185 Y94.105 E0.00182
G1 X48.025 Y94.148 E0.00182
G1 X49.86 Y93.985 E0.00182
G1 X51.665 Y93.622 E0.00182
G1 X53.418 Y93.061 E0.00182
G1 X55.14 Y92.291 E0.00187
G1 X57.952 Y90.938 E0.00309
G1 X60.862 Y89.728 E0.00312
G1 X63.85 Y88.668 E0.00314
G1 X66.881 Y87.774 E0.00313
G1 X69.966 Y87.042 E0.00314
G1 X73.066 Y86.48 E0.00312
G1 X74.763 Y86.298 E0.00169
G1 X76.473 Y86.274 E0.00169
G1 X78.157 Y86.408 E0.00167
G1 X79.843 Y86.703 E0.0017
G1 X80.647 Y86.922 E0.00083
G1 F480 E-0.05
G1 F600 Z3.4
G0 F4800 X78.794 Y68.48 Z3.4
G1 F600 Z1.4
G1 F480 E0.05
G1 F600 X80.638 Y68.081 E0.00187
G1 X79.843 Y68.297 E0.00082
G1 X78.157 Y68.592 E0.0017
G1 X76.473 Y68.726 E0.00167
G1 X74.763 Y68.702 E0.00169
G1 X73.066 Y68.52 E0.00169
G1 X69.966 Y67.959 E0.00312
G1 X66.881 Y67.226 E0.00314
G1 X63.85 Y66.332 E0.00313
G1 X60.862 Y65.273 E0.00314
G1 X57.952 Y64.062 E0.00312
G1 X55.08 Y62.681 E0.00316
G1 X53.418 Y61.939 E0.0018
G1 X51.665 Y61.378 E0.00182
G1 X49.86 Y61.015 E0.00182
G1 X48.025 Y60.854 E0.00182
G1 X46.186 Y60.895 E0.00182
G1 X44.36 Y61.139 E0.00182
G1 X42.574 Y61.583 E0.00182
G1 X40.847 Y62.222 E0.00182
G1 X39.202 Y63.048 E0.00182
G1 X37.657 Y64.05 E0.00182
G1 X36.249 Y65.202 E0.0018
G1 X36.621 Y64.846 E0.00051
G1 X38.037 Y63.757 E0.00177
G1 X39.576 Y62.819 E0.00178
