;FLAVOR:RepRap
;TIME:2266
;Filament used: 0.0167694m
;Layer height: 0.6
;MINX:87.176
;MINY:66.292
;MINZ:0.6
;MAXX:112.808
;MAXY:88.814
;MAXZ:47.6
;Generated with Cura_SteamEngine 4.11.0
T0
M104 S35
M109 S35
M82 ;absolute extrusion mode
;Pressure advances
M400 ; Finish all current moves and for pressure advances.
M572 D0 S0.00                      ;Pressure advance enabled
;Wipe
G1 Z1 F900			;Wipe height
M83			;Extruder to relative mode
M400
G1 Y140 E0.2 F900		;Draw first thin line
G1 X1 F900
G1 Y5 E0.2 F900		;Draw second thin line
G1 X2 F900
G1 Y50 F900			;Coast in case of leakage
;M82			;Extruder to absolute mode (default)
M400			; wait for moves to finish
G92 E0			; zero extruder
;MHI3D CODE END
M83 ;relative extrusion mode
G1 F480 E-0.05
;LAYER_COUNT:78
;LAYER:0
M107
G1 F600 Z2.6
;MESH:pikachu.20130306.e.1.stl
G0 F4800 X93.024 Y77.093 Z2.6
;TYPE:WALL-INNER
G1 F600 Z0.6
G1 F480 E0.05
G1 F600 X93.007 Y77.102 E0.00002
G1 X92.868 Y77.176 E0.00013
G1 X92.452 Y77.399 E0.0004
G1 X92.442 Y77.405 E0.00001
G1 X92.368 Y77.445 E0.00007
G1 X92.336 Y77.352 E0.00008
G0 F4800 X92.33 Y77.334
G1 F600 X92.197 Y76.951 E0.00022
G1 X92.186 Y76.904 E0.00004
G0 F4800 X92.475 Y76.969
G1 F600 X93.024 Y77.093 E0.0003
G1 F480 E-0.05
G1 F600 Z2.6
G0 F4800 X104.102 Y80.708 Z2.6
G1 F600 Z0.6
G1 F480 E0.05
G1 F600 X103.451 Y81.503 E0.00087
G1 X102.675 Y82.14 E0.00085
G1 X101.784 Y82.615 E0.00086
G1 X100.809 Y82.912 E0.00087
G1 X99.804 Y83.01 E0.00086
G1 X98.799 Y82.912 E0.00086
G1 X97.822 Y82.615 E0.00087
G1 X96.935 Y82.142 E0.00085
G1 X96.142 Y81.491 E0.00087
G1 X95.513 Y80.724 E0.00084
G1 X93.737 Y77.385 E0.00321
G1 X93.654 Y77.229 E0.00015
G1 X96.159 Y74.181 E0.00335
G1 X96.925 Y73.553 E0.00084
G1 X97.83 Y73.069 E0.00087
G1 X98.797 Y72.775 E0.00086
G1 X99.805 Y72.676 E0.00086
G1 X100.808 Y72.774 E0.00086
G1 X101.782 Y73.07 E0.00086
G1 X102.669 Y73.545 E0.00085
G1 X103.458 Y74.192 E0.00087
G1 X104.082 Y74.951 E0.00083
G1 X105.438 Y77.568 E0.0025
G1 X105.817 Y77.514 E0.00032
G0 F4800 X105.71 Y77.713
G1 F600 X104.102 Y80.708 E0.00289
G0 F4800 X104.938 Y81.266
G1 F600 X104.16 Y82.215 E0.00104
G1 X103.234 Y82.976 E0.00102
G1 X102.168 Y83.544 E0.00103
G1 X101.007 Y83.897 E0.00103
G1 X100.907 Y83.906 E0.00009
G1 X99.804 Y84.015 E0.00094
G1 X98.601 Y83.897 E0.00103
G1 X97.439 Y83.544 E0.00103
G1 X96.375 Y82.976 E0.00102
G1 X95.434 Y82.205 E0.00103
G1 X94.675 Y81.279 E0.00102
G1 X93.281 Y78.658 E0.00252
G1 X93.046 Y78.216 E0.00042
G1 X92.605 Y78.452 E0.00027
G1 X92.137 Y78.704 E0.00045
G1 X91.878 Y78.842 E0.00025
G1 X91.844 Y78.861 E0.00003
G1 X91.643 Y78.405 E0.00026
G1 X91.547 Y78.128 E0.0002
G1 X91.236 Y77.234 E0.0008
G1 X91.026 Y76.354 E0.00077
G1 X91.025 Y76.353 E0
G1 X90.842 Y75.576 E0.00068
G1 X91.621 Y75.75 E0.00039
G1 X91.622 Y75.751 E0
G1 X93.269 Y76.123 E0.00143
G1 X95.446 Y73.473 E0.00291
G1 X96.367 Y72.717 E0.00101
G1 X97.447 Y72.14 E0.00104
G1 X98.598 Y71.79 E0.00102
G1 X98.698 Y71.781 E0.00009
G1 X99.805 Y71.671 E0.00094
G1 X101.005 Y71.789 E0.00102
G1 X102.165 Y72.141 E0.00103
G1 X103.229 Y72.711 E0.00102
G1 X104.167 Y73.481 E0.00103
G1 X104.229 Y73.557 E0.00008
G1 X104.922 Y74.399 E0.00093
G1 X105.999 Y76.477 E0.00199
G1 X106.656 Y76.382 E0.00056
G1 X107.634 Y76.242 E0.00084
G1 X107.358 Y76.756 E0.0005
G1 X107.167 Y77.112 E0.00034
G1 X104.938 Y81.266 E0.004
G0 F4800 X108.686 Y77.319
G1 F600 X108.538 Y77.103 E0.00022
G1 X108.248 Y76.682 E0.00043
G1 X108.017 Y76.346 E0.00035
G1 X107.918 Y76.201 E0.00015
G1 X108.613 Y76.102 E0.0006
G1 X108.69 Y76.091 E0.00007
G1 X108.864 Y76.066 E0.00015
G1 X108.945 Y76.054 E0.00007
G1 X109.023 Y76.043 E0.00007
G1 X108.93 Y76.42 E0.00033
G1 X108.809 Y76.916 E0.0003
G1 X108.786 Y76.991 E0.00006
G1 X108.686 Y77.319 E0.00029
G0 F4800 X108.96 Y79.484
G1 F600 X108.737 Y79.16 E0.00033
G1 X108.53 Y78.858 E0.00031
G1 X108.34 Y78.582 E0.00028
G1 X107.876 Y77.906 E0.0007
G1 X107.489 Y78.628 E0.0004
G1 X105.772 Y81.827 E0.00308
G1 X104.874 Y82.923 E0.0012
G1 X103.791 Y83.812 E0.00119
G1 X102.552 Y84.473 E0.00119
G1 X101.204 Y84.882 E0.0012
G1 X101.106 Y84.891 E0.00008
G1 X99.804 Y85.02 E0.00111
G1 X98.403 Y84.882 E0.00119
G1 X97.056 Y84.473 E0.00119
G1 X95.818 Y83.812 E0.00119
G1 X94.724 Y82.915 E0.0012
G1 X94.662 Y82.839 E0.00008
G1 X93.837 Y81.834 E0.0011
G1 X92.869 Y80.014 E0.00175
G1 X92.634 Y79.572 E0.00042
G1 X92.193 Y79.808 E0.00027
G1 X91.658 Y80.095 E0.00052
G1 X91.411 Y80.228 E0.00024
G1 X91.171 Y79.814 E0.00041
G1 X91.058 Y79.557 E0.00019
G1 X90.709 Y78.766 E0.00073
G1 X90.275 Y77.515 E0.00112
G1 X89.666 Y74.96 E0.00223
G1 X89.547 Y74.458 E0.00044
G1 X89.537 Y74.386 E0.00006
G1 X89.329 Y72.96 E0.00122
G1 X89.326 Y72.94 E0.00002
G1 X89.248 Y72.016 E0.00079
G0 F4800 X89.88 Y74.335
G1 F600 X90.383 Y74.448 E0.00032
G1 X92.887 Y75.012 E0.00218
G1 X94.733 Y72.764 E0.00247
G1 X95.811 Y71.88 E0.00118
G1 X97.06 Y71.212 E0.0012
G1 X98.401 Y70.805 E0.00119
G1 X98.499 Y70.796 E0.00008
G1 X99.804 Y70.666 E0.00111
G1 X101.204 Y70.804 E0.00119
G1 X102.55 Y71.213 E0.00119
G1 X103.788 Y71.875 E0.00119
G1 X104.875 Y72.768 E0.00119
G1 X105.762 Y73.847 E0.00119
G1 X106.56 Y75.386 E0.00147
G1 X109.531 Y74.959 E0.00255
G1 X110.078 Y74.881 E0.00047
G1 X110.168 Y74.417 E0.0004
G1 X110.469 Y72.873 E0.00134
G1 X110.472 Y72.862 E0.00001
G1 X110.755 Y71.82 E0.00092
G0 F4800 X110.322 Y74.94
G1 F600 X110.191 Y75.477 E0.00032
G1 X109.773 Y77.184 E0.00149
G1 X109.6 Y77.748 E0.0005
G1 X109.375 Y78.449 E0.00062
G1 X109.263 Y78.798 E0.00026
G1 X108.96 Y79.484 E0.00034
G0 F4800 X109.022 Y81.343
G1 F600 X108.971 Y81.268 E0.00008
G1 X108.663 Y80.819 E0.00046
G1 X108.445 Y80.502 E0.00033
G1 X107.981 Y79.826 E0.0007
G1 X107.594 Y80.548 E0.0004
G1 X106.606 Y82.388 E0.00177
G1 X105.588 Y83.631 E0.00136
G1 X104.425 Y84.584 E0.00128
G1 X104.348 Y84.648 E0.00008
G1 X102.934 Y85.402 E0.00136
G1 X101.403 Y85.867 E0.00136
G1 X101.303 Y85.876 E0.00009
G1 X99.804 Y86.025 E0.00128
G1 X98.204 Y85.867 E0.00136
G1 X96.673 Y85.402 E0.00136
G1 X95.261 Y84.648 E0.00136
G1 X94.014 Y83.626 E0.00137
G1 X92.999 Y82.389 E0.00136
G1 X92.457 Y81.37 E0.00098
G1 X92.222 Y80.928 E0.00042
G1 X91.781 Y81.165 E0.00027
G1 X91.11 Y81.525 E0.00065
G1 X90.758 Y81.095 E0.00047
G1 X90.276 Y80.263 E0.00082
G1 X89.777 Y79.132 E0.00105
G1 X89.314 Y77.798 E0.0012
G1 X88.563 Y74.642 E0.00275
G1 X88.331 Y73.052 E0.00136
G1 X88.199 Y71.477 E0.00134
G1 X88.177 Y70.057 E0.00121
G1 X88.244 Y69.078 E0.00083
G1 X88.261 Y68.816 E0.00022
G1 X88.31 Y68.538 E0.00024
G1 X88.428 Y67.881 E0.00057
G1 X88.465 Y67.775 E0.0001
G1 X88.5 Y67.675 E0.00009
G0 F4800 X88.962 Y68.409
G1 F600 X89.12 Y68.682 E0.00018
G1 X89.226 Y68.922 E0.00021
G1 X89.606 Y69.781 E0.0008
G1 X90.49 Y72.648 E0.00255
G1 X90.701 Y73.495 E0.00074
G1 X92.505 Y73.901 E0.00157
G1 X94.02 Y72.056 E0.00203
G1 X94.099 Y71.992 E0.00009
G1 X95.255 Y71.043 E0.00127
G1 X96.674 Y70.284 E0.00137
G1 X98.204 Y69.82 E0.00136
G1 X98.302 Y69.811 E0.00008
G1 X99.803 Y69.661 E0.00128
G1 X101.403 Y69.819 E0.00136
G1 X102.933 Y70.284 E0.00136
G1 X104.349 Y71.041 E0.00136
G1 X105.586 Y72.057 E0.00136
G1 X106.601 Y73.292 E0.00136
G1 X107.121 Y74.295 E0.00096
G1 X109.232 Y73.992 E0.00181
G1 X109.493 Y72.652 E0.00116
G1 X109.903 Y71.142 E0.00133
G1 X110.372 Y69.792 E0.00121
G1 X110.763 Y68.908 E0.00082
G1 X110.867 Y68.673 E0.00022
G1 X111.014 Y68.419 E0.00025
G1 X111.35 Y67.84 E0.00057
G1 X111.416 Y67.759 E0.00009
G1 X111.486 Y67.675 E0.00009
G0 F4800 X111.671 Y68.529
G1 F600 X111.725 Y68.83 E0.00018
G1 X111.742 Y69.086 E0.0002
G1 X111.807 Y70.064 E0.00083
G1 X111.784 Y71.52 E0.00124
G1 X111.658 Y73.028 E0.00128
G1 X111.419 Y74.66 E0.0014
G1 X110.733 Y77.466 E0.00245
G1 X110.555 Y78.043 E0.00051
G1 X110.199 Y79.154 E0.00099
G1 X109.711 Y80.257 E0.00102
G1 X109.5 Y80.621 E0.00036
G1 X109.227 Y81.092 E0.00033
G1 X109.022 Y81.343 E0.00015
G0 F4800 X109.103 Y82.607
;TYPE:WALL-OUTER
G1 F600 X108.845 Y82.644 E0.00022
G1 X108.618 Y82.523 E0.00022
G1 X108.592 Y82.486 E0.00004
G1 X108.085 Y81.746 E0.00076
G1 X107.881 Y82.127 E0.00037
G1 X107.441 Y82.946 E0.00079
G1 X106.299 Y84.341 E0.00153
G1 X104.905 Y85.484 E0.00153
G1 X103.318 Y86.331 E0.00153
G1 X101.6 Y86.852 E0.00152
G1 X99.804 Y87.03 E0.00153
G1 X98.007 Y86.852 E0.00153
G1 X96.289 Y86.331 E0.00152
G1 X94.7 Y85.482 E0.00153
G1 X93.306 Y84.34 E0.00153
G1 X92.163 Y82.946 E0.00153
G1 X91.811 Y82.284 E0.00064
G1 X91.139 Y82.645 E0.00065
G1 X90.881 Y82.608 E0.00022
G1 X90.46 Y82.31 E0.00044
G1 X89.934 Y81.667 E0.00071
G1 X89.381 Y80.712 E0.00094
G1 X88.845 Y79.498 E0.00113
G1 X88.353 Y78.081 E0.00127
G1 X87.581 Y74.836 E0.00283
G1 X87.335 Y73.152 E0.00144
G1 X87.2 Y71.54 E0.00137
G1 X87.176 Y70.029 E0.00128
G1 X87.266 Y68.7 E0.00113
G1 X87.458 Y67.624 E0.00093
G1 X87.719 Y66.88 E0.00067
G1 X87.733 Y66.838 E0.00004
G1 X88.002 Y66.451 E0.0004
G1 X88.026 Y66.416 E0.00004
G1 X88.256 Y66.292 E0.00022
G1 X88.512 Y66.328 E0.00022
G1 X88.548 Y66.354 E0.00004
G1 X88.936 Y66.628 E0.0004
G1 X88.963 Y66.661 E0.00004
G1 X89.451 Y67.259 E0.00066
G1 X90.015 Y68.233 E0.00096
G1 X90.545 Y69.432 E0.00111
G1 X91.394 Y72.185 E0.00245
G1 X91.45 Y72.366 E0.00016
G1 X91.522 Y72.655 E0.00025
G1 X92.123 Y72.79 E0.00052
G1 X92.243 Y72.644 E0.00015
G1 X93.307 Y71.348 E0.00142
G1 X94.697 Y70.207 E0.00153
G1 X96.29 Y69.356 E0.00153
G1 X98.007 Y68.835 E0.00152
G1 X99.803 Y68.656 E0.00153
G1 X101.601 Y68.834 E0.00153
G1 X103.316 Y69.355 E0.00152
G1 X104.91 Y70.207 E0.00153
G1 X106.297 Y71.346 E0.00152
G1 X107.439 Y72.736 E0.00153
G1 X107.44 Y72.737 E0
G1 X107.682 Y73.204 E0.00045
G1 X108.386 Y73.103 E0.0006
G1 X108.42 Y72.929 E0.00011
G1 X108.42 Y72.928 E0
G1 X108.517 Y72.431 E0.00043
G1 X108.948 Y70.842 E0.0014
G1 X109.437 Y69.434 E0.00127
G1 X109.974 Y68.219 E0.00113
G1 X110.525 Y67.27 E0.00093
G1 X111.023 Y66.661 E0.00067
G1 X111.051 Y66.627 E0.00004
G1 X111.437 Y66.353 E0.0004
G1 X111.472 Y66.329 E0.00004
G1 X111.731 Y66.292 E0.00022
G1 X111.959 Y66.414 E0.00022
G1 X111.984 Y66.451 E0.00004
G1 X112.255 Y66.84 E0.0004
G1 X112.269 Y66.88 E0.00004
G1 X112.526 Y67.622 E0.00067
G1 X112.719 Y68.707 E0.00094
G1 X112.808 Y70.037 E0.00113
G1 X112.784 Y71.561 E0.00129
G1 X112.651 Y73.143 E0.00135
G1 X112.401 Y74.851 E0.00147
G1 X111.694 Y77.743 E0.00253
G1 X111.511 Y78.337 E0.00053
G1 X111.135 Y79.51 E0.00105
G1 X110.604 Y80.71 E0.00111
G1 X110.049 Y81.668 E0.00094
G1 X109.553 Y82.274 E0.00066
G1 X109.524 Y82.309 E0.00004
G1 X109.103 Y82.607 E0.00044
G0 F4800 X108.845 Y82.644
G0 X108.634 Y82.532
G0 X103.272 Y80.16
;TYPE:SKIN
G1 F600 X102.747 Y80.801 E0.0007
G1 X102.12 Y81.315 E0.00069
G1 X101.408 Y81.694 E0.00068
G1 X100.618 Y81.935 E0.0007
G1 X99.804 Y82.014 E0.00069
G1 X98.986 Y81.935 E0.0007
G1 X98.203 Y81.697 E0.00069
G1 X97.488 Y81.316 E0.00069
G1 X96.846 Y80.789 E0.00071
G1 X96.342 Y80.173 E0.00068
G1 X94.838 Y77.347 E0.00272
G1 X96.861 Y74.885 E0.0027
G1 X97.477 Y74.381 E0.00068
G1 X98.213 Y73.988 E0.00071
G1 X98.987 Y73.752 E0.00069
G1 X99.805 Y73.672 E0.0007
G1 X100.619 Y73.751 E0.00069
G1 X101.399 Y73.989 E0.00069
G1 X102.114 Y74.371 E0.00069
G1 X102.755 Y74.897 E0.0007
G1 X103.252 Y75.501 E0.00066
G1 X104.49 Y77.89 E0.00228
G1 X103.272 Y80.16 E0.00219
G0 F4800 X103.148 Y76.278
G1 F600 X101.336 Y74.466 E0.00218
G0 F4800 X99.6 Y74.145
G1 F600 X103.758 Y78.302 E0.00499
G0 F4800 X103.263 Y79.222
G1 F600 X98.433 Y74.391 E0.0058
G0 F4800 X97.539 Y74.911
G1 F600 X102.733 Y80.106 E0.00624
G0 F4800 X102.024 Y80.81
G1 F600 X96.835 Y75.622 E0.00623
G0 F4800 X96.197 Y76.398
G1 F600 X101.111 Y81.312 E0.0059
G0 F4800 X99.933 Y81.548
G1 F600 X95.559 Y77.175 E0.00525
G1 X95.383 Y76.999
G0 F4800 X96.517 Y79.547
G1 F600 X98.107 Y81.136 E0.00191
G1 X98.283 Y81.312
G1 F480 E-0.05
;MESH:NONMESH
G0 F600 X98.283 Y81.312 Z1.2
G0 F4800 X96.08 Y75.4
;TIME_ELAPSED:47.472543
;LAYER:1
;TYPE:FILL
;MESH:pikachu.20130306.e.1.stl
G1 F480 E0.05
G1 F600 X96.08 Y80.278 E0.00414
G1 X95.986 Y80.102 E0.00017
G1 X95.1 Y78.41 E0.00162
G1 X95.1 Y76.58 E0.00155
G1 X96.69 Y74.666 E0.00211
G1 X97.06 Y74.362 E0.00041
G1 X97.06 Y81.322 E0.00591
G1 X97.328 Y81.543 E0.00029
G1 X98.04 Y81.923 E0.00069
G1 X98.04 Y73.764 E0.00693
G1 X98.108 Y73.728 E0.00007
G1 X98.93 Y73.479 E0.00073
G1 X99.02 Y73.47 E0.00008
G1 X99.02 Y82.217 E0.00742
G1 X99.803 Y82.294 E0.00067
G1 X100 Y82.275 E0.00017
G1 X100 Y73.412 E0.00752
G1 X100.68 Y73.478 E0.00058
G1 X100.98 Y73.57 E0.00027
G1 X100.98 Y82.116 E0.00725
G1 X101.504 Y81.957 E0.00046
G1 X101.96 Y81.714 E0.00044
G1 X101.96 Y73.976 E0.00657
G1 X102.28 Y74.146 E0.00031
G1 X102.922 Y74.672 E0.0007
G1 X102.94 Y74.695 E0.00002
G1 X102.94 Y81 E0.00535
G1 X102.961 Y80.982 E0.00002
G1 X103.498 Y80.326 E0.00072
G1 X104.822 Y77.84 E0.00239
G1 X103.92 Y76.147 E0.00163
G1 X103.92 Y79.534 E0.00287
G1 X103.92 Y79.784
G0 F4800 X104.344 Y74.818
;TYPE:WALL-INNER
G1 F600 X105.548 Y77.076 E0.00217
G1 X106.386 Y77.029 E0.00071
G0 F4800 X106.182 Y77.413
G1 F600 X104.331 Y80.888 E0.00334
G1 X103.671 Y81.693 E0.00088
G1 X102.828 Y82.384 E0.00093
G1 X101.894 Y82.883 E0.0009
G1 X100.864 Y83.196 E0.00091
G1 X99.803 Y83.3 E0.0009
G1 X98.742 Y83.196 E0.0009
G1 X97.718 Y82.885 E0.00091
G1 X96.774 Y82.381 E0.00091
G1 X95.938 Y81.694 E0.00092
G1 X95.266 Y80.877 E0.0009
G1 X95.104 Y80.573 E0.00029
G1 X93.965 Y78.399 E0.00208
G1 X93.429 Y78.322 E0.00046
G1 X92.897 Y78.247 E0.00046
G1 X92.709 Y77.896 E0.00034
G1 X93.052 Y77.483 E0.00034
G1 X95.984 Y73.951 E0.0039
G1 X96.763 Y73.313 E0.00085
G1 X97.719 Y72.802 E0.00092
G1 X98.742 Y72.491 E0.00091
G1 X99.805 Y72.387 E0.00091
G1 X100.868 Y72.49 E0.00091
G1 X101.884 Y72.799 E0.0009
G1 X102.839 Y73.31 E0.00092
G1 X103.638 Y73.965 E0.00088
G1 X103.727 Y74.077 E0.00012
G1 X104.344 Y74.818 E0.00082
G0 F4800 X107.727 Y76.953
G1 F600 X107.71 Y77.01 E0.00005
G1 X107.703 Y77.031 E0.00002
G1 X107.554 Y76.963 E0.00007
G0 F4800 X108.65 Y75.899
G1 F600 X108.822 Y75.89 E0.00015
G1 X109.033 Y75.878 E0.00018
G1 X108.865 Y76.646 E0.00044
G1 X108.815 Y76.811 E0.00013
G1 X108.604 Y77.506 E0.00062
G1 X108.584 Y77.572 E0.00006
G1 X108.293 Y78.287 E0.00066
G1 X108.243 Y78.382 E0.00009
G0 F4800 X108.216 Y78.37
G1 F600 X108.154 Y78.342 E0.00006
G1 X107.084 Y77.847 E0.001
G1 X105.169 Y81.443 E0.00346
G1 X104.379 Y82.407 E0.00106
G1 X103.389 Y83.218 E0.00109
G1 X102.277 Y83.812 E0.00107
G1 X101.063 Y84.181 E0.00108
G1 X100.962 Y84.19 E0.00009
G1 X99.901 Y84.294 E0.0009
G1 X99.803 Y84.304 E0.00008
G1 X98.543 Y84.181 E0.00107
G1 X97.335 Y83.814 E0.00107
G1 X96.214 Y83.215 E0.00108
G1 X95.231 Y82.408 E0.00108
G1 X94.428 Y81.432 E0.00107
G1 X94.221 Y81.043 E0.00037
G1 X93.317 Y79.317 E0.00165
G1 X92.31 Y79.174 E0.00086
G1 X92.266 Y79.101 E0.00007
G1 X91.943 Y78.62 E0.00049
G1 X91.584 Y77.846 E0.00072
G1 X91.544 Y77.734 E0.0001
G1 X95.204 Y73.326 E0.00486
G1 X95.264 Y73.249 E0.00008
G1 X95.35 Y73.179 E0.00009
G1 X96.129 Y72.541 E0.00085
G1 X96.206 Y72.477 E0.00008
G1 X97.336 Y71.873 E0.00109
G1 X98.543 Y71.506 E0.00107
G1 X98.644 Y71.497 E0.00009
G1 X99.804 Y71.382 E0.00099
G1 X101.065 Y71.505 E0.00108
G1 X102.271 Y71.871 E0.00107
G1 X103.395 Y72.473 E0.00108
G1 X104.356 Y73.261 E0.00105
G1 X104.503 Y73.447 E0.0002
G1 X105.18 Y74.259 E0.0009
G1 X106.13 Y76.042 E0.00171
G1 X107.67 Y75.956 E0.00131
G1 X108.65 Y75.899 E0.00083
G0 F4800 X110.361 Y73.669
G1 F600 X110.272 Y74.282 E0.00053
G1 X110.195 Y74.866 E0.0005
G1 X110.185 Y74.942 E0.00007
G1 X110.118 Y75.428 E0.00042
G1 X110.087 Y75.646 E0.00019
G1 X110.046 Y75.924 E0.00024
G1 X109.833 Y76.902 E0.00085
G1 X109.529 Y77.902 E0.00089
G1 X109.2 Y78.71 E0.00074
G1 X108.859 Y79.356 E0.00062
G1 X108.64 Y79.667 E0.00032
G1 X107.523 Y79.151 E0.00104
G1 X106.007 Y81.998 E0.00274
G1 X105.089 Y83.117 E0.00123
G1 X105.013 Y83.179 E0.00008
G1 X104.023 Y83.99 E0.00109
G1 X103.946 Y84.054 E0.00008
G1 X102.66 Y84.741 E0.00124
G1 X101.261 Y85.166 E0.00124
G1 X101.161 Y85.175 E0.00009
G1 X99.804 Y85.309 E0.00116
G1 X98.344 Y85.166 E0.00125
G1 X96.952 Y84.743 E0.00123
G1 X95.657 Y84.051 E0.00125
G1 X94.518 Y83.117 E0.00125
G1 X93.594 Y81.992 E0.00124
G1 X93.339 Y81.514 E0.00046
G1 X92.669 Y80.235 E0.00123
G1 X91.698 Y80.097 E0.00083
G1 X91.422 Y79.638 E0.00045
G1 X91.079 Y79.128 E0.00052
