;FLAVOR:RepRap
;TIME:5129
;Filament used: 0.102796m
;Layer height: 1
;MINX:74.858
;MINY:55.984
;MINZ:1
;MAXX:125.141
;MAXY:99.039
;MAXZ:69
;Generated with Cura_SteamEngine 4.11.0
T0
M109 S0
M82 ;absolute extrusion mode
;Pressure advances
M400 ; Finish all current moves and for pressure advances.
M572 D0 S0.00                      ;Pressure advance enabled
;Wipe
G1 Z1 F900			;Wipe height
M83			;Extruder to relative mode
M400
G1 Y140 E0.2 F900		;Draw first thin line
G1 X1 F900
G1 Y5 E0.2 F900		;Draw second thin line
G1 X2 F900
G1 Y50 F900			;Coast in case of leakage
;M82			;Extruder to absolute mode (default)
M400			; wait for moves to finish
G92 E0			; zero extruder
;MHI3D CODE END
M83 ;relative extrusion mode
G1 F480 E-0.3
;LAYER_COUNT:68
;LAYER:0
M107
G1 F600 Z3
G0 F1200 X79.45 Y63.625 Z3
;TYPE:SKIRT
G1 F600 Z1
G1 F480 E0.3
G1 F1200 X80.212 Y62.762 E0.00163
G1 X80.758 Y62.206 E0.0011
G1 X81.046 Y61.955 E0.00054
G1 X81.746 Y61.379 E0.00128
G1 X82.355 Y60.931 E0.00107
G1 X82.784 Y60.662 E0.00072
G1 X83.112 Y60.469 E0.00054
G1 X83.734 Y60.114 E0.00101
G1 X84.29 Y59.845 E0.00087
G1 X84.936 Y59.599 E0.00098
G1 X85.701 Y59.337 E0.00114
G1 X86.24 Y59.186 E0.00079
G1 X87.093 Y59.01 E0.00123
G1 X87.942 Y58.909 E0.00121
G1 X88.621 Y58.868 E0.00096
G1 X89.005 Y58.864 E0.00054
G1 X89.584 Y58.897 E0.00082
G1 X91.042 Y59.022 E0.00207
G1 X91.794 Y59.097 E0.00107
G1 X94.504 Y59.291 E0.00384
G1 X97.187 Y59.408 E0.0038
G1 X99.9 Y59.448 E0.00384
G1 X102.616 Y59.412 E0.00384
G1 X105.294 Y59.301 E0.00379
G1 X107.991 Y59.112 E0.00382
G1 X108.336 Y59.079 E0.00049
G1 X110.566 Y58.888 E0.00317
G1 X111.259 Y58.865 E0.00098
G1 X111.807 Y58.888 E0.00078
G1 X112.322 Y58.931 E0.00073
G1 X112.748 Y58.99 E0.00061
G1 X113.463 Y59.124 E0.00103
G1 X114.206 Y59.305 E0.00108
G1 X114.372 Y59.359 E0.00025
G1 X114.892 Y59.538 E0.00078
G1 X115.621 Y59.81 E0.0011
G1 X116.206 Y60.079 E0.00091
G1 X116.662 Y60.335 E0.00074
G1 X117.024 Y60.549 E0.00059
G1 X117.592 Y60.898 E0.00094
G1 X118.02 Y61.194 E0.00074
G1 X118.196 Y61.332 E0.00032
G1 X119.015 Y62.006 E0.0015
G1 X119.499 Y62.45 E0.00093
G1 X119.877 Y62.858 E0.00079
G1 X120.437 Y63.48 E0.00118
G1 X120.775 Y63.907 E0.00077
G1 X121.104 Y64.392 E0.00083
G1 X121.525 Y65.081 E0.00114
G1 X121.894 Y65.745 E0.00107
G1 X121.971 Y65.895 E0.00024
G1 X122.539 Y67.061 E0.00183
G1 X122.693 Y67.416 E0.00055
G1 X122.948 Y68.08 E0.00101
G1 X123.09 Y68.467 E0.00058
G1 X123.358 Y69.224 E0.00114
G1 X123.554 Y69.874 E0.00096
G1 X123.825 Y70.965 E0.00159
G1 X123.97 Y71.573 E0.00088
G1 X124.087 Y72.116 E0.00079
G1 X124.195 Y72.749 E0.00091
G1 X124.219 Y72.905 E0.00022
G1 X124.317 Y73.64 E0.00105
G1 X124.418 Y74.343 E0.001
G1 X124.513 Y75.121 E0.00111
G1 X124.691 Y76.864 E0.00248
G1 X124.729 Y77.463 E0.00085
G1 X124.736 Y77.732 E0.00038
G1 X124.734 Y78.543 E0.00115
G1 X124.72 Y79.057 E0.00073
G1 X124.685 Y79.705 E0.00092
G1 X124.606 Y80.613 E0.00129
G1 X124.524 Y81.219 E0.00087
G1 X124.412 Y81.839 E0.00089
G1 X124.26 Y82.588 E0.00108
G1 X124.146 Y83.051 E0.00067
G1 X123.946 Y83.76 E0.00104
G1 X123.441 Y85.478 E0.00253
G1 X123.218 Y86.214 E0.00109
G1 X122.965 Y86.951 E0.0011
G1 X122.747 Y87.551 E0.0009
G1 X122.48 Y88.257 E0.00107
G1 X122.352 Y88.561 E0.00047
G1 X121.984 Y89.353 E0.00124
G1 X121.613 Y90.06 E0.00113
G1 X121.299 Y90.567 E0.00084
G1 X121.134 Y90.821 E0.00043
G1 X120.749 Y91.39 E0.00097
G1 X120.326 Y91.923 E0.00096
G1 X120.087 Y92.178 E0.00049
G1 X119.228 Y93.045 E0.00173
G1 X119.079 Y93.191 E0.0003
G1 X118.564 Y93.626 E0.00095
G1 X117.637 Y94.294 E0.00162
G1 X117.292 Y94.534 E0.00059
G1 X116.76 Y94.852 E0.00088
G1 X116.251 Y95.1 E0.0008
G1 X115.682 Y95.354 E0.00088
G1 X114.931 Y95.613 E0.00112
G1 X114.408 Y95.734 E0.00076
G1 X113.665 Y95.87 E0.00107
G1 X113.022 Y95.97 E0.00092
G1 X112.457 Y96.043 E0.00081
G1 X111.829 Y96.098 E0.00089
G1 X111.459 Y96.11 E0.00052
G1 X110.547 Y96.118 E0.00129
G1 X109.844 Y96.097 E0.00099
G1 X109.184 Y96.044 E0.00094
G1 X107.521 Y95.889 E0.00236
G1 X104.87 Y95.716 E0.00376
G1 X102.162 Y95.618 E0.00383
G1 X99.445 Y95.595 E0.00384
G1 X96.77 Y95.648 E0.00379
G1 X94.052 Y95.78 E0.00385
G1 X91.347 Y95.987 E0.00384
G1 X90.683 Y96.054 E0.00094
G1 X90 Y96.103 E0.00097
G1 X89.4 Y96.115 E0.00085
G1 X88.44 Y96.106 E0.00136
G1 X87.55 Y96.043 E0.00126
G1 X87.112 Y95.988 E0.00062
G1 X86.297 Y95.862 E0.00117
G1 X86.153 Y95.837 E0.00021
G1 X85.414 Y95.698 E0.00106
G1 X84.834 Y95.549 E0.00085
G1 X84.438 Y95.397 E0.0006
G1 X83.761 Y95.1 E0.00105
G1 X83.327 Y94.894 E0.00068
G1 X82.769 Y94.576 E0.00091
G1 X82.446 Y94.358 E0.00055
G1 X81.531 Y93.708 E0.00159
G1 X80.95 Y93.216 E0.00108
G1 X80.382 Y92.651 E0.00113
G1 X79.816 Y92.077 E0.00114
G1 X79.304 Y91.453 E0.00114
G1 X78.739 Y90.624 E0.00142
G1 X78.396 Y90.075 E0.00092
G1 X78.118 Y89.56 E0.00083
G1 X78.053 Y89.426 E0.00021
G1 X77.625 Y88.504 E0.00144
G1 X77.417 Y87.997 E0.00078
G1 X77.319 Y87.732 E0.0004
G1 X77.067 Y87.029 E0.00106
G1 X76.841 Y86.386 E0.00096
G1 X76.657 Y85.813 E0.00085
G1 X75.869 Y83.11 E0.00398
G1 X75.706 Y82.436 E0.00098
G1 X75.586 Y81.827 E0.00088
G1 X75.453 Y81.066 E0.00109
G1 X75.38 Y80.534 E0.00076
G1 X75.324 Y79.943 E0.00084
G1 X75.301 Y79.589 E0.0005
G1 X75.277 Y78.954 E0.0009
G1 X75.261 Y78.366 E0.00083
G1 X75.264 Y77.672 E0.00098
G1 X75.295 Y77.088 E0.00083
G1 X75.306 Y76.935 E0.00022
G1 X75.375 Y76.145 E0.00112
G1 X75.388 Y76.017 E0.00018
G1 X75.505 Y75.011 E0.00143
G1 X75.574 Y74.404 E0.00086
G1 X75.688 Y73.602 E0.00115
G1 X75.758 Y73.077 E0.00075
G1 X75.873 Y72.311 E0.0011
G1 X75.972 Y71.813 E0.00072
G1 X75.995 Y71.71 E0.00015
G1 X76.219 Y70.789 E0.00134
G1 X76.444 Y69.884 E0.00132
G1 X76.668 Y69.152 E0.00108
G1 X76.708 Y69.033 E0.00018
G1 X76.896 Y68.505 E0.00079
G1 X77.091 Y67.977 E0.0008
G1 X77.311 Y67.407 E0.00086
G1 X77.463 Y67.057 E0.00054
G1 X77.88 Y66.202 E0.00135
G1 X78.141 Y65.683 E0.00082
G1 X78.359 Y65.284 E0.00064
G1 X78.777 Y64.584 E0.00115
G1 X79.089 Y64.092 E0.00082
G1 X79.125 Y64.04 E0.00009
G1 X79.45 Y63.625 E0.00075
G0 X80.2 Y64.286
G1 X80.947 Y63.441 E0.0016
G1 X81.419 Y62.956 E0.00096
G1 X81.681 Y62.727 E0.00049
G1 X82.381 Y62.151 E0.00128
G1 X82.89 Y61.776 E0.00089
G1 X83.565 Y61.362 E0.00112
G1 X84.23 Y60.982 E0.00108
G1 X84.864 Y60.692 E0.00099
G1 X85.354 Y60.512 E0.00074
G1 X86.024 Y60.283 E0.001
G1 X86.561 Y60.137 E0.00079
G1 X87.278 Y59.993 E0.00103
G1 X88.04 Y59.904 E0.00109
G1 X88.674 Y59.867 E0.0009
G1 X89.409 Y59.886 E0.00104
G1 X90.942 Y60.017 E0.00218
G1 X91.726 Y60.095 E0.00111
G1 X94.427 Y60.289 E0.00383
G1 X97.163 Y60.408 E0.00387
G1 X99.898 Y60.448 E0.00387
G1 X102.635 Y60.412 E0.00387
G1 X105.334 Y60.3 E0.00382
G1 X108.093 Y60.107 E0.00391
G1 X108.422 Y60.075 E0.00047
G1 X110.523 Y59.894 E0.00298
G1 X111.232 Y59.864 E0.001
G1 X111.753 Y59.886 E0.00074
G1 X112.564 Y59.973 E0.00115
G1 X113.279 Y60.107 E0.00103
G1 X113.903 Y60.258 E0.00091
G1 X114.046 Y60.305 E0.00021
G1 X114.657 Y60.516 E0.00091
G1 X115.27 Y60.746 E0.00093
G1 X115.725 Y60.955 E0.00071
G1 X116.165 Y61.202 E0.00071
G1 X116.5 Y61.401 E0.00055
G1 X117.068 Y61.75 E0.00094
G1 X117.561 Y62.104 E0.00086
G1 X118.446 Y62.834 E0.00162
G1 X118.968 Y63.341 E0.00103
G1 X119.692 Y64.148 E0.00153
G1 X120.138 Y64.742 E0.00105
G1 X120.252 Y64.915 E0.00029
G1 X120.657 Y65.578 E0.0011
G1 X121.012 Y66.216 E0.00103
G1 X121.072 Y66.333 E0.00019
G1 X121.64 Y67.499 E0.00183
G1 X121.76 Y67.775 E0.00043
G1 X122.009 Y68.425 E0.00098
G1 X122.147 Y68.801 E0.00057
G1 X122.415 Y69.558 E0.00114
G1 X122.584 Y70.115 E0.00082
G1 X122.853 Y71.198 E0.00158
G1 X122.995 Y71.794 E0.00087
G1 X123.101 Y72.284 E0.00071
G1 X123.209 Y72.917 E0.00091
G1 X123.228 Y73.039 E0.00017
G1 X123.323 Y73.744 E0.00101
G1 X123.417 Y74.399 E0.00094
G1 X123.519 Y75.223 E0.00117
G1 X123.651 Y76.513 E0.00183
G1 X123.706 Y77.102 E0.00084
G1 X123.736 Y77.73 E0.00089
G1 X123.734 Y78.541 E0.00115
G1 X123.718 Y79.091 E0.00078
G1 X123.689 Y79.618 E0.00075
G1 X123.61 Y80.526 E0.00129
G1 X123.539 Y81.046 E0.00074
G1 X123.43 Y81.651 E0.00087
G1 X123.28 Y82.389 E0.00107
G1 X123.184 Y82.779 E0.00057
G1 X122.986 Y83.478 E0.00103
G1 X122.464 Y85.255 E0.00262
G1 X122.265 Y85.912 E0.00097
G1 X122.041 Y86.564 E0.00098
G1 X121.812 Y87.197 E0.00095
G1 X121.545 Y87.903 E0.00107
G1 X121.445 Y88.14 E0.00036
G1 X121.077 Y88.932 E0.00124
G1 X120.761 Y89.536 E0.00096
G1 X120.46 Y90.023 E0.00081
G1 X120.306 Y90.26 E0.0004
G1 X119.921 Y90.829 E0.00097
G1 X119.592 Y91.244 E0.00075
G1 X119.376 Y91.475 E0.00045
G1 X118.529 Y92.331 E0.0017
G1 X118.38 Y92.477 E0.0003
G1 X117.979 Y92.815 E0.00074
G1 X117.066 Y93.473 E0.00159
G1 X116.307 Y93.961 E0.00128
G1 X115.844 Y94.187 E0.00073
G1 X115.275 Y94.441 E0.00088
G1 X114.691 Y94.642 E0.00087
G1 X114.226 Y94.751 E0.00068
G1 X113.609 Y94.865 E0.00089
G1 X112.868 Y94.981 E0.00106
G1 X112.332 Y95.05 E0.00076
G1 X111.792 Y95.099 E0.00077
G1 X111.451 Y95.11 E0.00048
G1 X110.539 Y95.118 E0.00129
G1 X109.923 Y95.1 E0.00087
G1 X109.276 Y95.048 E0.00092
G1 X107.64 Y94.896 E0.00232
G1 X104.901 Y94.717 E0.00388
G1 X102.171 Y94.618 E0.00386
G1 X99.433 Y94.595 E0.00387
G1 X96.735 Y94.649 E0.00382
G1 X93.998 Y94.781 E0.00388
G1 X91.252 Y94.992 E0.0039
G1 X90.602 Y95.057 E0.00092
G1 X89.975 Y95.103 E0.00089
G1 X89.409 Y95.115 E0.0008
G1 X88.359 Y95.104 E0.00149
G1 X87.643 Y95.048 E0.00102
G1 X87.265 Y95 E0.00054
G1 X86.45 Y94.874 E0.00117
G1 X86.338 Y94.855 E0.00016
G1 X85.599 Y94.716 E0.00106
G1 X85.088 Y94.579 E0.00075
G1 X84.84 Y94.481 E0.00038
G1 X84.055 Y94.135 E0.00121
G1 X83.325 Y93.745 E0.00117
G1 X83.025 Y93.542 E0.00051
G1 X82.11 Y92.892 E0.00159
G1 X81.658 Y92.51 E0.00084
G1 X81.084 Y91.938 E0.00115
G1 X80.528 Y91.375 E0.00112
G1 X80.13 Y90.89 E0.00089
G1 X79.565 Y90.061 E0.00142
G1 X79.248 Y89.552 E0.00085
G1 X79.011 Y89.109 E0.00071
G1 X78.96 Y89.005 E0.00016
G1 X78.532 Y88.083 E0.00144
G1 X78.273 Y87.429 E0.001
G1 X78.01 Y86.698 E0.0011
G1 X77.749 Y85.951 E0.00112
G1 X77.576 Y85.397 E0.00082
G1 X77.5 Y85.125 E0.0004
G1 X76.801 Y82.728 E0.00353
G1 X76.682 Y82.216 E0.00074
G1 X76.568 Y81.638 E0.00083
G1 X76.424 Y80.801 E0.0012
G1 X76.329 Y79.96 E0.0012
G1 X76.301 Y79.55 E0.00058
G1 X76.276 Y78.926 E0.00088
G1 X76.261 Y78.359 E0.0008
G1 X76.263 Y77.725 E0.0009
G1 X76.302 Y77.022 E0.001
G1 X76.381 Y76.133 E0.00126
G1 X76.498 Y75.127 E0.00143
G1 X76.564 Y74.545 E0.00083
G1 X76.679 Y73.738 E0.00115
G1 X76.747 Y73.225 E0.00073
G1 X76.862 Y72.459 E0.0011
G1 X76.967 Y71.946 E0.00074
G1 X77.191 Y71.025 E0.00134
G1 X77.412 Y70.134 E0.0013
G1 X77.619 Y69.461 E0.001
G1 X77.835 Y68.849 E0.00092
G1 X78.024 Y68.337 E0.00077
G1 X78.244 Y67.767 E0.00086
G1 X78.362 Y67.495 E0.00042
G1 X78.773 Y66.652 E0.00133
G1 X79.09 Y66.025 E0.00099
G1 X79.218 Y65.796 E0.00037
G1 X79.628 Y65.11 E0.00113
G1 X79.911 Y64.661 E0.00075
G1 X80.2 Y64.286 E0.00067
G1 F480 E-0.3
G1 F600 Z3
;MESH:teddy_with_pie_eyes.stl
G0 F1200 X82.489 Y75.468 Z3
;TYPE:WALL-INNER
G1 F600 Z1
G1 F480 E0.3
G1 F600 X82.584 Y74.908 E0.0008
G1 X82.665 Y74.396 E0.00073
G1 X82.748 Y74.046 E0.00051
G1 X82.779 Y73.444 E0.00085
G1 X82.93 Y72.906 E0.00079
G1 X83.12 Y72.08 E0.0012
G1 X83.287 Y71.405 E0.00098
G1 X83.809 Y69.987 E0.00214
G1 X84.221 Y69.174 E0.00129
G1 X84.856 Y68.055 E0.00182
G1 X85.355 Y67.511 E0.00104
G1 X85.787 Y67.098 E0.00085
G1 X86.434 Y66.635 E0.00113
G1 X87.023 Y66.288 E0.00097
G1 X87.829 Y65.999 E0.00121
G1 X88.334 Y65.893 E0.00073
G1 X88.861 Y65.857 E0.00075
G1 X89.461 Y65.91 E0.00085
G1 X89.884 Y66 E0.00061
G1 X90.655 Y66.267 E0.00115
G1 X91.069 Y66.532 E0.0007
G1 X91.482 Y66.797 E0.00069
G1 X91.668 Y67.056 E0.00045
G1 X91.943 Y67.342 E0.00056
G1 X92.197 Y67.748 E0.00068
G1 X92.329 Y68.074 E0.0005
G1 X92.674 Y68.669 E0.00097
G1 X92.836 Y69.114 E0.00067
G1 X93.207 Y69.743 E0.00103
G1 X93.443 Y70.279 E0.00083
G1 X93.857 Y71.054 E0.00124
G1 X94.324 Y72.247 E0.00181
G1 X94.662 Y73.426 E0.00174
G1 X94.696 Y73.584 E0.00023
G1 X94.918 Y74.843 E0.00181
G1 X94.968 Y75.198 E0.00051
G1 X94.999 Y76.182 E0.00139
G1 X95.048 Y77.379 E0.00169
G1 X95.042 Y78.054 E0.00095
G1 X95.048 Y79.037 E0.00139
G1 X94.893 Y80.873 E0.00261
G1 X94.827 Y81.553 E0.00097
G1 X94.631 Y82.988 E0.00205
G1 X94.503 Y83.594 E0.00088
G1 X94.205 Y84.91 E0.00191
G1 X94.068 Y85.371 E0.00068
G1 X93.46 Y86.683 E0.00205
G1 X93.431 Y86.731 E0.00008
G1 X92.714 Y87.69 E0.00169
G1 X92.247 Y88.086 E0.00087
G1 X91.715 Y88.454 E0.00092
G1 X91.592 Y88.526 E0.0002
G1 X90.715 Y88.933 E0.00137
G1 X89.844 Y89.085 E0.00125
G1 X89.314 Y89.123 E0.00075
G1 X88.728 Y89.119 E0.00083
G1 X88.07 Y89.066 E0.00093
G1 X86.961 Y88.875 E0.00159
G1 X86.532 Y88.676 E0.00067
G1 X86.142 Y88.402 E0.00067
G1 X85.753 Y88.128 E0.00067
G1 X85.592 Y87.957 E0.00033
G1 X84.931 Y87.306 E0.00131
G1 X84.454 Y86.576 E0.00123
G1 X84.345 Y86.377 E0.00032
G1 X84.125 Y85.927 E0.00071
G1 X84.033 Y85.72 E0.00032
G1 X83.569 Y84.428 E0.00194
G1 X83.419 Y84.018 E0.00062
G1 X83.146 Y83.108 E0.00134
G1 X82.884 Y82.087 E0.00149
G1 X82.579 Y81.137 E0.00141
G1 X82.353 Y79.933 E0.00173
G1 X82.297 Y79.44 E0.0007
G1 X82.259 Y78.346 E0.00155
G1 X82.249 Y77.887 E0.00065
G1 X82.287 Y77.365 E0.00074
G1 X82.371 Y76.782 E0.00083
G1 X82.43 Y75.952 E0.00118
G1 X82.489 Y75.468 E0.00069
G0 F1200 X81.498 Y75.333
G1 F600 X81.597 Y74.747 E0.00084
G1 X81.682 Y74.208 E0.00077
G1 X81.754 Y73.904 E0.00044
G1 X81.786 Y73.282 E0.00088
G1 X81.961 Y72.659 E0.00092
G1 X82.143 Y71.865 E0.00115
G1 X82.247 Y71.372 E0.00071
G1 X82.34 Y71.083 E0.00043
G1 X82.893 Y69.581 E0.00226
G1 X83.335 Y68.71 E0.00138
G1 X83.68 Y68.101 E0.00099
G1 X84.042 Y67.462 E0.00104
G1 X84.611 Y66.843 E0.00119
G1 X84.803 Y66.624 E0.00041
G1 X85.154 Y66.324 E0.00065
G1 X85.605 Y65.967 E0.00081
G1 X85.926 Y65.774 E0.00053
G1 X86.599 Y65.377 E0.00111
G1 X87.559 Y65.034 E0.00144
G1 X88.196 Y64.9 E0.00092
G1 X88.859 Y64.855 E0.00094
G1 X89.472 Y64.9 E0.00087
G1 X89.641 Y64.927 E0.00024
G1 X90.158 Y65.036 E0.00075
G1 X91.098 Y65.362 E0.00141
G1 X91.607 Y65.695 E0.00086
G1 X92.18 Y66.053 E0.00096
G1 X92.439 Y66.415 E0.00063
G1 X92.736 Y66.724 E0.00061
G1 X93.09 Y67.291 E0.00095
G1 X93.122 Y67.371 E0.00012
G1 X93.229 Y67.633 E0.0004
G1 X93.583 Y68.244 E0.001
G1 X93.744 Y68.685 E0.00066
G1 X94.099 Y69.287 E0.00099
G1 X94.343 Y69.841 E0.00086
G1 X94.771 Y70.641 E0.00128
G1 X94.824 Y70.784 E0.00022
G1 X95.27 Y71.918 E0.00172
G1 X95.622 Y73.151 E0.00181
G1 X95.633 Y73.187 E0.00005
G1 X95.638 Y73.213 E0.00004
G1 X95.679 Y73.398 E0.00027
G1 X95.903 Y74.669 E0.00183
G1 X95.907 Y74.703 E0.00005
G1 X95.965 Y75.109 E0.00058
G1 X95.966 Y75.166 E0.00008
G1 X95.998 Y76.146 E0.00139
G1 X96.046 Y77.338 E0.00169
G1 X96.048 Y77.367 E0.00004
G1 X96.042 Y78.055 E0.00097
G1 X96.048 Y79.071 E0.00144
G1 X95.888 Y80.97 E0.0027
G1 X95.818 Y81.688 E0.00102
G1 X95.618 Y83.156 E0.0021
G1 X95.478 Y83.815 E0.00095
G1 X95.173 Y85.164 E0.00196
G1 X95.005 Y85.727 E0.00083
G1 X94.347 Y87.146 E0.00221
G1 X94.262 Y87.29 E0.00024
G1 X93.462 Y88.36 E0.00189
G1 X93.298 Y88.514 E0.00032
G1 X92.847 Y88.888 E0.00083
G1 X92.251 Y89.3 E0.00103
G1 X92.059 Y89.411 E0.00031
G1 X91.125 Y89.845 E0.00146
G1 X90.995 Y89.899 E0.0002
G1 X89.96 Y90.08 E0.00149
G1 X89.353 Y90.123 E0.00086
G1 X88.704 Y90.119 E0.00092
G1 X88.449 Y90.113 E0.00036
G1 X87.935 Y90.057 E0.00073
G1 X86.659 Y89.837 E0.00183
G1 X86.027 Y89.544 E0.00099
G1 X85.569 Y89.216 E0.0008
G1 X85.1 Y88.892 E0.00081
G1 X84.878 Y88.658 E0.00046
G1 X84.155 Y87.946 E0.00144
G1 X83.597 Y87.092 E0.00144
G1 X83.579 Y87.058 E0.00005
G1 X83.455 Y86.834 E0.00036
G1 X83.219 Y86.35 E0.00076
G1 X83.105 Y86.095 E0.0004
G1 X82.629 Y84.769 E0.00199
G1 X82.471 Y84.339 E0.00065
G1 X82.181 Y83.372 E0.00143
G1 X81.923 Y82.364 E0.00147
G1 X81.628 Y81.442 E0.00137
G1 X81.607 Y81.378 E0.0001
G1 X81.363 Y80.081 E0.00187
G1 X81.3 Y79.522 E0.0008
G1 X81.299 Y79.476 E0.00007
G1 X81.259 Y78.368 E0.00157
G1 X81.248 Y77.868 E0.00071
G1 X81.293 Y77.249 E0.00088
G1 X81.376 Y76.674 E0.00082
G1 X81.437 Y75.83 E0.0012
G1 X81.498 Y75.333 E0.00071
G0 F1200 X80.505 Y75.211
;TYPE:WALL-OUTER
G1 F600 X80.61 Y74.587 E0.0009
G1 X80.7 Y74.012 E0.00082
G1 X80.76 Y73.761 E0.00037
G1 X80.791 Y73.161 E0.00085
G1 X80.804 Y73.08 E0.00012
G1 X80.992 Y72.412 E0.00098
G1 X81.166 Y71.65 E0.00111
