;FLAVOR:RepRap
;TIME:2323
;Filament used: 0.0231838m
;Layer height: 1
;MINX:63.072
;MINY:40.578
;MINZ:1
;MAXX:136.926
;MAXY:114.421
;MAXZ:73.556
;Generated with Cura_SteamEngine 4.11.0
T0
M104 S35
M109 S35
M82 ;absolute extrusion mode
;Pressure advances
M400 ; Finish all current moves and for pressure advances.
M572 D0 S0.00                      ;Pressure advance enabled
;Wipe
G1 Z1 F900			;Wipe height
M83			;Extruder to relative mode
M400
G1 Y140 E0.2 F900		;Draw first thin line
G1 X1 F900
G1 Y5 E0.2 F900		;Draw second thin line
G1 X2 F900
G1 Y50 F900			;Coast in case of leakage
;M82			;Extruder to absolute mode (default)
M400			; wait for moves to finish
G92 E0			; zero extruder
;MHI3D CODE END
M83 ;relative extrusion mode
G1 F480 E-0.05
;LAYER_COUNT:74
;LAYER:0
M107
G1 F600 Z3
;MESH:NoText_body.stl
G0 F4800 X118.686 Y84.893 Z3
;TYPE:WALL-OUTER
G1 F600 Z1
G1 F480 E0.05
G1 F600 X118.418 Y85.532 E0.00098
G1 X118.221 Y85.972 E0.00068
G1 X117.925 Y86.585 E0.00096
G1 X117.703 Y87.006 E0.00067
G1 X117.367 Y87.609 E0.00098
G1 X117.248 Y87.811 E0.00033
G1 X116.884 Y88.397 E0.00098
G1 X116.361 Y89.164 E0.00131
G1 X116.084 Y89.546 E0.00067
G1 X115.653 Y90.1 E0.00099
G1 X115.352 Y90.466 E0.00067
G1 X114.906 Y90.978 E0.00096
G1 X114.748 Y91.15 E0.00033
G1 X114.269 Y91.647 E0.00098
G1 X113.919 Y91.993 E0.0007
G1 X113.426 Y92.452 E0.00095
G1 X112.72 Y93.055 E0.00131
G1 X112.341 Y93.359 E0.00069
G1 X111.801 Y93.764 E0.00095
G1 X111.4 Y94.048 E0.0007
G1 X110.839 Y94.421 E0.00095
G1 X110.045 Y94.903 E0.00131
G1 X109.633 Y95.135 E0.00067
G1 X109.012 Y95.461 E0.00099
G1 X108.183 Y95.851 E0.0013
G1 X107.74 Y96.044 E0.00068
G1 X107.109 Y96.295 E0.00096
G1 X106.653 Y96.461 E0.00069
G1 X106.008 Y96.676 E0.00096
G1 X105.117 Y96.931 E0.00131
G1 X104.647 Y97.049 E0.00069
G1 X103.973 Y97.198 E0.00098
G1 X103.518 Y97.283 E0.00065
G1 X102.824 Y97.394 E0.00099
G1 X101.917 Y97.502 E0.00129
G1 X100.997 Y97.567 E0.0013
G1 X100.505 Y97.587 E0.0007
G1 X99.595 Y97.591 E0.00129
G1 X98.667 Y97.55 E0.00131
G1 X98.186 Y97.511 E0.00068
G1 X97.506 Y97.438 E0.00097
G1 X97.263 Y97.406 E0.00035
G1 X96.59 Y97.301 E0.00096
G1 X96.116 Y97.214 E0.00068
G1 X95.439 Y97.069 E0.00098
G1 X94.548 Y96.838 E0.0013
G1 X94.089 Y96.705 E0.00068
G1 X93.443 Y96.493 E0.00096
G1 X92.995 Y96.332 E0.00067
G1 X92.342 Y96.076 E0.00099
G1 X91.504 Y95.707 E0.0013
G1 X91.071 Y95.499 E0.00068
G1 X90.465 Y95.187 E0.00096
G1 X89.655 Y94.723 E0.00132
G1 X89.248 Y94.474 E0.00067
G1 X88.68 Y94.101 E0.00096
G1 X87.923 Y93.556 E0.00132
G1 X87.552 Y93.272 E0.00066
G1 X87.009 Y92.827 E0.00099
G1 X86.651 Y92.517 E0.00067
G1 X86.15 Y92.057 E0.00096
G1 X85.49 Y91.397 E0.00132
G1 X85.171 Y91.057 E0.00066
G1 X84.707 Y90.531 E0.00099
G1 X84.129 Y89.819 E0.0013
G1 X83.697 Y89.242 E0.00102
G1 X83.17 Y88.475 E0.00132
G1 X82.813 Y87.908 E0.00095
G1 X82.348 Y87.093 E0.00133
G1 X82.123 Y86.67 E0.00068
G1 X81.824 Y86.062 E0.00096
G1 X81.448 Y85.209 E0.00132
G1 X81.184 Y84.542 E0.00101
G1 X80.954 Y83.896 E0.00097
G1 X80.879 Y83.668 E0.00034
G1 X80.681 Y83.018 E0.00096
G1 X80.555 Y82.551 E0.00068
G1 X80.391 Y81.877 E0.00098
G1 X80.342 Y81.649 E0.00033
G1 X80.211 Y80.971 E0.00098
G1 X80.134 Y80.502 E0.00067
G1 X80.043 Y79.818 E0.00098
G1 X80.017 Y79.584 E0.00033
G1 X79.958 Y78.897 E0.00098
G1 X79.918 Y77.979 E0.0013
G1 X79.907 Y77.501 E0.00068
G1 X79.928 Y76.615 E0.00125
G1 X79.986 Y75.752 E0.00122
G1 X80.026 Y75.33 E0.0006
G1 X80.143 Y74.439 E0.00127
G1 X80.294 Y73.59 E0.00122
G1 X80.384 Y73.157 E0.00063
G1 X80.587 Y72.319 E0.00122
G1 X80.834 Y71.476 E0.00124
G1 X81.121 Y70.638 E0.00125
G1 X81.431 Y69.836 E0.00122
G1 X81.779 Y69.037 E0.00123
G1 X82.164 Y68.252 E0.00124
G1 X82.595 Y67.463 E0.00127
G1 X83.043 Y66.728 E0.00122
G1 X83.273 Y66.37 E0.0006
G1 X83.787 Y65.632 E0.00127
G1 X84.319 Y64.942 E0.00123
G1 X84.582 Y64.619 E0.00059
G1 X85.159 Y63.956 E0.00124
G1 X85.767 Y63.32 E0.00124
G1 X86.403 Y62.712 E0.00124
G1 X87.055 Y62.139 E0.00123
G1 X87.738 Y61.586 E0.00124
G1 X88.448 Y61.062 E0.00125
G1 X89.163 Y60.582 E0.00122
G1 X89.915 Y60.125 E0.00124
G1 X90.284 Y59.914 E0.0006
G1 X91.08 Y59.497 E0.00127
G1 X91.87 Y59.129 E0.00123
G1 X92.267 Y58.957 E0.00061
G1 X93.07 Y58.641 E0.00122
G1 X93.902 Y58.357 E0.00124
G1 X94.752 Y58.109 E0.00125
G1 X95.583 Y57.902 E0.00121
G1 X96.438 Y57.727 E0.00123
G1 X97.302 Y57.59 E0.00124
G1 X98.177 Y57.491 E0.00125
G1 X99.055 Y57.432 E0.00124
G1 X99.497 Y57.415 E0.00063
G1 X100.363 Y57.411 E0.00123
G1 X101.24 Y57.448 E0.00124
G1 X101.682 Y57.479 E0.00063
G1 X102.538 Y57.568 E0.00122
G1 X103.421 Y57.702 E0.00126
G1 X103.829 Y57.776 E0.00059
G1 X104.707 Y57.967 E0.00127
G1 X105.55 Y58.19 E0.00123
G1 X106.379 Y58.451 E0.00123
G1 X107.197 Y58.744 E0.00123
G1 X108.001 Y59.07 E0.00123
G1 X108.811 Y59.442 E0.00126
G1 X109.577 Y59.836 E0.00122
G1 X110.348 Y60.279 E0.00126
G1 X110.718 Y60.504 E0.00061
G1 X111.438 Y60.979 E0.00122
G1 X112.15 Y61.497 E0.00125
G1 X112.5 Y61.769 E0.00063
G1 X113.173 Y62.327 E0.00124
G1 X113.826 Y62.92 E0.00125
G1 X114.125 Y63.21 E0.00059
G1 X114.607 Y63.702 E0.00097
G1 X114.767 Y63.873 E0.00033
G1 X115.227 Y64.391 E0.00098
G1 X115.532 Y64.752 E0.00067
G1 X115.962 Y65.296 E0.00098
G1 X116.245 Y65.674 E0.00067
G1 X116.643 Y66.242 E0.00098
G1 X116.772 Y66.433 E0.00033
G1 X117.143 Y67.019 E0.00098
G1 X117.385 Y67.425 E0.00067
G1 X117.728 Y68.038 E0.00099
G1 X118.138 Y68.854 E0.00129
G1 X118.435 Y69.508 E0.00102
G1 X118.698 Y70.141 E0.00097
G1 X118.938 Y70.787 E0.00097
G1 X119.096 Y71.246 E0.00069
G1 X119.295 Y71.893 E0.00096
G1 X119.425 Y72.36 E0.00069
G1 X119.588 Y73.016 E0.00096
G1 X119.772 Y73.924 E0.00131
G1 X119.887 Y74.635 E0.00102
G1 X119.975 Y75.314 E0.00097
G1 X120.036 Y75.998 E0.00097
G1 X120.068 Y76.47 E0.00067
G1 X120.096 Y77.417 E0.00134
G1 X120.077 Y78.337 E0.0013
G1 X120.052 Y78.801 E0.00066
G1 X119.996 Y79.489 E0.00098
G1 X119.882 Y80.408 E0.00131
G1 X119.809 Y80.876 E0.00067
G1 X119.682 Y81.554 E0.00098
G1 X119.471 Y82.463 E0.00132
G1 X119.352 Y82.914 E0.00066
G1 X119.154 Y83.576 E0.00098
G1 X119.002 Y84.036 E0.00069
G1 X118.77 Y84.676 E0.00096
G1 X118.686 Y84.893 E0.00033
G0 F4800 X118.493 Y85.354
G0 X117.515 Y85.128
;TYPE:SKIN
G1 F600 X117.33 Y85.542 E0.00064
G1 X117.05 Y86.123 E0.00091
G1 X116.838 Y86.524 E0.00064
G1 X116.514 Y87.106 E0.00094
G1 X116.407 Y87.288 E0.0003
G1 X116.057 Y87.852 E0.00094
G1 X115.559 Y88.583 E0.00125
G1 X115.294 Y88.949 E0.00064
G1 X114.88 Y89.481 E0.00095
G1 X114.596 Y89.826 E0.00063
G1 X114.177 Y90.308 E0.0009
G1 X114.027 Y90.471 E0.00031
G1 X113.564 Y90.951 E0.00094
G1 X113.233 Y91.278 E0.00066
G1 X112.755 Y91.723 E0.00092
G1 X112.1 Y92.283 E0.00122
G1 X111.731 Y92.579 E0.00067
G1 X111.229 Y92.956 E0.00089
G1 X110.829 Y93.24 E0.00069
G1 X110.309 Y93.585 E0.00088
G1 X109.549 Y94.046 E0.00126
G1 X109.165 Y94.262 E0.00062
G1 X108.554 Y94.583 E0.00098
G1 X107.774 Y94.95 E0.00122
G1 X107.374 Y95.124 E0.00062
G1 X106.756 Y95.37 E0.00094
G1 X106.327 Y95.526 E0.00065
G1 X105.721 Y95.728 E0.0009
G1 X104.843 Y95.979 E0.00129
G1 X104.41 Y96.088 E0.00063
G1 X103.775 Y96.228 E0.00092
G1 X103.388 Y96.301 E0.00056
G1 X102.687 Y96.413 E0.001
G1 X101.83 Y96.515 E0.00122
G1 X100.955 Y96.577 E0.00124
G1 X100.465 Y96.597 E0.00069
G1 X99.635 Y96.601 E0.00117
G1 X98.683 Y96.559 E0.00135
G1 X98.292 Y96.527 E0.00056
G1 X97.635 Y96.456 E0.00093
G1 X97.392 Y96.424 E0.00035
G1 X96.771 Y96.327 E0.00089
G1 X96.302 Y96.241 E0.00067
G1 X95.66 Y96.104 E0.00093
G1 X94.81 Y95.883 E0.00124
G1 X94.387 Y95.76 E0.00062
G1 X93.765 Y95.556 E0.00093
G1 X93.33 Y95.4 E0.00065
G1 X92.711 Y95.157 E0.00094
G1 X91.933 Y94.814 E0.0012
G1 X91.5 Y94.606 E0.00068
G1 X90.934 Y94.314 E0.0009
G1 X90.166 Y93.874 E0.00125
G1 X89.777 Y93.636 E0.00065
G1 X89.238 Y93.283 E0.00091
G1 X88.501 Y92.752 E0.00129
G1 X88.178 Y92.504 E0.00058
G1 X87.647 Y92.069 E0.00097
G1 X87.299 Y91.768 E0.00065
G1 X86.836 Y91.343 E0.00089
G1 X86.201 Y90.708 E0.00127
G1 X85.904 Y90.391 E0.00061
G1 X85.45 Y89.876 E0.00097
G1 X84.917 Y89.219 E0.0012
G1 X84.489 Y88.648 E0.00101
G1 X83.997 Y87.931 E0.00123
G1 X83.667 Y87.406 E0.00088
G1 X83.208 Y86.602 E0.00131
G1 X83.005 Y86.219 E0.00061
G1 X82.719 Y85.637 E0.00092
G1 X82.362 Y84.827 E0.00125
G1 X82.105 Y84.178 E0.00099
G1 X81.886 Y83.564 E0.00092
G1 X81.823 Y83.369 E0.00029
G1 X81.633 Y82.745 E0.00092
G1 X81.511 Y82.293 E0.00066
G1 X81.353 Y81.643 E0.00095
G1 X81.31 Y81.441 E0.00029
G1 X81.183 Y80.783 E0.00095
G1 X81.123 Y80.42 E0.00052
G1 X81.025 Y79.687 E0.00105
G1 X81.001 Y79.474 E0.0003
G1 X80.948 Y78.854 E0.00088
G1 X80.908 Y77.936 E0.0013
G1 X80.897 Y77.5 E0.00062
G1 X80.916 Y76.682 E0.00116
G1 X80.972 Y75.845 E0.00119
G1 X81.008 Y75.459 E0.00055
G1 X81.125 Y74.568 E0.00127
G1 X81.264 Y73.792 E0.00112
G1 X81.354 Y73.359 E0.00063
G1 X81.537 Y72.598 E0.00111
G1 X81.778 Y71.776 E0.00121
G1 X82.058 Y70.959 E0.00122
G1 X82.346 Y70.213 E0.00113
G1 X82.668 Y69.473 E0.00114
G1 X83.043 Y68.708 E0.00121
G1 X83.464 Y67.938 E0.00124
G1 X83.876 Y67.263 E0.00112
G1 X84.096 Y66.92 E0.00058
G1 X84.587 Y66.216 E0.00121
G1 X85.087 Y65.567 E0.00116
G1 X85.34 Y65.256 E0.00057
G1 X85.874 Y64.641 E0.00115
G1 X86.468 Y64.021 E0.00121
G1 X87.057 Y63.456 E0.00115
G1 X87.694 Y62.896 E0.0012
G1 X88.355 Y62.361 E0.0012
G1 X89 Y61.884 E0.00113
G1 X89.69 Y61.421 E0.00118
G1 X90.418 Y60.977 E0.00121
G1 X90.743 Y60.791 E0.00053
G1 X91.527 Y60.38 E0.00125
G1 X92.264 Y60.038 E0.00115
G1 X92.661 Y59.866 E0.00061
G1 X93.408 Y59.572 E0.00114
G1 X94.21 Y59.298 E0.0012
G1 X95.011 Y59.065 E0.00118
G1 X95.791 Y58.87 E0.00114
G1 X96.614 Y58.701 E0.00119
G1 X97.431 Y58.572 E0.00117
G1 X98.266 Y58.477 E0.00119
G1 X99.093 Y58.422 E0.00117
G1 X99.535 Y58.405 E0.00063
G1 X100.325 Y58.401 E0.00112
G1 X101.198 Y58.438 E0.00124
G1 X101.613 Y58.467 E0.00059
G1 X102.415 Y58.55 E0.00114
G1 X103.244 Y58.676 E0.00119
G1 X103.622 Y58.745 E0.00054
G1 X104.485 Y58.932 E0.00125
G1 X105.279 Y59.142 E0.00116
G1 X106.053 Y59.386 E0.00115
G1 X106.848 Y59.671 E0.00119
G1 X107.605 Y59.977 E0.00116
G1 X108.363 Y60.325 E0.00118
G1 X109.108 Y60.709 E0.00119
G1 X109.845 Y61.132 E0.0012
G1 X110.188 Y61.34 E0.00057
G1 X110.881 Y61.797 E0.00117
G1 X111.542 Y62.279 E0.00116
G1 X111.892 Y62.551 E0.00063
G1 X112.524 Y63.075 E0.00116
G1 X113.148 Y63.642 E0.00119
G1 X113.418 Y63.903 E0.00053
G1 X113.892 Y64.387 E0.00096
G1 X114.027 Y64.53 E0.00028
G1 X114.471 Y65.03 E0.00095
G1 X114.766 Y65.379 E0.00065
G1 X115.17 Y65.89 E0.00092
G1 X115.453 Y66.268 E0.00067
G1 X115.823 Y66.796 E0.00091
G1 X115.944 Y66.975 E0.00031
G1 X116.293 Y67.526 E0.00092
G1 X116.521 Y67.908 E0.00063
G1 X116.853 Y68.501 E0.00096
G1 X117.253 Y69.298 E0.00126
G1 X117.521 Y69.888 E0.00092
G1 X117.77 Y70.486 E0.00092
G1 X118.002 Y71.109 E0.00094
G1 X118.155 Y71.553 E0.00066
G1 X118.341 Y72.158 E0.0009
G1 X118.468 Y72.613 E0.00067
G1 X118.618 Y73.212 E0.00087
G1 X118.794 Y74.082 E0.00126
G1 X118.907 Y74.778 E0.001
G1 X118.993 Y75.441 E0.00095
G1 X119.048 Y76.065 E0.00089
G1 X119.078 Y76.5 E0.00062
G1 X119.106 Y77.417 E0.0013
G1 X119.087 Y78.317 E0.00127
G1 X119.066 Y78.72 E0.00057
G1 X119.014 Y79.367 E0.00092
G1 X118.904 Y80.255 E0.00127
G1 X118.833 Y80.709 E0.00065
G1 X118.713 Y81.351 E0.00092
G1 X118.51 Y82.225 E0.00127
G1 X118.399 Y82.646 E0.00062
G1 X118.214 Y83.265 E0.00091
G1 X118.066 Y83.712 E0.00067
G1 X117.847 Y84.319 E0.00091
G1 X117.773 Y84.511 E0.00029
G1 X117.515 Y85.128 E0.00095
G1 F480 E-0.05
G1 F600 Z3
G0 F4800 X109.587 Y61.504 Z3
G1 F600 Z1
G1 F480 E0.05
G1 F600 X116.005 Y67.921 E0.01284
G1 X116.181 Y68.097
G0 F4800 X117.369 Y70.7
G1 F600 X106.811 Y60.142 E0.02112
G1 X106.635 Y59.966
G0 F4800 X104.711 Y59.457
G1 F600 X118.047 Y72.793 E0.02668
G0 F4800 X118.417 Y74.576
G1 F600 X102.922 Y59.082 E0.031
G0 F4800 X101.325 Y58.899
G1 F600 X118.604 Y76.178 E0.03457
G0 F4800 X118.651 Y77.638
G1 F600 X99.866 Y58.853 E0.03758
G0 F4800 X98.509 Y58.911
G1 F600 X118.592 Y78.994 E0.04018
G0 F4800 X118.447 Y80.263
G1 F600 X97.241 Y59.057 E0.04243
G0 F4800 X96.047 Y59.277
G1 F600 X118.226 Y81.457 E0.04437
G0 F4800 X117.946 Y82.59
G1 F600 X94.917 Y59.561 E0.04607
G0 F4800 X93.84 Y59.899
G1 F600 X117.604 Y83.663 E0.04754
G0 F4800 X117.212 Y84.685
G1 F600 X92.816 Y60.29 E0.04881
G0 F4800 X91.842 Y60.729
G1 F600 X116.773 Y85.661 E0.04988
G0 F4800 X116.287 Y86.588
G1 F600 X90.911 Y61.212 E0.05077
G0 F4800 X90.027 Y61.743
G1 F600 X115.76 Y87.476 E0.05148
G0 F4800 X115.192 Y88.322
G1 F600 X89.18 Y62.31 E0.05204
G0 F4800 X88.377 Y62.921
G1 F600 X114.583 Y89.127 E0.05243
G0 F4800 X113.938 Y89.896
G1 F600 X87.61 Y63.568 E0.05267
G0 F4800 X86.878 Y64.251
G1 F600 X113.253 Y90.625 E0.05277
G0 F4800 X112.528 Y91.315
G1 F600 X86.183 Y64.97 E0.05271
G0 F4800 X85.531 Y65.732
G1 F600 X111.769 Y91.97 E0.05249
G0 F4800 X110.971 Y92.586
G1 F600 X84.915 Y66.53 E0.05213
G0 F4800 X84.34 Y67.37
G1 F600 X110.131 Y93.161 E0.0516
G0 F4800 X109.251 Y93.695
G1 F600 X83.806 Y68.249 E0.05091
G0 F4800 X83.314 Y69.172
G1 F600 X108.331 Y94.189 E0.05005
G0 F4800 X107.364 Y94.637
G1 F600 X82.867 Y70.139 E0.04901
G0 F4800 X82.466 Y71.152
G1 F600 X106.35 Y95.037 E0.04779
G0 F4800 X105.283 Y95.384
G1 F600 X82.116 Y72.216 E0.04635
G0 F4800 X81.82 Y73.335
G1 F600 X104.166 Y95.68 E0.04471
G0 F4800 X102.98 Y95.909
G1 F600 X81.589 Y74.518 E0.0428
G0 F4800 X81.429 Y75.772
G1 F600 X101.727 Y96.071 E0.04061
G0 F4800 X100.39 Y96.147
G1 F600 X81.354 Y77.112 E0.03808
G0 F4800 X81.384 Y78.556
G1 F600 X98.948 Y96.119 E0.03514
G0 F4800 X97.379 Y95.965
G1 F600 X81.536 Y80.122 E0.0317
G0 F4800 X81.871 Y81.871
G1 F600 X95.631 Y95.631 E0.02753
G1 X95.807 Y95.807
G0 F4800 X93.606 Y95.02
G1 F600 X82.482 Y83.896 E0.02226
G1 X82.306 Y83.72
G0 F4800 X83.663 Y86.491
G1 F600 X91.008 Y93.837 E0.0147
G1 X91.184 Y94.013
G1 F480 E-0.05
G1 F600 Z3
;MESH:NONMESH
G0 F4800 X82.774 Y65.062 Z3
;TIME_ELAPSED:143.093734
;LAYER:1
;MESH:NoText_body.stl
G0 X82.774 Y65.062 Z4
;TYPE:WALL-OUTER
G1 F600 Z2
G1 F480 E0.05
G1 F533.5 X83.255 Y64.421 E0.00113
G1 X83.748 Y63.813 E0.00111
G1 X84.263 Y63.224 E0.00111
G1 X84.785 Y62.669 E0.00108
G1 X85.359 Y62.103 E0.00114
G1 X85.98 Y61.535 E0.00119
G1 X86.587 Y61.021 E0.00113
G1 X87.238 Y60.514 E0.00117
G1 X87.831 Y60.083 E0.00104
G1 X88.23 Y59.815 E0.00068
G1 X88.405 Y59.695 E0.0003
G1 X89.144 Y59.236 E0.00123
G1 X89.563 Y58.998 E0.00068
G1 X89.766 Y58.88 E0.00033
G1 X90.439 Y58.525 E0.00108
G1 X91.144 Y58.187 E0.00111
G1 X91.875 Y57.867 E0.00113
G1 X92.596 Y57.585 E0.0011
G1 X93.335 Y57.326 E0.00111
G1 X94.088 Y57.092 E0.00112
G1 X94.847 Y56.887 E0.00111
G1 X95.595 Y56.714 E0.00109
G1 X96.378 Y56.563 E0.00113
G1 X97.132 Y56.447 E0.00108
G1 X97.927 Y56.354 E0.00113
G1 X98.688 Y56.293 E0.00108
G1 X99.488 Y56.259 E0.00113
G1 X100.257 Y56.254 E0.00109
G1 X101.045 Y56.278 E0.00112
G1 X101.602 Y56.317 E0.00079
G1 X101.83 Y56.33 E0.00032
G1 X102.596 Y56.411 E0.00109
G1 X103.386 Y56.524 E0.00113
G1 X104.153 Y56.661 E0.0011
G1 X104.91 Y56.827 E0.0011
G1 X105.67 Y57.022 E0.00111
G1 X106.41 Y57.242 E0.00109
G1 X107.159 Y57.494 E0.00112
G1 X107.901 Y57.775 E0.00112
G1 X108.407 Y57.989 E0.00078
G1 X108.604 Y58.07 E0.0003
G1 X109.33 Y58.409 E0.00113
G1 X110.016 Y58.761 E0.00109
G1 X110.714 Y59.149 E0.00113
G1 X111.178 Y59.434 E0.00077
G1 X111.36 Y59.543 E0.0003
G1 X112.034 Y59.987 E0.00114
G1 X112.651 Y60.427 E0.00107
G1 X113.102 Y60.777 E0.00081
G1 X113.272 Y60.906 E0.0003
G1 X113.888 Y61.418 E0.00113
G1 X114.464 Y61.933 E0.00109
G1 X115.024 Y62.472 E0.0011
G1 X115.544 Y63.015 E0.00106
G1 X115.915 Y63.42 E0.00078
G1 X116.403 Y63.995 E0.00107
G1 X116.761 Y64.437 E0.0008
G1 X117.201 Y65.027 E0.00104
G1 X117.519 Y65.474 E0.00078
G1 X117.933 Y66.105 E0.00107
G1 X118.225 Y66.57 E0.00078
G1 X118.656 Y67.325 E0.00123
G1 X119.003 Y67.995 E0.00107
G1 X119.245 Y68.491 E0.00078
G1 X119.598 Y69.285 E0.00123
G1 X119.874 Y69.982 E0.00106
G1 X120.064 Y70.502 E0.00078
G1 X120.333 Y71.325 E0.00122
G1 X120.572 Y72.174 E0.00125
G1 X120.77 Y73.01 E0.00122
G1 X120.915 Y73.749 E0.00107
G1 X121.007 Y74.292 E0.00078
G1 X121.121 Y75.154 E0.00123
G1 X121.164 Y75.581 E0.00061
G1 X121.225 Y76.447 E0.00123
G1 X121.25 Y77.337 E0.00126
G1 X121.239 Y78.207 E0.00123
G1 X121.194 Y79.057 E0.0012
