;FLAVOR:RepRap
;TIME:1652
;Filament used: 0.0169643m
;Layer height: 1
;MINX:63.075
;MINY:40.578
;MINZ:1
;MAXX:136.928
;MAXY:114.423
;MAXZ:52.555
;Generated with Cura_SteamEngine 4.11.0
T0
M104 S35
M109 S35
M82 ;absolute extrusion mode
;Pressure advances
M400 ; Finish all current moves and for pressure advances.
M572 D0 S0.00                      ;Pressure advance enabled
;Wipe
G1 Z1 F900			;Wipe height
M83			;Extruder to relative mode
M400
G1 Y140 E0.2 F900		;Draw first thin line
G1 X1 F900
G1 Y5 E0.2 F900		;Draw second thin line
G1 X2 F900
G1 Y50 F900			;Coast in case of leakage
;M82			;Extruder to absolute mode (default)
M400			; wait for moves to finish
G92 E0			; zero extruder
;MHI3D CODE END
M83 ;relative extrusion mode
G1 F480 E-0.05
;LAYER_COUNT:52
;LAYER:0
M107
G1 F600 Z3
;MESH:NoText_body.stl
G0 F4800 X130.782 Y91.298 Z3
;TYPE:WALL-OUTER
G1 F600 Z1
G1 F480 E0.05
G1 F600 X131.057 Y90.664 E0.00098
G1 X131.32 Y90.027 E0.00097
G1 X131.57 Y89.383 E0.00098
G1 X131.807 Y88.735 E0.00098
G1 X132.029 Y88.084 E0.00097
G1 X132.24 Y87.425 E0.00098
G1 X132.436 Y86.762 E0.00098
G1 X132.618 Y86.099 E0.00097
G1 X132.787 Y85.431 E0.00097
G1 X132.942 Y84.758 E0.00098
G1 X133.085 Y84.08 E0.00098
G1 X133.326 Y82.723 E0.00195
G1 X133.444 Y81.84 E0.00126
G1 X133.512 Y81.358 E0.00069
G1 X133.641 Y79.983 E0.00195
G1 X133.714 Y78.605 E0.00195
G1 X133.731 Y77.225 E0.00195
G1 X133.692 Y75.846 E0.00195
G1 X133.596 Y74.469 E0.00195
G1 X133.444 Y73.097 E0.00195
G1 X133.309 Y72.22 E0.00126
G1 X133.153 Y71.295 E0.00133
G1 X133.019 Y70.619 E0.00097
G1 X132.972 Y70.381 E0.00034
G1 X132.819 Y69.706 E0.00098
G1 X132.653 Y69.037 E0.00098
G1 X132.474 Y68.373 E0.00097
G1 X132.28 Y67.709 E0.00098
G1 X132.072 Y67.051 E0.00098
G1 X131.852 Y66.397 E0.00098
G1 X131.619 Y65.749 E0.00097
G1 X131.372 Y65.104 E0.00098
G1 X131.111 Y64.465 E0.00098
G1 X130.838 Y63.833 E0.00097
G1 X130.553 Y63.203 E0.00098
G1 X130.254 Y62.584 E0.00097
G1 X129.943 Y61.967 E0.00098
G1 X129.617 Y61.357 E0.00098
G1 X129.283 Y60.756 E0.00097
G1 X128.933 Y60.161 E0.00098
G1 X128.573 Y59.574 E0.00097
G1 X128.2 Y58.991 E0.00098
G1 X127.817 Y58.419 E0.00097
G1 X127.419 Y57.853 E0.00098
G1 X127.012 Y57.298 E0.00097
G1 X126.593 Y56.748 E0.00098
G1 X126.163 Y56.209 E0.00098
G1 X125.721 Y55.678 E0.00098
G1 X125.271 Y55.158 E0.00097
G1 X124.809 Y54.645 E0.00098
G1 X124.335 Y54.142 E0.00098
G1 X123.851 Y53.649 E0.00098
G1 X122.959 Y52.789 E0.00175
G1 X122.034 Y51.96 E0.00176
G1 X121.079 Y51.167 E0.00176
G1 X120.095 Y50.408 E0.00176
G1 X119.444 Y49.945 E0.00113
G1 X119.086 Y49.687 E0.00062
G1 X118.047 Y49.004 E0.00176
G1 X116.987 Y48.359 E0.00176
G1 X115.899 Y47.753 E0.00176
G1 X114.796 Y47.189 E0.00175
G1 X113.668 Y46.665 E0.00176
G1 X112.526 Y46.184 E0.00175
G1 X111.366 Y45.742 E0.00176
G1 X110.189 Y45.346 E0.00176
G1 X108.998 Y44.993 E0.00176
G1 X107.796 Y44.683 E0.00176
G1 X106.582 Y44.418 E0.00176
G1 X105.796 Y44.278 E0.00113
G1 X105.362 Y44.198 E0.00062
G1 X104.128 Y44.025 E0.00176
G1 X102.895 Y43.896 E0.00175
G1 X101.655 Y43.813 E0.00176
G1 X100.415 Y43.774 E0.00176
G1 X99.171 Y43.782 E0.00176
G1 X97.934 Y43.835 E0.00175
G1 X96.695 Y43.932 E0.00176
G1 X95.901 Y44.027 E0.00113
G1 X95.462 Y44.077 E0.00063
G1 X94.232 Y44.269 E0.00176
G1 X93.017 Y44.503 E0.00175
G1 X91.804 Y44.783 E0.00176
G1 X90.608 Y45.107 E0.00175
G1 X89.421 Y45.474 E0.00176
G1 X88.25 Y45.885 E0.00176
G1 X87.088 Y46.34 E0.00177
G1 X85.955 Y46.834 E0.00175
G1 X84.836 Y47.372 E0.00176
G1 X83.737 Y47.951 E0.00176
G1 X82.659 Y48.572 E0.00176
G1 X81.608 Y49.229 E0.00175
G1 X80.579 Y49.925 E0.00176
G1 X79.578 Y50.658 E0.00176
G1 X78.599 Y51.43 E0.00176
G1 X77.658 Y52.233 E0.00175
G1 X76.744 Y53.073 E0.00176
G1 X75.86 Y53.946 E0.00176
G1 X75.006 Y54.854 E0.00176
G1 X74.193 Y55.785 E0.00175
G1 X73.41 Y56.751 E0.00176
G1 X72.666 Y57.742 E0.00175
G1 X71.956 Y58.763 E0.00176
G1 X71.286 Y59.806 E0.00175
G1 X70.654 Y60.874 E0.00176
G1 X70.061 Y61.967 E0.00176
G1 X69.707 Y62.684 E0.00113
G1 X69.509 Y63.079 E0.00063
G1 X68.999 Y64.211 E0.00176
G1 X68.533 Y65.363 E0.00176
G1 X68.107 Y66.528 E0.00175
G1 X67.721 Y67.715 E0.00177
G1 X67.385 Y68.904 E0.00175
G1 X67.092 Y70.112 E0.00176
G1 X66.842 Y71.327 E0.00175
G1 X66.635 Y72.554 E0.00176
G1 X66.477 Y73.783 E0.00175
G1 X66.363 Y75.018 E0.00175
G1 X66.294 Y76.257 E0.00176
G1 X66.274 Y77.118 E0.00122
G1 X66.276 Y77.926 E0.00114
G1 X66.299 Y78.883 E0.00135
G1 X66.385 Y80.259 E0.00195
G1 X66.527 Y81.632 E0.00195
G1 X66.722 Y82.993 E0.00195
G1 X66.841 Y83.676 E0.00098
G1 X66.974 Y84.353 E0.00098
G1 X67.122 Y85.027 E0.00098
G1 X67.283 Y85.7 E0.00098
G1 X67.457 Y86.366 E0.00097
G1 X67.645 Y87.029 E0.00097
G1 X67.846 Y87.689 E0.00098
G1 X68.062 Y88.345 E0.00098
G1 X68.29 Y88.995 E0.00097
G1 X68.532 Y89.641 E0.00098
G1 X68.786 Y90.281 E0.00097
G1 X69.054 Y90.917 E0.00098
G1 X69.336 Y91.549 E0.00098
G1 X69.628 Y92.17 E0.00097
G1 X69.936 Y92.791 E0.00098
G1 X70.255 Y93.403 E0.00098
G1 X70.586 Y94.006 E0.00097
G1 X70.928 Y94.603 E0.00097
G1 X71.285 Y95.196 E0.00098
G1 X71.653 Y95.78 E0.00098
G1 X72.032 Y96.356 E0.00098
G1 X72.425 Y96.925 E0.00098
G1 X72.827 Y97.484 E0.00097
G1 X73.241 Y98.035 E0.00098
G1 X73.666 Y98.577 E0.00097
G1 X74.104 Y99.113 E0.00098
G1 X74.551 Y99.638 E0.00098
G1 X75.007 Y100.152 E0.00097
G1 X75.478 Y100.661 E0.00098
G1 X75.957 Y101.156 E0.00097
G1 X76.445 Y101.643 E0.00098
G1 X76.944 Y102.12 E0.00098
G1 X77.453 Y102.586 E0.00098
G1 X77.969 Y103.043 E0.00098
G1 X78.497 Y103.487 E0.00098
G1 X79.033 Y103.922 E0.00098
G1 X79.576 Y104.344 E0.00097
G1 X80.13 Y104.757 E0.00098
G1 X80.692 Y105.158 E0.00098
G1 X81.262 Y105.547 E0.00098
G1 X81.84 Y105.925 E0.00098
G1 X82.423 Y106.289 E0.00097
G1 X83.018 Y106.643 E0.00098
G1 X83.615 Y106.984 E0.00097
G1 X84.223 Y107.313 E0.00098
G1 X84.836 Y107.631 E0.00098
G1 X85.455 Y107.933 E0.00097
G1 X86.08 Y108.225 E0.00098
G1 X86.712 Y108.504 E0.00098
G1 X87.349 Y108.769 E0.00098
G1 X87.991 Y109.02 E0.00098
G1 X88.638 Y109.26 E0.00098
G1 X89.29 Y109.485 E0.00098
G1 X89.946 Y109.698 E0.00098
G1 X90.607 Y109.897 E0.00098
G1 X91.272 Y110.082 E0.00098
G1 X91.939 Y110.254 E0.00097
G1 X92.61 Y110.412 E0.00098
G1 X93.286 Y110.556 E0.00098
G1 X93.966 Y110.686 E0.00098
G1 X95.324 Y110.905 E0.00195
G1 X96.695 Y111.07 E0.00195
G1 X98.07 Y111.176 E0.00195
G1 X99.449 Y111.227 E0.00195
G1 X100.831 Y111.221 E0.00196
G1 X101.717 Y111.18 E0.00125
G1 X102.207 Y111.159 E0.00069
G1 X103.583 Y111.041 E0.00195
G1 X104.466 Y110.927 E0.00126
G1 X104.951 Y110.867 E0.00069
G1 X106.309 Y110.637 E0.00195
G1 X106.99 Y110.5 E0.00098
G1 X107.66 Y110.35 E0.00097
G1 X108.332 Y110.187 E0.00098
G1 X108.998 Y110.009 E0.00098
G1 X109.662 Y109.819 E0.00098
G1 X110.319 Y109.615 E0.00097
G1 X110.975 Y109.397 E0.00098
G1 X111.626 Y109.165 E0.00098
G1 X112.27 Y108.921 E0.00097
G1 X112.91 Y108.664 E0.00098
G1 X113.545 Y108.393 E0.00098
G1 X114.174 Y108.11 E0.00098
G1 X114.797 Y107.814 E0.00098
G1 X115.415 Y107.504 E0.00098
G1 X116.022 Y107.185 E0.00097
G1 X116.628 Y106.849 E0.00098
G1 X117.225 Y106.503 E0.00098
G1 X117.813 Y106.146 E0.00097
G1 X118.396 Y105.774 E0.00098
G1 X118.97 Y105.393 E0.00097
G1 X119.538 Y104.999 E0.00098
G1 X120.095 Y104.594 E0.00097
G1 X120.645 Y104.177 E0.00098
G1 X121.186 Y103.749 E0.00098
G1 X121.718 Y103.311 E0.00097
G1 X122.242 Y102.861 E0.00098
G1 X122.755 Y102.4 E0.00098
G1 X123.261 Y101.931 E0.00098
G1 X123.755 Y101.451 E0.00097
G1 X124.24 Y100.959 E0.00098
G1 X124.713 Y100.459 E0.00097
G1 X125.179 Y99.948 E0.00098
G1 X125.633 Y99.428 E0.00098
G1 X126.075 Y98.9 E0.00097
G1 X126.508 Y98.362 E0.00098
G1 X126.93 Y97.815 E0.00098
G1 X127.338 Y97.262 E0.00097
G1 X127.737 Y96.697 E0.00098
G1 X128.124 Y96.126 E0.00098
G1 X128.499 Y95.547 E0.00098
G1 X128.862 Y94.962 E0.00097
G1 X129.212 Y94.367 E0.00098
G1 X129.552 Y93.766 E0.00098
G1 X129.88 Y93.157 E0.00098
G1 X130.192 Y92.545 E0.00097
G1 X130.494 Y91.923 E0.00098
G1 X130.782 Y91.298 E0.00097
G0 F4800 X130.98 Y90.84
G1 F480 E-0.05
G1 F600 Z3
G0 F4800 X75.992 Y52.268 Z3
G1 F600 Z1
G1 F480 E0.05
G1 F600 X76.921 Y51.416 E0.00178
G1 X77.252 Y51.136 E0.00061
G1 X77.913 Y50.571 E0.00123
G1 X78.919 Y49.776 E0.00181
G1 X79.937 Y49.031 E0.00178
G1 X81 Y48.311 E0.00182
G1 X82.101 Y47.623 E0.00184
G1 X83.199 Y46.991 E0.00179
G1 X84.332 Y46.394 E0.00181
G1 X85.505 Y45.831 E0.00184
G1 X86.672 Y45.322 E0.0018
G1 X87.856 Y44.857 E0.0018
G1 X89.066 Y44.433 E0.00181
G1 X90.309 Y44.047 E0.00184
G1 X90.708 Y43.941 E0.00058
G1 X91.532 Y43.716 E0.00121
G1 X92.779 Y43.428 E0.00181
G1 X94.05 Y43.183 E0.00183
G1 X95.304 Y42.989 E0.0018
G1 X96.596 Y42.838 E0.00184
G1 X97.855 Y42.737 E0.00179
G1 X99.155 Y42.682 E0.00184
G1 X100.424 Y42.674 E0.0018
G1 X101.711 Y42.713 E0.00182
G1 X103 Y42.8 E0.00183
G1 X104.254 Y42.931 E0.00178
G1 X105.544 Y43.115 E0.00184
G1 X106.789 Y43.339 E0.00179
G1 X108.06 Y43.616 E0.00184
G1 X109.301 Y43.935 E0.00181
G1 X110.512 Y44.295 E0.00179
G1 X111.734 Y44.707 E0.00182
G1 X112.944 Y45.165 E0.00183
G1 X114.123 Y45.662 E0.00181
G1 X115.27 Y46.196 E0.00179
G1 X116.41 Y46.779 E0.00181
G1 X117.548 Y47.414 E0.00184
G1 X118.644 Y48.08 E0.00181
G1 X119.698 Y48.775 E0.00179
G1 X120.757 Y49.531 E0.00184
G1 X121.758 Y50.303 E0.00179
G1 X122.758 Y51.134 E0.00184
G1 X123.708 Y51.983 E0.0018
G1 X124.627 Y52.869 E0.00181
G1 X125.125 Y53.378 E0.00101
G1 X125.621 Y53.904 E0.00102
G1 X126.091 Y54.425 E0.00099
G1 X126.557 Y54.964 E0.00101
G1 X127.019 Y55.52 E0.00102
G1 X127.457 Y56.069 E0.00099
G1 X127.896 Y56.643 E0.00102
G1 X128.309 Y57.206 E0.00099
G1 X128.727 Y57.802 E0.00103
G1 X129.116 Y58.383 E0.00099
G1 X129.507 Y58.991 E0.00102
G1 X129.879 Y59.6 E0.00101
G1 X130.234 Y60.205 E0.00099
G1 X130.58 Y60.824 E0.001
G1 X130.916 Y61.456 E0.00101
G1 X131.237 Y62.09 E0.00101
G1 X131.546 Y62.734 E0.00101
G1 X131.846 Y63.391 E0.00102
G1 X132.123 Y64.033 E0.00099
G1 X132.392 Y64.691 E0.00101
G1 X132.648 Y65.36 E0.00101
G1 X132.888 Y66.027 E0.001
G1 X133.116 Y66.702 E0.00101
G1 X133.33 Y67.385 E0.00101
G1 X133.53 Y68.07 E0.00101
G1 X133.72 Y68.767 E0.00102
G1 X133.888 Y69.448 E0.00099
G1 X134.046 Y70.142 E0.00101
G1 X134.191 Y70.85 E0.00102
G1 X134.318 Y71.538 E0.00099
G1 X134.432 Y72.239 E0.001
G1 X134.535 Y72.962 E0.00103
G1 X134.619 Y73.657 E0.00099
G1 X134.69 Y74.36 E0.001
G1 X134.789 Y75.782 E0.00202
G1 X134.831 Y77.226 E0.00204
G1 X134.813 Y78.647 E0.00201
G1 X134.738 Y80.055 E0.00199
G1 X134.678 Y80.769 E0.00101
G1 X134.604 Y81.475 E0.001
G1 X134.516 Y82.184 E0.00101
G1 X134.413 Y82.885 E0.001
G1 X134.296 Y83.588 E0.00101
G1 X134.161 Y84.303 E0.00103
G1 X134.018 Y84.988 E0.00099
G1 X133.857 Y85.683 E0.00101
G1 X133.684 Y86.37 E0.001
G1 X133.491 Y87.073 E0.00103
G1 X133.288 Y87.754 E0.00101
G1 X133.075 Y88.423 E0.00099
G1 X132.845 Y89.096 E0.00101
G1 X132.597 Y89.775 E0.00102
G1 X132.345 Y90.426 E0.00099
G1 X132.068 Y91.099 E0.00103
G1 X131.788 Y91.741 E0.00099
G1 X131.489 Y92.389 E0.00101
G1 X131.174 Y93.039 E0.00102
G1 X130.856 Y93.661 E0.00099
G1 X130.518 Y94.291 E0.00101
G1 X130.167 Y94.912 E0.00101
G1 X129.806 Y95.525 E0.00101
G1 X129.43 Y96.131 E0.00101
G1 X129.044 Y96.728 E0.00101
G1 X128.638 Y97.327 E0.00102
G1 X128.233 Y97.901 E0.00099
G1 X127.81 Y98.474 E0.00101
G1 X127.375 Y99.038 E0.00101
G1 X126.922 Y99.602 E0.00102
G1 X126.471 Y100.139 E0.00099
G1 X126.003 Y100.676 E0.00101
G1 X125.518 Y101.211 E0.00102
G1 X125.033 Y101.72 E0.00099
G1 X124.534 Y102.227 E0.00101
G1 X124.024 Y102.721 E0.001
G1 X123.502 Y103.209 E0.00101
G1 X122.97 Y103.685 E0.00101
G1 X122.43 Y104.149 E0.00101
G1 X121.873 Y104.608 E0.00102
G1 X121.322 Y105.043 E0.00099
G1 X120.746 Y105.479 E0.00102
G1 X120.179 Y105.892 E0.00099
G1 X119.585 Y106.304 E0.00102
G1 X119.003 Y106.692 E0.00099
G1 X118.389 Y107.082 E0.00103
G1 X117.782 Y107.451 E0.001
G1 X117.174 Y107.804 E0.00099
G1 X116.551 Y108.148 E0.00101
G1 X115.912 Y108.484 E0.00102
G1 X115.274 Y108.804 E0.00101
G1 X114.644 Y109.104 E0.00099
G1 X113.991 Y109.399 E0.00101
G1 X113.338 Y109.677 E0.001
G1 X112.675 Y109.944 E0.00101
G1 X111.999 Y110.2 E0.00102
G1 X111.33 Y110.438 E0.001
G1 X110.655 Y110.662 E0.00101
G1 X109.98 Y110.871 E0.001
G1 X109.297 Y111.068 E0.00101
G1 X108.609 Y111.251 E0.00101
G1 X107.907 Y111.422 E0.00102
G1 X107.224 Y111.574 E0.00099
G1 X106.511 Y111.718 E0.00103
G1 X105.821 Y111.841 E0.00099
G1 X105.112 Y111.954 E0.00102
G1 X104.414 Y112.051 E0.001
G1 X103.705 Y112.133 E0.00101
G1 X102.996 Y112.202 E0.00101
G1 X102.283 Y112.256 E0.00101
G1 X101.811 Y112.276 E0.00067
G1 X100.868 Y112.321 E0.00134
G1 X99.441 Y112.327 E0.00202
G1 X98.009 Y112.274 E0.00203
G1 X97.307 Y112.227 E0.001
G1 X96.593 Y112.164 E0.00101
G1 X95.884 Y112.087 E0.00101
G1 X95.167 Y111.994 E0.00102
G1 X94.472 Y111.889 E0.00099
G1 X93.761 Y111.768 E0.00102
G1 X93.072 Y111.635 E0.00099
G1 X92.376 Y111.486 E0.00101
G1 X91.672 Y111.321 E0.00102
G1 X90.98 Y111.142 E0.00101
G1 X90.295 Y110.951 E0.00101
G1 X89.623 Y110.749 E0.00099
G1 X88.936 Y110.526 E0.00102
G1 X88.262 Y110.293 E0.00101
G1 X87.595 Y110.046 E0.00101
G1 X86.931 Y109.786 E0.00101
G1 X86.275 Y109.512 E0.00101
G1 X85.62 Y109.224 E0.00101
G1 X84.989 Y108.929 E0.00099
G1 X84.334 Y108.609 E0.00103
G1 X83.713 Y108.287 E0.00099
G1 X83.077 Y107.942 E0.00102
G1 X82.458 Y107.59 E0.00101
G1 X81.856 Y107.231 E0.00099
G1 X81.243 Y106.848 E0.00102
G1 X80.646 Y106.458 E0.00101
G1 X80.058 Y106.056 E0.00101
G1 X79.487 Y105.649 E0.00099
G1 X78.908 Y105.217 E0.00102
G1 X78.344 Y104.78 E0.00101
G1 X77.8 Y104.338 E0.00099
G1 X77.248 Y103.871 E0.00102
G1 X76.713 Y103.401 E0.00101
G1 X76.196 Y102.925 E0.00099
G1 X75.673 Y102.426 E0.00102
G1 X75.169 Y101.924 E0.00101
G1 X74.684 Y101.42 E0.00099
G1 X74.19 Y100.887 E0.00103
G1 X73.727 Y100.365 E0.00099
G1 X73.254 Y99.811 E0.00103
G1 X72.804 Y99.26 E0.00101
G1 X72.365 Y98.699 E0.00101
G1 X71.938 Y98.131 E0.00101
G1 X71.53 Y97.564 E0.00099
G1 X71.118 Y96.966 E0.00103
G1 X70.726 Y96.372 E0.00101
G1 X70.352 Y95.776 E0.001
G1 X69.978 Y95.157 E0.00102
G1 X69.625 Y94.541 E0.001
G1 X69.283 Y93.916 E0.00101
G1 X68.951 Y93.282 E0.00101
G1 X68.635 Y92.644 E0.00101
G1 X68.334 Y92.002 E0.001
G1 X68.044 Y91.351 E0.00101
G1 X67.771 Y90.703 E0.00099
G1 X67.503 Y90.032 E0.00102
G1 X67.259 Y89.378 E0.00099
G1 X67.018 Y88.691 E0.00103
G1 X66.796 Y88.015 E0.00101
G1 X66.588 Y87.335 E0.00101
G1 X66.398 Y86.658 E0.00099
G1 X66.213 Y85.959 E0.00102
G1 X66.051 Y85.276 E0.00099
G1 X65.897 Y84.57 E0.00102
G1 X65.761 Y83.883 E0.00099
G1 X65.637 Y83.171 E0.00102
G1 X65.527 Y82.466 E0.00101
G1 X65.435 Y81.774 E0.00099
G1 X65.354 Y81.052 E0.00103
G1 X65.288 Y80.343 E0.00101
G1 X65.201 Y78.93 E0.002
G1 X65.168 Y77.49 E0.00204
G1 X65.196 Y76.212 E0.00181
G1 X65.266 Y74.947 E0.00179
G1 X65.384 Y73.671 E0.00181
G1 X65.551 Y72.381 E0.00184
G1 X65.759 Y71.135 E0.00179
G1 X66.02 Y69.861 E0.00184
G1 X66.12 Y69.461 E0.00058
G1 X66.319 Y68.633 E0.0012
G1 X66.669 Y67.401 E0.00181
G1 X67.063 Y66.179 E0.00182
G1 X67.509 Y64.959 E0.00184
G1 X67.986 Y63.787 E0.00179
G1 X68.521 Y62.602 E0.00184
G1 X69.082 Y61.469 E0.00179
G1 X69.702 Y60.326 E0.00184
G1 X70.355 Y59.223 E0.00181
G1 X71.036 Y58.158 E0.00179
G1 X71.768 Y57.105 E0.00181
G1 X72.537 Y56.082 E0.00181
G1 X73.357 Y55.069 E0.00184
G1 X74.199 Y54.105 E0.00181
G1 X75.079 Y53.171 E0.00182
G1 X75.992 Y52.268 E0.00182
G0 F4800 X76.36 Y51.93
G1 F480 E-0.05
G1 F600 Z3
G0 F4800 X125.848 Y55.137 Z3
;TYPE:SKIN
G1 F600 Z1
G1 F480 E0.05
G1 F600 X127.246 Y56.536 E0.0028
G0 F4800 X129.45 Y60.154
G1 F600 X129.993 Y60.697 E0.00109
G0 F4800 X131.014 Y63.131
G1 F600 X131.416 Y63.534 E0.00081
G0 F4800 X132.027 Y65.559
G1 F600 X132.362 Y65.894 E0.00067
G0 F4800 X132.741 Y67.687
G1 F600 X133.035 Y67.981 E0.00059
G0 F4800 X133.259 Y69.619
G1 F600 X133.525 Y69.886 E0.00053
G0 F4800 X133.626 Y71.401
G1 F600 X133.88 Y71.654 E0.00051
G0 F4800 X133.894 Y73.083
G1 F600 X134.124 Y73.313 E0.00046
G0 F4800 X134.059 Y74.662
G1 F600 X134.274 Y74.877 E0.00043
G0 F4800 X134.15 Y76.167
G1 F600 X134.355 Y76.372 E0.00041
G0 F4800 X134.175 Y77.607
G1 F600 X134.373 Y77.805 E0.0004
G0 F4800 X134.143 Y78.988
G1 F600 X134.334 Y79.179 E0.00038
G0 F4800 X134.06 Y80.32
G1 F600 X134.248 Y80.508 E0.00038
G0 F4800 X133.93 Y81.604
