;FLAVOR:RepRap
;TIME:2790
;Filament used: 0.0351601m
;Layer height: 1
;MINX:46.891
;MINY:28.4
;MINZ:1
;MAXX:165.741
;MAXY:147.248
;MAXZ:80.56
;Generated with Cura_SteamEngine 4.11.0
T0
M104 S35
M109 S35
M82 ;absolute extrusion mode
;Pressure advances
M400 ; Finish all current moves and for pressure advances.
M572 D0 S0.00                      ;Pressure advance enabled
;Wipe
G1 Z1 F900			;Wipe height
M83			;Extruder to relative mode
M400
G1 Y140 E0.2 F900		;Draw first thin line
G1 X1 F900
G1 Y5 E0.2 F900		;Draw second thin line
G1 X2 F900
G1 Y50 F900			;Coast in case of leakage
;M82			;Extruder to absolute mode (default)
M400			; wait for moves to finish
G92 E0			; zero extruder
;MHI3D CODE END
M83 ;relative extrusion mode
G1 F480 E-0.05
;LAYER_COUNT:80
;LAYER:0
M107
G1 F600 Z3
;MESH:Flower_Vase_by_Burger_3D.stl
G0 F4800 X91.729 Y74.952 Z3
;TYPE:WALL-OUTER
G1 F600 Z1
G1 F480 E0.05
G1 F600 X92.215 Y75.113 E0.00072
G1 X92.696 Y75.325 E0.00074
G1 X93.189 Y75.588 E0.00079
G1 X93.694 Y75.892 E0.00083
G1 X94.02 Y76.108 E0.00055
G1 X94.535 Y76.46 E0.00088
G1 X94.952 Y76.071 E0.00081
G1 X95.355 Y75.69 E0.00078
G1 X95.88 Y75.237 E0.00098
G1 X96.017 Y75.128 E0.00025
G1 X96.574 Y74.674 E0.00102
G1 X96.166 Y73.854 E0.0013
G1 X95.821 Y73.045 E0.00124
G1 X95.584 Y72.316 E0.00108
G1 X95.459 Y71.692 E0.0009
G1 X95.437 Y71.173 E0.00073
G1 X95.501 Y70.735 E0.00063
G1 X95.64 Y70.384 E0.00053
G1 X95.854 Y70.089 E0.00052
G1 X96.153 Y69.833 E0.00056
G1 X96.779 Y69.505 E0.001
G1 X97.369 Y69.301 E0.00088
G1 X97.914 Y69.156 E0.0008
G1 X98.579 Y69.006 E0.00096
G1 X100.01 Y68.711 E0.00207
G1 X100.748 Y68.543 E0.00107
G1 X101.484 Y68.347 E0.00108
G1 X102.217 Y68.11 E0.00109
G1 X102.929 Y67.828 E0.00108
G1 X103.622 Y67.493 E0.00109
G1 X104.285 Y67.095 E0.00109
G1 X104.916 Y66.625 E0.00111
G1 X105.499 Y66.078 E0.00113
G1 X106.033 Y65.445 E0.00117
G1 X106.501 Y64.741 E0.0012
G1 X106.908 Y64.005 E0.00119
G1 X107.093 Y63.636 E0.00058
G1 X107.409 Y62.964 E0.00105
G1 X107.424 Y62.932 E0.00005
G1 X107.682 Y62.369 E0.00088
G1 X107.736 Y62.251 E0.00018
G1 X107.876 Y61.964 E0.00045
G1 X107.977 Y61.757 E0.00033
G1 X108.017 Y61.685 E0.00012
G0 F4800 X108.174 Y62.109
G1 F600 X108.345 Y62.628 E0.0005
G0 F4800 X108.362 Y62.68
G1 F600 X108.373 Y62.714 E0.00005
G1 X108.593 Y63.395 E0.00101
G1 X108.89 Y64.233 E0.00126
G1 X109.183 Y64.95 E0.0011
G1 X109.564 Y65.709 E0.0012
G1 X110.014 Y66.402 E0.00117
G1 X110.526 Y67.021 E0.00114
G1 X111.087 Y67.563 E0.0011
G1 X111.694 Y68.042 E0.00109
G1 X112.334 Y68.459 E0.00108
G1 X113.062 Y68.855 E0.00117
G1 X113.694 Y69.152 E0.00099
G1 X114.394 Y69.438 E0.00107
G1 X114.989 Y69.658 E0.0009
G1 X115.1 Y69.694 E0.00017
G1 X116.698 Y70.248 E0.00239
G1 X117.199 Y70.436 E0.00076
G1 X117.689 Y70.642 E0.00075
G1 X118.311 Y70.965 E0.00099
G1 X118.765 Y71.299 E0.0008
G1 X119.078 Y71.671 E0.00069
G1 X119.249 Y72.085 E0.00063
G1 X119.295 Y72.614 E0.00075
G1 X119.177 Y73.284 E0.00096
G1 X118.913 Y73.999 E0.00108
G1 X118.561 Y74.687 E0.00109
G1 X118.249 Y75.203 E0.00085
G1 X118.033 Y75.529 E0.00055
G1 X117.68 Y76.045 E0.00088
G1 X118.423 Y76.836 E0.00154
G1 X118.631 Y77.068 E0.00044
G1 X118.934 Y77.425 E0.00066
G1 X119.465 Y78.082 E0.0012
G1 X120.278 Y77.679 E0.00128
G1 X121.096 Y77.33 E0.00126
G1 X121.817 Y77.094 E0.00107
G1 X122.444 Y76.969 E0.0009
G1 X122.969 Y76.945 E0.00074
G1 X123.4 Y77.009 E0.00062
G1 X123.755 Y77.148 E0.00054
G1 X124.052 Y77.363 E0.00052
G1 X124.312 Y77.666 E0.00056
G1 X124.633 Y78.28 E0.00098
G1 X124.837 Y78.868 E0.00088
G1 X124.985 Y79.422 E0.00081
G1 X125.135 Y80.088 E0.00097
G1 X125.43 Y81.519 E0.00207
G1 X125.598 Y82.257 E0.00107
G1 X125.794 Y82.993 E0.00108
G1 X126.031 Y83.726 E0.00109
G1 X126.313 Y84.438 E0.00108
G1 X126.649 Y85.131 E0.00109
G1 X127.046 Y85.795 E0.00109
G1 X127.516 Y86.425 E0.00111
G1 X128.063 Y87.008 E0.00113
G1 X128.696 Y87.541 E0.00117
G1 X129.4 Y88.01 E0.0012
G1 X130.136 Y88.417 E0.00119
G1 X130.505 Y88.602 E0.00058
G1 X131.173 Y88.916 E0.00104
G1 X131.209 Y88.933 E0.00006
G1 X131.896 Y89.248 E0.00107
G1 X131.971 Y89.284 E0.00012
G1 X132.392 Y89.489 E0.00066
G1 X132.456 Y89.525 E0.0001
G0 F4800 X131.729 Y89.783
G1 F600 X131.508 Y89.854 E0.00017
G1 X131.47 Y89.866 E0.00006
G1 X130.745 Y90.102 E0.00108
G1 X129.976 Y90.372 E0.00115
G1 X129.192 Y90.692 E0.0012
G1 X128.432 Y91.073 E0.0012
G1 X127.739 Y91.523 E0.00117
G1 X127.12 Y92.035 E0.00114
G1 X126.578 Y92.596 E0.0011
G1 X126.099 Y93.203 E0.00109
G1 X125.682 Y93.842 E0.00108
G1 X125.286 Y94.571 E0.00117
G1 X124.99 Y95.203 E0.00099
G1 X124.703 Y95.903 E0.00107
G1 X124.485 Y96.494 E0.00089
G1 X124.054 Y97.75 E0.00188
G1 X123.863 Y98.288 E0.00081
G1 X123.699 Y98.721 E0.00066
G1 X123.496 Y99.204 E0.00074
G1 X123.177 Y99.817 E0.00098
G1 X122.842 Y100.274 E0.0008
G1 X122.466 Y100.589 E0.00069
G1 X122.056 Y100.758 E0.00063
G1 X121.527 Y100.804 E0.00075
G1 X120.893 Y100.696 E0.00091
G1 X120.409 Y100.534 E0.00072
G1 X119.934 Y100.324 E0.00073
G1 X119.443 Y100.062 E0.00079
G1 X118.936 Y99.756 E0.00084
G1 X118.705 Y99.605 E0.00039
G1 X118.097 Y99.189 E0.00104
G1 X117.571 Y99.683 E0.00102
G1 X117.096 Y100.119 E0.00091
G1 X116.716 Y100.443 E0.00071
G1 X116.059 Y100.974 E0.0012
G1 X116.458 Y101.778 E0.00127
G1 X116.809 Y102.596 E0.00126
G1 X117.05 Y103.337 E0.0011
G1 X117.172 Y103.953 E0.00089
G1 X117.196 Y104.476 E0.00074
G1 X117.134 Y104.903 E0.00061
G1 X116.993 Y105.264 E0.00055
G1 X116.778 Y105.561 E0.00052
G1 X116.481 Y105.817 E0.00055
G1 X115.85 Y106.145 E0.00101
G1 X115.263 Y106.349 E0.00088
G1 X114.719 Y106.494 E0.0008
G1 X114.054 Y106.644 E0.00096
G1 X112.623 Y106.939 E0.00207
G1 X111.884 Y107.107 E0.00107
G1 X111.148 Y107.303 E0.00108
G1 X110.417 Y107.54 E0.00109
G1 X109.702 Y107.822 E0.00109
G1 X109.01 Y108.157 E0.00109
G1 X108.346 Y108.555 E0.0011
G1 X107.716 Y109.025 E0.00111
G1 X107.132 Y109.573 E0.00113
G1 X106.6 Y110.204 E0.00117
G1 X106.131 Y110.909 E0.0012
G1 X105.723 Y111.646 E0.00119
G1 X105.34 Y112.433 E0.00124
G1 X105.129 Y112.892 E0.00071
G1 X104.896 Y113.399 E0.00079
G1 X104.858 Y113.477 E0.00012
G1 X104.655 Y113.893 E0.00065
G1 X104.616 Y113.964 E0.00011
G0 F4800 X104.356 Y113.233
G1 F600 X104.185 Y112.703 E0.00063
G1 X104.039 Y112.254 E0.00067
G1 X103.743 Y111.416 E0.00126
G1 X103.449 Y110.7 E0.0011
G1 X103.069 Y109.94 E0.0012
G1 X102.618 Y109.246 E0.00117
G1 X102.106 Y108.629 E0.00113
G1 X101.545 Y108.087 E0.0011
G1 X100.938 Y107.608 E0.00109
G1 X100.299 Y107.191 E0.00108
G1 X99.57 Y106.795 E0.00117
G1 X98.939 Y106.498 E0.00099
G1 X98.238 Y106.212 E0.00107
G1 X97.644 Y105.992 E0.0009
G1 X97.533 Y105.956 E0.00017
G1 X95.853 Y105.372 E0.00252
G1 X95.416 Y105.207 E0.00066
G1 X94.934 Y105.004 E0.00074
G1 X94.321 Y104.685 E0.00098
G1 X93.867 Y104.351 E0.0008
G1 X93.557 Y103.982 E0.00068
G1 X93.385 Y103.568 E0.00063
G1 X93.337 Y103.036 E0.00076
G1 X93.453 Y102.373 E0.00095
G1 X93.701 Y101.692 E0.00103
G1 X93.937 Y101.209 E0.00076
G1 X94.228 Y100.696 E0.00083
G1 X94.599 Y100.121 E0.00097
G1 X94.952 Y99.605 E0.00088
G1 X94.458 Y99.079 E0.00102
G1 X94.022 Y98.605 E0.00091
G1 X93.572 Y98.068 E0.00099
G1 X93.167 Y97.568 E0.00091
G1 X92.354 Y97.971 E0.00128
G1 X91.536 Y98.32 E0.00126
G1 X90.808 Y98.558 E0.00108
G1 X90.188 Y98.681 E0.00089
G1 X89.662 Y98.704 E0.00074
G1 X89.232 Y98.641 E0.00061
G1 X88.875 Y98.501 E0.00054
G1 X88.581 Y98.288 E0.00051
G1 X88.321 Y97.984 E0.00057
G1 X87.997 Y97.362 E0.00099
G1 X87.795 Y96.782 E0.00087
G1 X87.647 Y96.227 E0.00081
G1 X87.495 Y95.552 E0.00098
G1 X87.202 Y94.131 E0.00205
G1 X87.034 Y93.393 E0.00107
G1 X86.838 Y92.657 E0.00108
G1 X86.601 Y91.926 E0.00109
G1 X86.32 Y91.211 E0.00109
G1 X85.984 Y90.519 E0.00109
G1 X85.586 Y89.856 E0.00109
G1 X85.117 Y89.225 E0.00111
G1 X84.569 Y88.642 E0.00113
G1 X83.937 Y88.109 E0.00117
G1 X83.232 Y87.64 E0.0012
G1 X82.495 Y87.232 E0.00119
G1 X81.708 Y86.849 E0.00124
G1 X81.152 Y86.593 E0.00087
G1 X80.859 Y86.459 E0.00046
G1 X80.737 Y86.403 E0.00019
G1 X80.455 Y86.265 E0.00044
G1 X80.248 Y86.164 E0.00033
G1 X80.176 Y86.124 E0.00012
G0 F4800 X80.6 Y85.967
G1 F600 X81.171 Y85.779 E0.00058
G1 X81.478 Y85.68 E0.0004
G1 X81.887 Y85.548 E0.00061
G1 X82.656 Y85.278 E0.00115
G1 X83.441 Y84.958 E0.0012
G1 X84.201 Y84.576 E0.0012
G1 X84.895 Y84.127 E0.00117
G1 X85.511 Y83.616 E0.00113
G1 X86.055 Y83.054 E0.00111
G1 X86.533 Y82.447 E0.00109
G1 X86.952 Y81.806 E0.00108
G1 X87.318 Y81.138 E0.00108
G1 X87.643 Y80.447 E0.00108
G1 X87.929 Y79.747 E0.00107
G1 X88.149 Y79.153 E0.0009
G1 X88.185 Y79.042 E0.00017
G1 X88.385 Y78.469 E0.00086
G1 X88.579 Y77.903 E0.00085
G1 X88.773 Y77.351 E0.00083
G1 X88.928 Y76.941 E0.00062
G1 X89.129 Y76.461 E0.00074
G1 X89.456 Y75.83 E0.00101
G1 X89.79 Y75.376 E0.0008
G1 X90.162 Y75.063 E0.00069
G1 X90.576 Y74.892 E0.00063
G1 X91.105 Y74.846 E0.00075
G1 X91.729 Y74.952 E0.0009
G0 F4800 X92.204 Y75.109
G0 X91.488 Y75.915
;TYPE:SKIN
G1 F600 X92.267 Y76.218 E0.00118
G1 X92.7 Y76.449 E0.00069
G1 X93.165 Y76.729 E0.00077
G1 X93.461 Y76.925 E0.0005
G1 X94.63 Y77.725 E0.002
G1 X95.629 Y76.792 E0.00193
G1 X96.002 Y76.44 E0.00073
G1 X96.513 Y75.999 E0.00095
G1 X97.813 Y74.941 E0.00237
G1 X97.059 Y73.426 E0.00239
G1 X96.75 Y72.7 E0.00112
G1 X96.541 Y72.055 E0.00096
G1 X96.447 Y71.584 E0.00068
G1 X96.431 Y71.222 E0.00051
G1 X96.515 Y70.864 E0.00052
G1 X96.712 Y70.658 E0.0004
G1 X97.171 Y70.417 E0.00073
G1 X97.656 Y70.249 E0.00073
G1 X98.15 Y70.118 E0.00072
G1 X98.779 Y69.976 E0.00091
G1 X100.22 Y69.679 E0.00208
G1 X100.986 Y69.505 E0.00111
G1 X101.764 Y69.297 E0.00114
G1 X102.552 Y69.042 E0.00117
G1 X103.327 Y68.735 E0.00118
G1 X104.093 Y68.365 E0.0012
G1 X104.837 Y67.919 E0.00123
G1 X105.552 Y67.385 E0.00126
G1 X106.218 Y66.761 E0.00129
G1 X106.827 Y66.041 E0.00133
G1 X107.348 Y65.255 E0.00133
G1 X107.784 Y64.466 E0.00128
G1 X107.865 Y64.305 E0.00025
G1 X107.965 Y64.586 E0.00042
G1 X108.281 Y65.36 E0.00118
G1 X108.704 Y66.202 E0.00133
G1 X109.214 Y66.989 E0.00133
G1 X109.799 Y67.694 E0.0013
G1 X110.435 Y68.309 E0.00125
G1 X111.116 Y68.847 E0.00123
G1 X111.827 Y69.31 E0.0012
G1 X112.615 Y69.738 E0.00127
G1 X113.296 Y70.059 E0.00107
G1 X114.035 Y70.361 E0.00113
G1 X114.663 Y70.593 E0.00095
G1 X114.786 Y70.633 E0.00018
G1 X116.35 Y71.175 E0.00234
G1 X116.825 Y71.353 E0.00072
G1 X117.271 Y71.541 E0.00068
G1 X117.787 Y71.809 E0.00082
G1 X118.083 Y72.027 E0.00052
G1 X118.221 Y72.19 E0.0003
G1 X118.277 Y72.325 E0.00021
G1 X118.297 Y72.569 E0.00035
G1 X118.218 Y73.024 E0.00065
G1 X118.003 Y73.605 E0.00088
G1 X117.7 Y74.198 E0.00094
G1 X117.415 Y74.668 E0.00078
G1 X117.212 Y74.976 E0.00052
G1 X116.413 Y76.142 E0.002
G1 X117.686 Y77.497 E0.00263
G1 X118.164 Y78.047 E0.00103
G1 X119.194 Y79.321 E0.00232
G1 X120.68 Y78.585 E0.00235
G1 X121.45 Y78.256 E0.00118
G1 X122.076 Y78.051 E0.00093
G1 X122.565 Y77.953 E0.00071
G1 X122.909 Y77.937 E0.00049
G1 X123.28 Y78.026 E0.00054
G1 X123.487 Y78.225 E0.00041
G1 X123.722 Y78.673 E0.00072
G1 X123.892 Y79.164 E0.00074
G1 X124.019 Y79.64 E0.0007
G1 X124.165 Y80.288 E0.00094
G1 X124.462 Y81.729 E0.00208
G1 X124.636 Y82.495 E0.00111
G1 X124.844 Y83.273 E0.00114
G1 X125.099 Y84.061 E0.00117
G1 X125.406 Y84.836 E0.00118
G1 X125.777 Y85.602 E0.0012
G1 X126.222 Y86.347 E0.00123
G1 X126.756 Y87.062 E0.00126
G1 X127.38 Y87.728 E0.00129
G1 X128.1 Y88.335 E0.00133
G1 X128.885 Y88.857 E0.00133
G1 X129.675 Y89.293 E0.00128
G1 X129.834 Y89.373 E0.00025
G1 X129.625 Y89.446 E0.00031
G1 X128.782 Y89.789 E0.00129
G1 X127.939 Y90.212 E0.00133
G1 X127.152 Y90.724 E0.00133
G1 X126.447 Y91.308 E0.0013
G1 X125.832 Y91.944 E0.00125
G1 X125.295 Y92.625 E0.00123
G1 X124.831 Y93.335 E0.0012
G1 X124.402 Y94.124 E0.00127
G1 X124.083 Y94.805 E0.00106
G1 X123.78 Y95.544 E0.00113
G1 X123.552 Y96.162 E0.00093
G1 X123.121 Y97.419 E0.00188
G1 X122.937 Y97.937 E0.00078
G1 X122.601 Y98.776 E0.00128
G1 X122.331 Y99.296 E0.00083
G1 X122.113 Y99.595 E0.00052
G1 X121.949 Y99.731 E0.0003
G1 X121.818 Y99.785 E0.0002
G1 X121.57 Y99.807 E0.00035
G1 X121.137 Y99.733 E0.00062
G1 X120.369 Y99.435 E0.00117
G1 X119.935 Y99.203 E0.0007
G1 X119.464 Y98.918 E0.00078
G1 X119.247 Y98.776 E0.00037
G1 X118 Y97.922 E0.00214
G1 X116.897 Y98.958 E0.00214
G1 X116.441 Y99.377 E0.00088
G1 X116.084 Y99.681 E0.00066
G1 X114.819 Y100.703 E0.0023
G1 X115.571 Y102.218 E0.00239
G1 X115.879 Y102.937 E0.00111
G1 X116.091 Y103.587 E0.00097
G1 X116.188 Y104.077 E0.00071
G1 X116.204 Y104.42 E0.00049
G1 X116.117 Y104.786 E0.00053
G1 X115.925 Y104.99 E0.0004
G1 X115.451 Y105.236 E0.00076
G1 X114.98 Y105.4 E0.00071
G1 X114.481 Y105.532 E0.00073
G1 X113.854 Y105.674 E0.00091
G1 X112.413 Y105.971 E0.00208
G1 X111.647 Y106.145 E0.00111
G1 X110.867 Y106.353 E0.00114
G1 X110.082 Y106.608 E0.00117
G1 X109.304 Y106.915 E0.00118
G1 X108.539 Y107.285 E0.0012
G1 X107.794 Y107.731 E0.00123
G1 X107.079 Y108.265 E0.00126
G1 X106.413 Y108.89 E0.00129
G1 X105.807 Y109.608 E0.00133
G1 X105.284 Y110.394 E0.00134
G1 X104.844 Y111.189 E0.00129
G1 X104.768 Y111.346 E0.00025
G1 X104.668 Y111.063 E0.00042
G1 X104.35 Y110.29 E0.00118
G1 X103.93 Y109.447 E0.00133
G1 X103.416 Y108.658 E0.00133
G1 X102.833 Y107.955 E0.00129
G1 X102.197 Y107.341 E0.00125
G1 X101.516 Y106.804 E0.00123
G1 X100.806 Y106.34 E0.0012
G1 X100.017 Y105.912 E0.00127
G1 X99.337 Y105.591 E0.00106
G1 X98.597 Y105.289 E0.00113
G1 X97.97 Y105.057 E0.00095
G1 X97.848 Y105.017 E0.00018
G1 X96.191 Y104.441 E0.00248
G1 X95.354 Y104.106 E0.00128
G1 X94.845 Y103.841 E0.00081
G1 X94.551 Y103.625 E0.00052
G1 X94.412 Y103.46 E0.00031
G1 X94.357 Y103.327 E0.0002
G1 X94.335 Y103.081 E0.00035
G1 X94.415 Y102.627 E0.00065
G1 X94.614 Y102.078 E0.00083
G1 X94.813 Y101.672 E0.00064
G1 X95.075 Y101.209 E0.00075
G1 X95.424 Y100.669 E0.00091
G1 X96.219 Y99.508 E0.00199
G1 X95.179 Y98.401 E0.00215
G1 X94.762 Y97.947 E0.00087
G1 X94.336 Y97.438 E0.00094
G1 X93.438 Y96.329 E0.00202
G1 X91.947 Y97.067 E0.00235
G1 X91.183 Y97.394 E0.00118
G1 X90.557 Y97.599 E0.00093
G1 X90.076 Y97.694 E0.00069
G1 X89.709 Y97.71 E0.00052
G1 X89.354 Y97.626 E0.00052
G1 X89.145 Y97.424 E0.00041
G1 X88.909 Y96.972 E0.00072
G1 X88.744 Y96.498 E0.00071
G1 X88.609 Y95.989 E0.00074
G1 X88.461 Y95.334 E0.00095
G1 X88.17 Y93.921 E0.00204
G1 X87.996 Y93.156 E0.00111
G1 X87.788 Y92.376 E0.00114
G1 X87.533 Y91.591 E0.00117
G1 X87.227 Y90.813 E0.00118
G1 X86.855 Y90.047 E0.0012
G1 X86.41 Y89.305 E0.00122
G1 X85.877 Y88.589 E0.00126
G1 X85.251 Y87.922 E0.00129
G1 X84.533 Y87.316 E0.00133
G1 X83.747 Y86.793 E0.00134
G1 X82.952 Y86.353 E0.00129
G1 X82.797 Y86.278 E0.00024
G1 X83.007 Y86.204 E0.00031
G1 X83.851 Y85.861 E0.00129
G1 X84.694 Y85.437 E0.00133
G1 X85.482 Y84.927 E0.00133
G1 X86.184 Y84.343 E0.00129
G1 X86.801 Y83.706 E0.00125
G1 X87.337 Y83.025 E0.00123
G1 X87.801 Y82.315 E0.0012
G1 X88.201 Y81.587 E0.00118
G1 X88.55 Y80.845 E0.00116
G1 X88.852 Y80.106 E0.00113
G1 X89.084 Y79.478 E0.00095
G1 X89.12 Y79.369 E0.00016
G1 X89.515 Y78.228 E0.00171
G1 X89.699 Y77.701 E0.00079
G1 X90.026 Y76.882 E0.00125
G1 X90.298 Y76.356 E0.00084
G1 X90.518 Y76.058 E0.00052
G1 X90.681 Y75.92 E0.0003
G1 X90.816 Y75.864 E0.00021
G1 X91.063 Y75.843 E0.00035
G1 X91.488 Y75.915 E0.00061
G1 F480 E-0.05
G1 F600 Z3
G0 F4800 X117.837 Y72.582 Z3
G1 F600 Z1
G1 F480 E0.05
G1 F600 X117.338 Y72.083 E0.001
G0 F4800 X117.48 Y73.639
G1 F600 X115.036 Y71.195 E0.00489
G1 X114.86 Y71.019
G0 F4800 X112.704 Y70.277
G1 F600 X116.962 Y74.536 E0.00852
G0 F4800 X116.39 Y75.378
G1 F600 X107.241 Y66.229 E0.0183
G0 F4800 X106.601 Y67.003
G1 F600 X116.657 Y77.059 E0.02012
G1 X116.833 Y77.235
G0 F4800 X119.345 Y79.747
G1 F600 X125.348 Y85.75 E0.01201
G1 X125.524 Y85.926
G0 F4800 X124.411 Y83.399
G1 F600 X120.291 Y79.279 E0.00824
G0 F4800 X121.254 Y78.828
G1 F600 X123.962 Y81.535 E0.00542
G0 F4800 X123.578 Y79.738
G1 F600 X122.304 Y78.464 E0.00255
G1 F480 E-0.05
G1 F600 Z3
G0 F4800 X127.907 Y89.724 Z3
G1 F600 Z1
G1 F480 E0.05
G1 F600 X105.879 Y67.695 E0.04407
G0 F4800 X105.071 Y68.302
G1 F600 X127.033 Y90.263 E0.04394
G0 F4800 X126.245 Y90.89
G1 F600 X104.178 Y68.823 E0.04415
G0 F4800 X103.207 Y69.266
G1 F600 X125.539 Y91.598 E0.04468
G0 F4800 X124.913 Y92.386
G1 F600 X102.167 Y69.64 E0.04551
G0 F4800 X101.061 Y69.948
