;FLAVOR:RepRap
;TIME:3189
;Filament used: 0.0160429m
;Layer height: 0.4
;MINX:86.696
;MINY:66.136
;MINZ:0.4
;MAXX:113.306
;MAXY:88.868
;MAXZ:38.4
;Generated with Cura_SteamEngine 4.11.0
T0
M104 S35
M109 S35
M82 ;absolute extrusion mode
;Pressure advances
M400 ; Finish all current moves and for pressure advances.
M572 D0 S0.00                      ;Pressure advance enabled
;Wipe
G1 Z1 F900			;Wipe height
M83			;Extruder to relative mode
M400
G1 Y140 E0.2 F900		;Draw first thin line
G1 X1 F900
G1 Y5 E0.2 F900		;Draw second thin line
G1 X2 F900
G1 Y50 F900			;Coast in case of leakage
;M82			;Extruder to absolute mode (default)
M400			; wait for moves to finish
G92 E0			; zero extruder
;MHI3D CODE END
M83 ;relative extrusion mode
G1 F480 E-0.05
;LAYER_COUNT:91
;LAYER:0
M107
G1 F600 Z2.4
;MESH:teddy_with_pie_eyes.stl
G0 F4800 X90.93 Y82.744 Z2.4
;TYPE:WALL-OUTER
G1 F600 Z0.4
G1 F480 E0.05
G1 F498.1 X90.696 Y82.24 E0.00031
G1 X90.487 Y81.72 E0.00032
G1 X90.323 Y81.25 E0.00028
G1 X90.016 Y80.053 E0.0007
G1 X89.845 Y79.45 E0.00035
G1 X89.697 Y78.898 E0.00032
G1 X89.658 Y77.754 E0.00065
G1 X89.666 Y77.624 E0.00007
G1 X89.773 Y76.898 E0.00042
G1 X89.863 Y76.195 E0.0004
G1 X89.861 Y75.898 E0.00017
G1 X89.984 Y75.384 E0.0003
G1 X90.068 Y74.744 E0.00037
G1 X90.243 Y74.052 E0.0004
G1 X90.349 Y73.718 E0.0002
G1 X90.552 Y73.186 E0.00032
G1 X90.801 Y72.624 E0.00035
G1 X91.078 Y72.188 E0.00029
G1 X91.304 Y71.853 E0.00023
G1 X91.697 Y71.414 E0.00033
G1 X92.012 Y71.147 E0.00023
G1 X92.649 Y70.766 E0.00042
G1 X93.329 Y70.527 E0.00041
G1 X93.92 Y70.452 E0.00034
G1 X94.249 Y70.449 E0.00019
G1 X94.788 Y70.537 E0.00031
G1 X95.336 Y70.754 E0.00033
G1 X95.803 Y71.085 E0.00032
G1 X96.129 Y71.409 E0.00026
G1 X96.41 Y71.831 E0.00029
G1 X96.477 Y71.955 E0.00008
G1 X96.663 Y72.464 E0.00031
G1 X96.975 Y72.996 E0.00035
G1 X97.082 Y73.207 E0.00013
G1 X97.361 Y73.794 E0.00037
G1 X97.532 Y74.245 E0.00027
G1 X97.716 Y74.752 E0.00031
G1 X97.868 Y75.241 E0.00029
G1 X98.018 Y75.96 E0.00042
G1 X98.051 Y76.151 E0.00011
G1 X98.091 Y77.307 E0.00065
G1 X98.084 Y78.102 E0.00045
G1 X98.055 Y78.675 E0.00032
G1 X97.978 Y79.452 E0.00044
G1 X97.918 Y80.08 E0.00036
G1 X97.871 Y80.426 E0.0002
G1 X97.607 Y81.663 E0.00072
G1 X97.538 Y81.946 E0.00016
G1 X97.247 Y82.573 E0.00039
G1 X97.1 Y82.854 E0.00018
G1 X96.605 Y83.525 E0.00047
G1 X96.192 Y83.87 E0.0003
G1 X95.731 Y84.146 E0.0003
G1 X95.114 Y84.394 E0.00038
G1 X94.587 Y84.502 E0.0003
G1 X93.994 Y84.537 E0.00034
G1 X93.386 Y84.477 E0.00035
G1 X92.757 Y84.347 E0.00036
G1 X92.299 Y84.183 E0.00028
G1 X91.838 Y83.855 E0.00032
G1 X91.298 Y83.301 E0.00044
G1 X90.93 Y82.744 E0.00038
G0 F4800 X90.72 Y82.29
G0 X91.605 Y81.846
;TYPE:SKIN
G1 F498.1 X91.411 Y81.364 E0.00029
G1 X91.272 Y80.962 E0.00024
G1 X90.972 Y79.795 E0.00068
G1 X90.797 Y79.18 E0.00036
G1 X90.683 Y78.755 E0.00025
G1 X90.649 Y77.752 E0.00057
G1 X90.65 Y77.734 E0.00001
G1 X90.753 Y77.033 E0.0004
G1 X90.853 Y76.254 E0.00044
G1 X90.851 Y76.008 E0.00014
G1 X90.958 Y75.565 E0.00026
G1 X91.042 Y74.932 E0.00036
G1 X91.2 Y74.31 E0.00036
G1 X91.284 Y74.044 E0.00016
G1 X91.467 Y73.564 E0.00029
G1 X91.674 Y73.096 E0.00029
G1 X92.084 Y72.465 E0.00043
G1 X92.582 Y71.961 E0.0004
G1 X93.074 Y71.666 E0.00032
G1 X93.56 Y71.495 E0.00029
G1 X94.174 Y71.44 E0.00035
G1 X94.52 Y71.496 E0.0002
G1 X94.863 Y71.632 E0.00021
G1 X95.163 Y71.845 E0.00021
G1 X95.359 Y72.04 E0.00016
G1 X95.571 Y72.363 E0.00022
G1 X95.764 Y72.888 E0.00032
G1 X96.105 Y73.471 E0.00038
G1 X96.187 Y73.632 E0.0001
G1 X96.451 Y74.188 E0.00035
G1 X96.601 Y74.583 E0.00024
G1 X96.785 Y75.09 E0.00031
G1 X96.909 Y75.49 E0.00024
G1 X97.042 Y76.128 E0.00037
G1 X97.063 Y76.251 E0.00007
G1 X97.101 Y77.341 E0.00062
G1 X97.094 Y78.09 E0.00042
G1 X97.069 Y78.578 E0.00028
G1 X96.934 Y79.966 E0.00079
G1 X96.894 Y80.26 E0.00017
G1 X96.645 Y81.429 E0.00068
G1 X96.599 Y81.619 E0.00011
G1 X96.362 Y82.128 E0.00032
G1 X96.256 Y82.332 E0.00013
G1 X95.883 Y82.837 E0.00036
G1 X95.61 Y83.064 E0.0002
G1 X95.287 Y83.258 E0.00021
G1 X94.832 Y83.441 E0.00028
G1 X94.456 Y83.518 E0.00022
G1 X94.019 Y83.544 E0.00025
G1 X93.534 Y83.497 E0.00028
G1 X93.024 Y83.39 E0.00029
G1 X92.76 Y83.295 E0.00016
G1 X92.485 Y83.101 E0.00019
G1 X92.072 Y82.677 E0.00033
G1 X91.797 Y82.26 E0.00028
G1 X91.605 Y81.846 E0.00026
G0 F4800 X94.385 Y83.071
G1 F498.1 X91.549 Y80.235 E0.00227
G0 F4800 X91.119 Y78.391
G1 F498.1 X95.388 Y82.66 E0.00342
G0 F4800 X95.993 Y81.851
G1 F498.1 X91.202 Y77.06 E0.00383
G0 F4800 X91.361 Y75.804
G1 F498.1 X96.324 Y80.768 E0.00397
G0 F4800 X96.522 Y79.551
G1 F498.1 X91.586 Y74.616 E0.00395
G0 F4800 X91.954 Y73.57
G1 F498.1 X96.635 Y78.25 E0.00375
G0 F4800 X96.631 Y76.832
G1 F498.1 X92.49 Y72.691 E0.00331
G0 F4800 X93.284 Y72.071
G1 F498.1 X96.307 Y75.094 E0.00242
G1 X96.483 Y75.27
G0 F4800 X95.112 Y72.484
G1 F498.1 X94.69 Y72.063 E0.00034
G1 F480 E-0.05
G1 F600 Z2.4
G0 F4800 X109.933 Y74.749 Z2.4
;TYPE:WALL-OUTER
G1 F600 Z0.4
G1 F480 E0.05
G1 F498.1 X110.013 Y75.363 E0.00035
G1 X110.138 Y75.897 E0.00031
G1 X110.138 Y76.196 E0.00017
G1 X110.228 Y76.9 E0.0004
G1 X110.332 Y77.622 E0.00041
G1 X110.34 Y77.856 E0.00013
G1 X110.303 Y78.904 E0.00059
G1 X110.155 Y79.45 E0.00032
G1 X109.984 Y80.055 E0.00036
G1 X109.675 Y81.257 E0.0007
G1 X109.515 Y81.715 E0.00027
G1 X109.304 Y82.24 E0.00032
G1 X109.072 Y82.74 E0.00031
G1 X108.7 Y83.3 E0.00038
G1 X108.159 Y83.858 E0.00044
G1 X107.68 Y84.198 E0.00033
G1 X106.909 Y84.427 E0.00046
G1 X106.374 Y84.503 E0.00031
G1 X106.008 Y84.537 E0.00021
G1 X105.414 Y84.502 E0.00034
G1 X104.885 Y84.394 E0.00031
G1 X104.271 Y84.148 E0.00037
G1 X103.808 Y83.871 E0.00031
G1 X103.39 Y83.526 E0.00031
G1 X102.883 Y82.83 E0.00049
G1 X102.72 Y82.509 E0.0002
G1 X102.459 Y81.93 E0.00036
G1 X102.392 Y81.659 E0.00016
G1 X102.129 Y80.426 E0.00071
G1 X102.082 Y80.08 E0.0002
G1 X101.946 Y78.677 E0.0008
G1 X101.915 Y78.102 E0.00033
G1 X101.909 Y77.309 E0.00045
G1 X101.95 Y76.15 E0.00066
G1 X101.98 Y75.975 E0.0001
G1 X102.136 Y75.225 E0.00043
G1 X102.276 Y74.775 E0.00027
G1 X102.467 Y74.245 E0.00032
G1 X102.638 Y73.796 E0.00027
G1 X102.914 Y73.214 E0.00036
G1 X103.023 Y73.001 E0.00014
G1 X103.336 Y72.465 E0.00035
G1 X103.521 Y71.96 E0.0003
G1 X103.847 Y71.459 E0.00034
G1 X104.07 Y71.176 E0.0002
G1 X104.554 Y70.832 E0.00034
G1 X105.099 Y70.576 E0.00034
G1 X105.751 Y70.449 E0.00038
G1 X105.894 Y70.44 E0.00008
G1 X106.509 Y70.492 E0.00035
G1 X107.349 Y70.765 E0.0005
G1 X107.987 Y71.148 E0.00042
G1 X108.421 Y71.523 E0.00032
G1 X108.818 Y72.002 E0.00035
G1 X109.15 Y72.529 E0.00035
G1 X109.447 Y73.185 E0.00041
G1 X109.652 Y73.723 E0.00033
G1 X109.812 Y74.316 E0.00035
G1 X109.933 Y74.749 E0.00025
G0 F4800 X109.997 Y75.244
G0 X109.037 Y75.541
;TYPE:SKIN
G1 F498.1 X109.148 Y76.013 E0.00027
G1 X109.148 Y76.259 E0.00014
G1 X109.247 Y77.033 E0.00044
G1 X109.344 Y77.705 E0.00038
G1 X109.348 Y77.853 E0.00008
G1 X109.317 Y78.756 E0.00051
G1 X109.177 Y79.272 E0.0003
G1 X109.028 Y79.797 E0.00031
G1 X108.726 Y80.969 E0.00068
G1 X108.405 Y81.824 E0.00052
G1 X108.202 Y82.261 E0.00027
G1 X107.928 Y82.674 E0.00028
G1 X107.511 Y83.104 E0.00034
G1 X107.241 Y83.296 E0.00019
G1 X106.696 Y83.458 E0.00032
G1 X105.989 Y83.545 E0.0004
G1 X105.545 Y83.518 E0.00025
G1 X105.172 Y83.442 E0.00022
G1 X104.712 Y83.258 E0.00028
G1 X104.381 Y83.059 E0.00022
G1 X104.116 Y82.841 E0.00019
G1 X103.731 Y82.313 E0.00037
G1 X103.613 Y82.079 E0.00015
G1 X103.399 Y81.605 E0.00029
G1 X103.356 Y81.432 E0.0001
G1 X103.106 Y80.26 E0.00068
G1 X103.066 Y79.966 E0.00017
G1 X102.932 Y78.582 E0.00079
G1 X102.905 Y78.085 E0.00028
G1 X102.899 Y77.344 E0.00042
G1 X102.938 Y76.247 E0.00062
G1 X102.95 Y76.177 E0.00004
G1 X103.099 Y75.462 E0.00041
G1 X103.211 Y75.101 E0.00021
G1 X103.392 Y74.598 E0.0003
G1 X103.55 Y74.183 E0.00025
G1 X103.795 Y73.666 E0.00032
G1 X103.897 Y73.467 E0.00013
G1 X104.235 Y72.888 E0.00038
G1 X104.41 Y72.409 E0.00029
G1 X104.758 Y71.902 E0.00035
G1 X105.053 Y71.692 E0.0002
G1 X105.411 Y71.524 E0.00022
G1 X105.888 Y71.432 E0.00027
G1 X106.308 Y71.468 E0.00024
G1 X106.938 Y71.673 E0.00037
G1 X107.405 Y71.953 E0.00031
G1 X107.71 Y72.216 E0.00023
G1 X108.013 Y72.582 E0.00027
G1 X108.279 Y73.006 E0.00028
G1 X108.532 Y73.562 E0.00035
G1 X108.708 Y74.025 E0.00028
G1 X108.857 Y74.577 E0.00032
G1 X108.96 Y74.945 E0.00022
G1 X109.037 Y75.541 E0.00034
G0 F4800 X105.841 Y71.9
G1 F498.1 X108.342 Y74.401 E0.002
G0 F4800 X108.697 Y76.17
G1 F498.1 X104.946 Y72.419 E0.003
G0 F4800 X104.477 Y73.364
G1 F498.1 X108.895 Y77.783 E0.00354
G0 F4800 X108.765 Y79.067
G1 F498.1 X103.994 Y74.295 E0.00382
G0 F4800 X103.611 Y75.327
G1 F498.1 X108.464 Y80.18 E0.00388
G0 F4800 X108.134 Y81.264
G1 F498.1 X103.379 Y76.508 E0.00381
G0 F4800 X103.352 Y77.896
G1 F498.1 X107.683 Y82.228 E0.00347
G0 F4800 X106.953 Y82.911
G1 F498.1 X103.464 Y79.422 E0.00279
G0 F4800 X103.748 Y81.12
G1 F498.1 X105.703 Y83.076 E0.00156
G1 X105.879 Y83.252
G1 F480 E-0.05
G1 F600 Z2.4
;MESH:NONMESH
G0 F4800 X92.16 Y72.128 Z2.4
;TIME_ELAPSED:35.745276
;LAYER:1
;MESH:teddy_with_pie_eyes.stl
G0 X92.16 Y72.128 Z2.8
;TYPE:FILL
G1 F600 Z0.8
G1 F480 E0.05
G1 F523.2 X92.16 Y82.967 E0.00613
G1 X91.879 Y82.645 E0.00024
G1 X91.851 Y82.61 E0.00003
G1 X91.491 Y82.033 E0.00038
G1 X91.216 Y81.402 E0.00039
G1 X91.202 Y81.357 E0.00003
G1 X91.18 Y81.294 E0.00004
G1 X91.18 Y73.8 E0.00424
G1 X91.311 Y73.479 E0.0002
G1 X91.494 Y73.099 E0.00024
G1 X91.821 Y72.544 E0.00036
G1 X92.134 Y72.156 E0.00028
G1 X92.195 Y72.091 E0.00005
G1 X92.456 Y71.851 E0.0002
G1 X92.92 Y71.57 E0.00031
G1 X93.14 Y71.48 E0.00013
G1 X93.14 Y83.67 E0.0069
G1 X93.46 Y83.769 E0.00019
G1 X93.893 Y83.831 E0.00025
G1 X94.12 Y83.824 E0.00013
G1 X94.12 Y71.339 E0.00707
G1 X94.561 Y71.392 E0.00025
G1 X94.831 Y71.464 E0.00016
G1 X95.1 Y71.588 E0.00017
G1 X95.1 Y83.683 E0.00684
G1 X95.322 Y83.61 E0.00013
G1 X95.693 Y83.428 E0.00023
G1 X95.743 Y83.402 E0.00003
G1 X96.075 Y83.181 E0.00023
G1 X96.253 Y83.02 E0.00014
G1 X96.494 Y82.7 E0.00023
G1 X96.692 Y82.345 E0.00023
G1 X96.882 Y81.878 E0.00029
G1 X97.006 Y81.47 E0.00024
G1 X97.031 Y81.359 E0.00006
G0 F4800 X97.032 Y81.359
G1 F523.2 X97.06 Y81.226 E0.00008
G1 X97.06 Y74.612 E0.00374
G1 X96.946 Y74.24 E0.00022
G1 X96.866 Y74.035 E0.00012
G1 X96.651 Y73.539 E0.00031
G1 X96.345 Y72.967 E0.00037
G1 X96.08 Y72.498 E0.0003
G1 X96.08 Y83.177 E0.00604
G1 X96.08 Y83.427
G0 F4800 X94.627 Y84.808
;TYPE:WALL-OUTER
G1 F523.2 X93.841 Y84.833 E0.00045
G1 X93.238 Y84.747 E0.00034
G1 X92.711 Y84.585 E0.00031
G1 X92.114 Y84.246 E0.00039
G1 X91.692 Y83.907 E0.00031
G1 X91.512 Y83.745 E0.00014
G1 X91.117 Y83.293 E0.00034
G1 X91.039 Y83.197 E0.00007
G1 X90.604 Y82.499 E0.00047
G1 X90.275 Y81.745 E0.00047
G1 X90.252 Y81.672 E0.00004
G1 X89.985 Y80.909 E0.00046
G1 X89.722 Y79.924 E0.00058
G1 X89.587 Y79.246 E0.00039
G1 X89.51 Y78.746 E0.00029
G1 X89.46 Y78.081 E0.00038
G1 X89.445 Y77.504 E0.00033
G1 X89.447 Y77.416 E0.00005
G1 X89.489 Y76.69 E0.00041
G1 X89.547 Y76.179 E0.00029
G1 X89.614 Y75.606 E0.00033
G1 X89.755 Y74.939 E0.00039
G1 X89.903 Y74.412 E0.00031
G1 X89.935 Y74.291 E0.00007
G1 X90.148 Y73.683 E0.00036
G1 X90.388 Y73.094 E0.00036
G1 X90.617 Y72.619 E0.0003
G1 X90.996 Y71.974 E0.00042
G1 X91.382 Y71.495 E0.00035
G1 X91.486 Y71.385 E0.00009
G1 X91.856 Y71.047 E0.00028
G1 X92.468 Y70.675 E0.00041
G1 X92.961 Y70.475 E0.0003
G1 X93.554 Y70.342 E0.00034
G1 X94.044 Y70.322 E0.00028
G1 X94.754 Y70.409 E0.0004
G1 X95.168 Y70.518 E0.00024
G1 X95.694 Y70.759 E0.00033
G1 X96.124 Y71.023 E0.00029
G1 X96.495 Y71.365 E0.00029
G1 X96.842 Y71.815 E0.00032
G1 X97.227 Y72.495 E0.00044
G1 X97.551 Y73.101 E0.00039
G1 X97.797 Y73.67 E0.00035
G1 X97.891 Y73.909 E0.00015
G1 X98.113 Y74.635 E0.00043
G1 X98.226 Y75.157 E0.0003
G1 X98.261 Y75.329 E0.0001
G1 X98.366 Y76.088 E0.00043
G1 X98.393 Y76.756 E0.00038
G1 X98.418 Y77.567 E0.00046
G1 X98.39 Y78.535 E0.00055
G1 X98.352 Y79.174 E0.00036
G1 X98.267 Y80.087 E0.00052
G1 X98.142 Y80.935 E0.00049
G1 X98.007 Y81.579 E0.00037
G1 X97.976 Y81.718 E0.00008
G1 X97.825 Y82.213 E0.00029
G1 X97.593 Y82.784 E0.00035
G1 X97.336 Y83.244 E0.0003
G1 X96.993 Y83.698 E0.00032
G1 X96.691 Y83.971 E0.00023
G1 X96.245 Y84.268 E0.0003
G1 X96.158 Y84.314 E0.00006
G1 X95.702 Y84.537 E0.00029
G1 X95.134 Y84.723 E0.00034
G1 X94.627 Y84.808 E0.00029
G0 F4800 X94.127 Y84.823
G1 F480 E-0.05
G1 F600 Z2.8
G0 F4800 X102.94 Y74.606 Z2.8
;TYPE:FILL
G1 F600 Z0.8
G1 F480 E0.05
G1 F523.2 X102.94 Y81.232 E0.00375
G1 X102.843 Y80.768 E0.00027
G1 X102.76 Y80.22 E0.00031
G1 X102.725 Y79.955 E0.00015
G1 X102.643 Y79.078 E0.0005
G1 X102.61 Y78.507 E0.00032
G1 X102.583 Y77.547 E0.00054
G1 X102.608 Y76.796 E0.00043
G1 X102.633 Y76.15 E0.00037
G1 X102.725 Y75.498 E0.00037
G1 X102.741 Y75.415 E0.00005
G1 X102.86 Y74.87 E0.00032
G1 X103.051 Y74.242 E0.00037
G1 X103.245 Y73.75 E0.0003
G1 X103.348 Y73.54 E0.00013
G1 X103.648 Y72.98 E0.00036
G1 X103.872 Y72.57 E0.00026
G1 X103.92 Y72.5 E0.00005
G1 X103.92 Y83.176 E0.00604
G1 X103.925 Y83.181 E0
G1 X104.257 Y83.402 E0.00023
G1 X104.307 Y83.428 E0.00003
G1 X104.677 Y83.61 E0.00023
G1 X104.9 Y83.682 E0.00013
G1 X104.9 Y71.586 E0.00684
G1 X105.152 Y71.47 E0.00016
G1 X105.734 Y71.342 E0.00034
G1 X105.88 Y71.342 E0.00008
G1 X105.88 Y83.828 E0.00707
G1 X106.152 Y83.829 E0.00015
G1 X106.563 Y83.764 E0.00024
G1 X106.86 Y83.659 E0.00018
G1 X106.86 Y71.481 E0.00689
G1 X107.074 Y71.568 E0.00013
G1 X107.522 Y71.836 E0.0003
G1 X107.801 Y72.087 E0.00021
G1 X107.84 Y72.133 E0.00003
G1 X107.84 Y82.969 E0.00613
G1 X108.108 Y82.66 E0.00023
G1 X108.155 Y82.602 E0.00004
G1 X108.498 Y82.052 E0.00037
G1 X108.61 Y81.785 E0.00016
G1 X108.817 Y81.304 E0.0003
G1 X109.06 Y80.611 E0.00042
G1 X109.306 Y79.689 E0.00054
G1 X109.427 Y79.078 E0.00035
G1 X109.496 Y78.626 E0.00026
G1 X109.514 Y78.414 E0.00012
G1 X109.563 Y77.724 E0.00039
G1 X109.547 Y77.359 E0.00021
G1 X109.515 Y76.777 E0.00033
G1 X109.453 Y76.204 E0.00033
G1 X109.383 Y75.672 E0.0003
G1 X109.245 Y75.079 E0.00034
G1 X109.105 Y74.574 E0.0003
G1 X108.922 Y74.05 E0.00031
G1 X108.82 Y73.802 E0.00015
G1 X108.82 Y81.296 E0.00424
G1 X108.82 Y81.546
G0 F4800 X101.757 Y80.268
;TYPE:WALL-OUTER
G1 F523.2 X101.733 Y80.087 E0.0001
G1 X101.647 Y79.172 E0.00052
G1 X101.61 Y78.535 E0.00036
G1 X101.583 Y77.543 E0.00056
G1 X101.608 Y76.758 E0.00044
G1 X101.634 Y76.078 E0.00039
G1 X101.74 Y75.323 E0.00043
G1 X101.772 Y75.163 E0.00009
G1 X101.887 Y74.634 E0.00031
G1 X102.11 Y73.902 E0.00043
G1 X102.329 Y73.348 E0.00034
G1 X102.457 Y73.085 E0.00017
G1 X102.77 Y72.5 E0.00038
G1 X103.014 Y72.054 E0.00029
G1 X103.412 Y71.475 E0.0004
G1 X103.787 Y71.09 E0.0003
G1 X104.307 Y70.759 E0.00035
G1 X104.832 Y70.518 E0.00033
G1 X105.626 Y70.342 E0.00046
G1 X106.446 Y70.342 E0.00046
G1 X107.039 Y70.475 E0.00034
G1 X107.526 Y70.673 E0.0003
G1 X108.118 Y71.028 E0.00039
G1 X108.515 Y71.385 E0.0003
G1 X108.88 Y71.807 E0.00032
G1 X109.138 Y72.184 E0.00026
G1 X109.384 Y72.62 E0.00028
G1 X109.608 Y73.085 E0.00029
G1 X109.848 Y73.67 E0.00036
G1 X110.065 Y74.291 E0.00037
G1 X110.209 Y74.812 E0.00031
G1 X110.369 Y75.5 E0.0004
G1 X110.447 Y76.096 E0.00034
G1 X110.511 Y76.69 E0.00034
G1 X110.552 Y77.428 E0.00042
G1 X110.565 Y77.734 E0.00017
G1 X110.512 Y78.484 E0.00043
G1 X110.49 Y78.746 E0.00015
G1 X110.413 Y79.246 E0.00029
G1 X110.278 Y79.925 E0.00039
G1 X110.016 Y80.907 E0.00058
G1 X109.749 Y81.67 E0.00046
G1 X109.53 Y82.175 E0.00031
G1 X109.392 Y82.508 E0.0002
G1 X108.967 Y83.189 E0.00045
G1 X108.883 Y83.293 E0.00008
G1 X108.488 Y83.745 E0.00034
G1 X108.035 Y84.134 E0.00034
G1 X107.414 Y84.523 E0.00041
G1 X106.805 Y84.738 E0.00037
G1 X106.232 Y84.829 E0.00033
G1 X105.514 Y84.828 E0.00041
G1 X104.868 Y84.723 E0.00037
G1 X104.296 Y84.536 E0.00034
G1 X103.842 Y84.314 E0.00029
G1 X103.755 Y84.268 E0.00006
G1 X103.309 Y83.971 E0.0003
G1 X103.007 Y83.697 E0.00023
G1 X102.666 Y83.248 E0.00032
G1 X102.409 Y82.785 E0.0003
G1 X102.173 Y82.209 E0.00035
G1 X102.023 Y81.714 E0.00029
G1 X101.991 Y81.573 E0.00008
G1 X101.859 Y80.94 E0.00037
G1 X101.757 Y80.268 E0.00038
G0 F4800 X101.733 Y80.087
G0 X101.704 Y79.771
G1 F480 E-0.05
G1 F600 Z2.8
;MESH:NONMESH
G0 F4800 X93.819 Y71.393 Z2.8
;TIME_ELAPSED:67.575523
;LAYER:2
