;FLAVOR:RepRap
;TIME:3247
;Filament used: 0.0455455m
;Layer height: 1
;MINX:42.784
;MINY:27.732
;MINZ:1
;MAXX:157.255
;MAXY:127.283
;MAXZ:82.562
;Generated with Cura_SteamEngine 4.11.0
T0
M104 S35
M109 S35
M82 ;absolute extrusion mode
;Pressure advances
M400 ; Finish all current moves and for pressure advances.
M572 D0 S0.00                      ;Pressure advance enabled
;Wipe
G1 Z1 F900			;Wipe height
M83			;Extruder to relative mode
M400
G1 Y140 E0.2 F900		;Draw first thin line
G1 X1 F900
G1 Y5 E0.2 F900		;Draw second thin line
G1 X2 F900
G1 Y50 F900			;Coast in case of leakage
;M82			;Extruder to absolute mode (default)
M400			; wait for moves to finish
G92 E0			; zero extruder
;MHI3D CODE END
M83 ;relative extrusion mode
G1 F480 E-0.05
;LAYER_COUNT:82
;LAYER:0
M107
G1 F600 Z3
;MESH:Finnish_Vase.stl
G0 F4800 X144.366 Y84.638 Z3
;TYPE:WALL-OUTER
G1 F600 Z1
G1 F480 E0.05
G1 F600 X146.191 Y87.636 E0.00497
G1 X147.529 Y90.881 E0.00497
G1 X148.349 Y94.297 E0.00497
G1 X148.63 Y97.788 E0.00495
G1 X148.365 Y101.296 E0.00498
G1 X147.561 Y104.714 E0.00497
G1 X146.24 Y107.963 E0.00496
G1 X144.429 Y110.972 E0.00497
G1 X142.177 Y113.66 E0.00496
G1 X139.529 Y115.972 E0.00497
G1 X136.527 Y117.863 E0.00502
G1 X134.707 Y119.004 E0.00304
G1 X132.792 Y119.862 E0.00297
G1 X130.767 Y120.451 E0.00298
G1 X128.679 Y120.755 E0.00299
G1 X126.575 Y120.769 E0.00298
G1 X124.483 Y120.491 E0.00299
G1 X122.452 Y119.928 E0.00298
G1 X120.515 Y119.09 E0.00299
G1 X118.716 Y117.994 E0.00298
G1 X117.09 Y116.665 E0.00297
G1 X115.652 Y115.113 E0.00299
G1 X114.428 Y113.358 E0.00303
G1 X114.126 Y112.916 E0.00076
G1 X113.748 Y112.487 E0.00081
G1 X113.32 Y112.108 E0.00081
G1 X112.85 Y111.786 E0.00081
G1 X112.345 Y111.522 E0.00081
G1 X111.812 Y111.32 E0.00081
G1 X111.255 Y111.186 E0.00081
G1 X110.7 Y111.121 E0.00079
G1 X110.118 Y111.125 E0.00082
G1 X109.552 Y111.199 E0.00081
G1 X108.999 Y111.34 E0.00081
G1 X108.5 Y111.537 E0.00076
G1 X107.482 Y111.926 E0.00154
G1 X106.443 Y112.164 E0.00151
G1 X105.382 Y112.255 E0.00151
G1 X104.318 Y112.196 E0.00151
G1 X103.28 Y111.991 E0.0015
G1 X102.268 Y111.637 E0.00152
G1 X101.328 Y111.151 E0.0015
G1 X100.454 Y110.532 E0.00152
G1 X99.688 Y109.808 E0.00149
G1 X99.018 Y108.969 E0.00152
G1 X98.478 Y108.051 E0.00151
G1 X98.09 Y107.112 E0.00144
G1 X98.036 Y106.99 E0.00019
G1 X97.688 Y106.465 E0.00089
G1 X97.342 Y105.983 E0.00084
G1 X96.979 Y105.515 E0.00084
G1 X96.6 Y105.06 E0.00084
G1 X96.206 Y104.618 E0.00084
G1 X95.797 Y104.19 E0.00084
G1 X95.373 Y103.776 E0.00084
G1 X94.934 Y103.378 E0.00084
G1 X94.483 Y102.995 E0.00084
G1 X94.017 Y102.629 E0.00084
G1 X93.539 Y102.28 E0.00084
G1 X93.08 Y101.966 E0.00079
G1 X92.665 Y101.605 E0.00078
G1 X92.153 Y101.264 E0.00087
G1 X91.601 Y100.995 E0.00087
G1 X91.019 Y100.797 E0.00087
G1 X90.494 Y100.694 E0.00076
G1 X90.43 Y100.678 E0.00009
G1 X89.803 Y100.637 E0.00089
G1 X89.275 Y100.672 E0.00075
G1 X89.2 Y100.674 E0.00011
G1 X88.668 Y100.781 E0.00077
G1 X88.598 Y100.791 E0.0001
G1 X88.004 Y100.992 E0.00089
G1 X87.526 Y101.226 E0.00075
G1 X87.463 Y101.254 E0.0001
G1 X86.941 Y101.599 E0.00089
G1 X86.489 Y101.992 E0.00085
G1 X82.114 Y106.329 E0.00872
G1 X79.93 Y108.147 E0.00402
G1 X77.517 Y109.63 E0.00401
G1 X74.924 Y110.749 E0.004
G1 X72.185 Y111.492 E0.00401
G1 X69.383 Y111.835 E0.00399
G1 X66.55 Y111.775 E0.00401
G1 X63.765 Y111.312 E0.00399
G1 X61.061 Y110.455 E0.00401
G1 X58.517 Y109.225 E0.004
G1 X56.169 Y107.642 E0.00401
G1 X54.075 Y105.744 E0.004
G1 X52.3 Y103.599 E0.00394
G1 X51.382 Y101.218 E0.00361
G1 X50.754 Y98.702 E0.00367
G1 X50.439 Y96.127 E0.00367
G1 X50.442 Y93.527 E0.00368
G1 X50.765 Y90.954 E0.00367
G1 X51.401 Y88.432 E0.00368
G1 X52.341 Y86.012 E0.00367
G1 X53.571 Y83.728 E0.00367
G1 X55.074 Y81.607 E0.00368
G1 X56.822 Y79.691 E0.00367
G1 X58.796 Y78.001 E0.00368
G1 X60.918 Y76.595 E0.0036
G1 X63.067 Y76.022 E0.00315
G1 X65.236 Y75.15 E0.00331
G1 X67.281 Y74.021 E0.0033
G1 X69.176 Y72.652 E0.00331
G1 X70.887 Y71.063 E0.0033
G1 X72.396 Y69.277 E0.00331
G1 X73.675 Y67.322 E0.00331
G1 X74.707 Y65.227 E0.0033
G1 X75.477 Y63.02 E0.00331
G1 X75.972 Y60.737 E0.0033
G1 X76.187 Y58.411 E0.0033
G1 X76.119 Y56.145 E0.00321
G1 X76.811 Y51.208 E0.00705
G1 X78.628 Y46.574 E0.00704
G1 X81.467 Y42.493 E0.00703
G1 X85.179 Y39.18 E0.00704
G1 X89.555 Y36.82 E0.00703
G1 X94.36 Y35.54 E0.00703
G1 X99.333 Y35.411 E0.00704
G1 X104.197 Y36.438 E0.00703
G1 X108.693 Y38.569 E0.00704
G1 X112.572 Y41.684 E0.00704
G1 X115.62 Y45.613 E0.00703
G1 X117.691 Y50.183 E0.0071
G1 X118.041 Y51.012 E0.00127
G1 X118.367 Y51.85 E0.00127
G1 X118.651 Y52.646 E0.0012
G1 X118.926 Y53.487 E0.00125
G1 X119.198 Y54.412 E0.00136
G1 X119.426 Y55.283 E0.00127
G1 X119.629 Y56.158 E0.00127
G1 X119.807 Y57.039 E0.00127
G1 X119.96 Y57.925 E0.00127
G1 X120.088 Y58.814 E0.00127
G1 X120.19 Y59.708 E0.00127
G1 X120.303 Y61.006 E0.00184
G1 X120.423 Y61.796 E0.00113
G1 X120.605 Y62.572 E0.00113
G1 X120.829 Y63.27 E0.00104
G1 X121.153 Y64.07 E0.00122
G1 X121.514 Y64.782 E0.00113
G1 X121.71 Y65.116 E0.00055
G1 X122.113 Y65.736 E0.00105
G1 X122.54 Y66.326 E0.00103
G1 X122.948 Y66.831 E0.00092
G1 X122.992 Y66.888 E0.0001
G1 X123.427 Y67.372 E0.00092
G1 X123.475 Y67.43 E0.00011
G1 X123.994 Y67.954 E0.00104
G1 X124.532 Y68.445 E0.00103
G1 X125.095 Y68.908 E0.00103
G1 X125.681 Y69.34 E0.00103
G1 X126.287 Y69.744 E0.00103
G1 X126.913 Y70.116 E0.00103
G1 X127.559 Y70.455 E0.00103
G1 X128.203 Y70.753 E0.001
G1 X129.288 Y71.269 E0.0017
G1 X130.341 Y71.813 E0.00168
G1 X131.36 Y72.384 E0.00165
G1 X132.388 Y73.007 E0.0017
G1 X133.366 Y73.646 E0.00165
G1 X134.337 Y74.325 E0.00168
G1 X135.297 Y75.047 E0.0017
G1 X136.207 Y75.78 E0.00165
G1 X137.117 Y76.565 E0.0017
G1 X137.989 Y77.368 E0.00168
G1 X138.821 Y78.187 E0.00165
G1 X139.624 Y79.035 E0.00165
G1 X139.965 Y79.491 E0.00081
G1 X140.36 Y79.999 E0.00091
G1 X140.76 Y80.486 E0.00089
G1 X141.218 Y81.018 E0.00099
G1 X141.618 Y81.452 E0.00083
G1 X142.082 Y81.937 E0.00095
G1 X144.366 Y84.638 E0.005
G0 F4800 X144.626 Y85.065
G0 X143.558 Y85.216
;TYPE:SKIN
G1 F600 X145.307 Y88.088 E0.00476
G1 X146.586 Y91.191 E0.00475
G1 X147.369 Y94.455 E0.00475
G1 X147.637 Y97.78 E0.00472
G1 X147.383 Y101.149 E0.00478
G1 X146.614 Y104.414 E0.00475
G1 X145.354 Y107.515 E0.00474
G1 X143.621 Y110.394 E0.00475
G1 X141.467 Y112.965 E0.00475
G1 X138.935 Y115.176 E0.00476
G1 X136.245 Y116.87 E0.0045
G1 X134.233 Y118.132 E0.00336
G1 X132.458 Y118.928 E0.00275
G1 X130.555 Y119.481 E0.0028
G1 X128.602 Y119.765 E0.00279
G1 X126.642 Y119.779 E0.00277
G1 X124.678 Y119.517 E0.0028
G1 X122.784 Y118.992 E0.00278
G1 X120.966 Y118.207 E0.0028
G1 X119.288 Y117.183 E0.00278
G1 X117.773 Y115.946 E0.00277
G1 X116.424 Y114.489 E0.00281
G1 X115.24 Y112.792 E0.00293
G1 X114.909 Y112.308 E0.00083
G1 X114.451 Y111.786 E0.00098
G1 X113.93 Y111.326 E0.00098
G1 X113.361 Y110.936 E0.00098
G1 X112.751 Y110.617 E0.00097
G1 X112.105 Y110.372 E0.00098
G1 X111.429 Y110.21 E0.00098
G1 X110.754 Y110.131 E0.00096
G1 X110.051 Y110.135 E0.00099
G1 X109.364 Y110.225 E0.00098
G1 X108.694 Y110.396 E0.00098
G1 X108.141 Y110.614 E0.00084
G1 X107.193 Y110.977 E0.00144
G1 X106.287 Y111.184 E0.00131
G1 X105.366 Y111.263 E0.00131
G1 X104.451 Y111.212 E0.0013
G1 X103.539 Y111.032 E0.00132
G1 X102.655 Y110.723 E0.00132
G1 X101.845 Y110.304 E0.00129
G1 X101.081 Y109.763 E0.00132
G1 X100.423 Y109.14 E0.00128
G1 X99.836 Y108.407 E0.00133
G1 X99.365 Y107.604 E0.00132
G1 X99 Y106.722 E0.00135
G1 X98.907 Y106.512 E0.00032
G1 X98.503 Y105.903 E0.00103
G1 X98.136 Y105.391 E0.00089
G1 X97.751 Y104.895 E0.00089
G1 X97.35 Y104.414 E0.00089
G1 X96.933 Y103.947 E0.00089
G1 X96.502 Y103.493 E0.00089
G1 X96.052 Y103.055 E0.00089
G1 X95.587 Y102.634 E0.00089
G1 X95.109 Y102.228 E0.00089
G1 X94.615 Y101.839 E0.00089
G1 X94.111 Y101.472 E0.00088
G1 X93.689 Y101.183 E0.00072
G1 X93.267 Y100.817 E0.00079
G1 X92.646 Y100.403 E0.00106
G1 X91.979 Y100.078 E0.00105
G1 X91.275 Y99.839 E0.00105
G1 X90.691 Y99.723 E0.00084
G1 X90.584 Y99.696 E0.00016
G1 X89.803 Y99.645 E0.00111
G1 X89.235 Y99.682 E0.00081
G1 X89.088 Y99.686 E0.00021
G1 X88.509 Y99.804 E0.00084
G1 X88.367 Y99.825 E0.0002
G1 X87.626 Y100.075 E0.00111
G1 X87.109 Y100.328 E0.00081
G1 X86.985 Y100.383 E0.00019
G1 X86.341 Y100.809 E0.00109
G1 X85.815 Y101.266 E0.00099
G1 X81.452 Y105.591 E0.00869
G1 X79.348 Y107.343 E0.00387
G1 X77.059 Y108.749 E0.0038
G1 X74.6 Y109.81 E0.00379
G1 X71.987 Y110.52 E0.00383
G1 X69.339 Y110.843 E0.00377
G1 X66.636 Y110.787 E0.00382
G1 X64.003 Y110.348 E0.00378
G1 X61.425 Y109.531 E0.00383
G1 X59.016 Y108.367 E0.00379
G1 X56.777 Y106.858 E0.00382
G1 X54.794 Y105.061 E0.00379
G1 X53.166 Y103.092 E0.00361
G1 X52.326 Y100.914 E0.0033
G1 X51.728 Y98.52 E0.00349
G1 X51.429 Y96.073 E0.00349
G1 X51.432 Y93.586 E0.00352
G1 X51.739 Y91.141 E0.00349
G1 X52.346 Y88.733 E0.00351
G1 X53.244 Y86.422 E0.00351
G1 X54.411 Y84.256 E0.00348
G1 X55.848 Y82.227 E0.00352
G1 X57.509 Y80.406 E0.00349
G1 X59.395 Y78.792 E0.00351
G1 X61.33 Y77.509 E0.00328
G1 X63.38 Y76.963 E0.003
G1 X65.662 Y76.046 E0.00348
G1 X67.812 Y74.859 E0.00347
G1 X69.805 Y73.419 E0.00348
G1 X71.604 Y71.748 E0.00347
G1 X73.192 Y69.869 E0.00348
G1 X74.536 Y67.813 E0.00347
G1 X75.622 Y65.611 E0.00347
G1 X76.432 Y63.289 E0.00348
G1 X76.952 Y60.888 E0.00348
G1 X77.179 Y58.442 E0.00348
G1 X77.111 Y56.194 E0.00318
G1 X77.775 Y51.461 E0.00676
G1 X79.506 Y47.045 E0.00671
G1 X82.212 Y43.155 E0.0067
G1 X85.753 Y39.995 E0.00671
G1 X89.92 Y37.748 E0.0067
G1 X94.503 Y36.527 E0.00671
G1 X99.247 Y36.403 E0.00671
G1 X103.874 Y37.38 E0.00669
G1 X108.165 Y39.415 E0.00672
G1 X111.864 Y42.385 E0.00671
G1 X114.768 Y46.128 E0.0067
G1 X116.779 Y50.568 E0.0069
G1 X117.118 Y51.371 E0.00123
G1 X117.434 Y52.183 E0.00123
G1 X117.718 Y52.979 E0.0012
G1 X117.98 Y53.78 E0.00119
G1 X118.24 Y54.663 E0.0013
G1 X118.465 Y55.521 E0.00125
G1 X118.659 Y56.354 E0.00121
G1 X118.831 Y57.208 E0.00123
G1 X118.98 Y58.066 E0.00123
G1 X119.104 Y58.927 E0.00123
G1 X119.206 Y59.821 E0.00127
G1 X119.319 Y61.123 E0.00185
G1 X119.451 Y61.984 E0.00123
G1 X119.65 Y62.837 E0.00124
G1 X119.898 Y63.607 E0.00114
G1 X120.251 Y64.48 E0.00133
G1 X120.645 Y65.257 E0.00123
G1 X120.868 Y65.637 E0.00062
G1 X121.297 Y66.296 E0.00111
G1 X121.754 Y66.928 E0.0011
G1 X122.233 Y67.524 E0.00108
G1 X122.664 Y68.003 E0.00091
G1 X122.74 Y68.095 E0.00017
G1 X123.309 Y68.669 E0.00114
G1 X123.883 Y69.193 E0.0011
G1 X124.487 Y69.69 E0.00111
G1 X125.113 Y70.15 E0.0011
G1 X125.759 Y70.582 E0.0011
G1 X126.43 Y70.981 E0.0011
G1 X127.121 Y71.344 E0.0011
G1 X127.778 Y71.648 E0.00102
G1 X128.895 Y72.179 E0.00175
G1 X129.857 Y72.676 E0.00153
G1 X130.847 Y73.231 E0.00161
G1 X131.875 Y73.854 E0.0017
G1 X132.798 Y74.458 E0.00156
G1 X133.741 Y75.117 E0.00163
G1 X134.701 Y75.839 E0.0017
G1 X135.573 Y76.541 E0.00158
G1 X136.47 Y77.315 E0.00168
G1 X137.306 Y78.085 E0.00161
G1 X138.102 Y78.868 E0.00158
G1 X138.869 Y79.678 E0.00158
G1 X139.177 Y80.091 E0.00073
G1 X139.586 Y80.617 E0.00094
G1 X140.002 Y81.123 E0.00093
G1 X140.479 Y81.677 E0.00103
G1 X140.896 Y82.129 E0.00087
G1 X141.349 Y82.603 E0.00093
G1 X143.558 Y85.216 E0.00484
G1 F480 E-0.05
G1 F600 Z3
G0 F4800 X114.492 Y46.61 Z3
G1 F600 Z1
G1 F480 E0.05
G1 F600 X107.461 Y39.579 E0.01407
G1 X107.285 Y39.403
G0 F4800 X104.772 Y38.303
G1 F600 X115.662 Y49.194 E0.02179
G1 X115.838 Y49.37
G0 F4800 X116.768 Y51.714
G1 F600 X102.63 Y37.577 E0.02828
G0 F4800 X100.838 Y37.198
G1 F600 X117.548 Y53.908 E0.03343
G1 X117.724 Y54.084
G0 F4800 X118.081 Y55.855
G1 F600 X99.083 Y36.857 E0.03801
G0 F4800 X97.705 Y36.894
G1 F600 X118.447 Y57.636 E0.0415
G0 F4800 X118.692 Y59.295
G1 F600 X96.327 Y36.93 E0.04475
G0 F4800 X94.948 Y36.965
G1 F600 X118.844 Y60.861 E0.04781
G0 F4800 X119.121 Y62.552
G1 F600 X93.759 Y37.19 E0.05074
G0 F4800 X92.642 Y37.487
G1 F600 X119.861 Y64.707 E0.05446
G1 X120.037 Y64.883
G0 F4800 X126.881 Y71.727
G1 F600 X145.925 Y90.771 E0.0381
G1 X146.101 Y90.947
G0 F4800 X146.499 Y92.758
G1 F600 X91.525 Y37.785 E0.10999
G0 F4800 X90.409 Y38.083
G1 F600 X146.929 Y94.603 E0.11308
G0 F4800 X147.053 Y96.141
G1 F600 X89.432 Y38.521 E0.11528
G0 F4800 X88.514 Y39.016
G1 F600 X147.176 Y97.679 E0.11737
G0 F4800 X147.092 Y99.009
G1 F600 X87.595 Y39.512 E0.11904
G0 F4800 X86.677 Y40.008
G1 F600 X146.994 Y100.325 E0.12068
G0 F4800 X146.822 Y101.567
G1 F600 X85.805 Y40.551 E0.12208
G0 F4800 X85.058 Y41.217
G1 F600 X146.552 Y102.712 E0.12303
G0 F4800 X146.282 Y103.856
G1 F600 X84.311 Y41.884 E0.12399
G0 F4800 X83.563 Y42.551
G1 F600 X145.925 Y104.913 E0.12477
G0 F4800 X145.516 Y105.918
G1 F600 X82.816 Y43.218 E0.12544
G0 F4800 X82.175 Y43.991
G1 F600 X145.108 Y106.925 E0.12591
G0 F4800 X144.624 Y107.854
G1 F600 X81.595 Y44.826 E0.1261
G0 F4800 X81.016 Y45.66
G1 F600 X144.092 Y108.737 E0.1262
G0 F4800 X143.561 Y109.619
G1 F600 X80.435 Y46.494 E0.1263
G0 F4800 X79.871 Y47.344
G1 F600 X142.982 Y110.455 E0.12627
G0 F4800 X142.337 Y111.225
G1 F600 X79.473 Y48.36 E0.12577
G0 F4800 X79.075 Y49.376
G1 F600 X141.693 Y111.995 E0.12528
G0 F4800 X141.031 Y112.746
G1 F600 X78.676 Y50.391 E0.12475
G0 F4800 X78.278 Y51.408
G1 F600 X140.275 Y113.405 E0.12404
G0 F4800 X139.521 Y114.065
G1 F600 X78.066 Y52.61 E0.12295
G0 F4800 X77.892 Y53.851
G1 F600 X138.766 Y114.724 E0.12179
G0 F4800 X137.914 Y115.286
G1 F600 X77.718 Y55.091 E0.12043
G0 F4800 X77.564 Y56.351
G1 F600 X137.045 Y115.832 E0.119
G0 F4800 X136.178 Y116.379
G1 F600 X77.609 Y57.81 E0.11718
G0 F4800 X77.561 Y59.177
G1 F600 X135.309 Y116.925 E0.11554
G0 F4800 X134.44 Y117.47
G1 F600 X77.441 Y60.471 E0.11404
G0 F4800 X77.238 Y61.682
G1 F600 X133.515 Y117.959 E0.11259
G0 F4800 X132.539 Y118.397
G1 F600 X76.986 Y62.844 E0.11115
G0 F4800 X76.677 Y63.949
G1 F600 X131.472 Y118.744 E0.10963
G0 F4800 X130.367 Y119.053
G1 F600 X76.311 Y64.997 E0.10815
G0 F4800 X75.92 Y66.021
G1 F600 X129.131 Y119.232 E0.10646
G0 F4800 X127.806 Y119.32
G1 F600 X75.453 Y66.967 E0.10474
G0 F4800 X74.985 Y67.914
G1 F600 X126.357 Y119.286 E0.10278
G0 F4800 X124.716 Y119.059
G1 F600 X74.438 Y68.781 E0.10059
G0 F4800 X73.879 Y69.637
G1 F600 X122.714 Y118.471 E0.0977
G1 X122.89 Y118.647
G0 F4800 X119.793 Y116.964
G1 F600 X116.174 Y113.345 E0.00724
G1 X115.998 Y113.169
G0 F4800 X113.142 Y110.314
G1 F600 X73.284 Y70.456 E0.07974
G0 F4800 X72.636 Y71.222
G1 F600 X111.137 Y109.723 E0.07703
G0 F4800 X109.723 Y109.723
G1 F600 X71.988 Y71.988 E0.0755
G0 F4800 X71.263 Y72.677
G1 F600 X108.552 Y109.966 E0.0746
G0 F4800 X107.534 Y110.363
G1 F600 X70.53 Y73.358 E0.07404
G0 F4800 X69.761 Y74.004
G1 F600 X106.444 Y110.686 E0.07339
G0 F4800 X105.141 Y110.798
G1 F600 X68.94 Y74.597 E0.07243
G0 F4800 X68.119 Y75.19
G1 F600 X93.079 Y100.15 E0.04994
G1 X93.255 Y100.326
G0 F4800 X90.8 Y99.286
G1 F600 X67.216 Y75.701 E0.04719
G0 F4800 X66.305 Y76.204
G1 F600 X89.324 Y99.224 E0.04606
G0 F4800 X88.118 Y99.432
G1 F600 X65.344 Y76.658 E0.04556
G0 F4800 X64.336 Y77.064
G1 F600 X87.101 Y99.829 E0.04555
G0 F4800 X86.211 Y100.354
G1 F600 X63.305 Y77.447 E0.04583
G0 F4800 X62.189 Y77.745
G1 F600 X85.443 Y100.999 E0.04652
G0 F4800 X84.733 Y101.703
G1 F600 X61.178 Y78.149 E0.04713
G0 F4800 X60.328 Y78.713
G1 F600 X84.022 Y102.407 E0.0474
G0 F4800 X83.312 Y103.111
G1 F600 X59.497 Y79.296 E0.04765
G0 F4800 X58.735 Y79.949
G1 F600 X82.602 Y103.816 E0.04775
G0 F4800 X81.892 Y104.519
G1 F600 X57.973 Y80.6 E0.04785
G0 F4800 X57.28 Y81.322
G1 F600 X81.182 Y105.223 E0.04782
G0 F4800 X80.413 Y105.869
G1 F600 X56.606 Y82.061 E0.04763
G0 F4800 X55.966 Y82.836
G1 F600 X79.641 Y106.511 E0.04737
G0 F4800 X78.84 Y107.125
G1 F600 X55.379 Y83.664 E0.04694
G0 F4800 X54.793 Y84.492
G1 F600 X77.964 Y107.662 E0.04636
G0 F4800 X77.088 Y108.2
G1 F600 X54.298 Y85.411 E0.0456
G0 F4800 X53.803 Y86.33
G1 F600 X76.13 Y108.657 E0.04467
G0 F4800 X75.142 Y109.083
G1 F600 X53.378 Y87.319 E0.04354
G0 F4800 X52.982 Y88.337
G1 F600 X74.117 Y109.472 E0.04228
G0 F4800 X73.005 Y109.775
G1 F600 X52.639 Y89.409 E0.04075
G0 F4800 X52.354 Y90.538
G1 F600 X71.893 Y110.077 E0.03909
G0 F4800 X70.632 Y110.23
G1 F600 X52.12 Y91.718 E0.03704
G0 F4800 X51.961 Y92.973
G1 F600 X69.371 Y110.383 E0.03483
G0 F4800 X67.935 Y110.362
