;FLAVOR:RepRap
;TIME:3821
;Filament used: 0.0358383m
;Layer height: 1
;MINX:59.674
;MINY:37.076
;MINZ:1
;MAXX:140.321
;MAXY:117.92
;MAXZ:131.544
;Generated with Cura_SteamEngine 4.11.0
T0
M104 S35
M109 S35
M82 ;absolute extrusion mode
;Pressure advances
M400 ; Finish all current moves and for pressure advances.
M572 D0 S0.00                      ;Pressure advance enabled
;Wipe
G1 Z1 F900			;Wipe height
M83			;Extruder to relative mode
M400
G1 Y140 E0.2 F900		;Draw first thin line
G1 X1 F900
G1 Y5 E0.2 F900		;Draw second thin line
G1 X2 F900
G1 Y50 F900			;Coast in case of leakage
;M82			;Extruder to absolute mode (default)
M400			; wait for moves to finish
G92 E0			; zero extruder
;MHI3D CODE END
M83 ;relative extrusion mode
G1 F480 E-0.05
;LAYER_COUNT:131
;LAYER:0
M106 S25.5
G1 F600 Z3
;MESH:HQvase11.stl
G0 F4800 X101.173 Y56.413 Z3
;TYPE:WALL-OUTER
G1 F600 Z1
G1 F480 E0.05
G1 F600 X101.772 Y56.472 E0.00085
G1 X102.575 Y56.544 E0.00114
G1 X103.663 Y56.706 E0.00156
G1 X104.188 Y56.775 E0.00075
G1 X104.813 Y56.876 E0.0009
G1 X105.333 Y56.983 E0.00075
G1 X105.684 Y57.074 E0.00051
G1 X106.204 Y57.172 E0.00075
G1 X106.798 Y57.353 E0.00088
G1 X107.303 Y57.471 E0.00073
G1 X108.105 Y57.737 E0.0012
G1 X108.7 Y57.964 E0.0009
G1 X109.491 Y58.316 E0.00122
G1 X109.641 Y58.389 E0.00024
G1 X110.299 Y58.72 E0.00104
G1 X110.733 Y58.984 E0.00072
G1 X111.367 Y59.352 E0.00104
G1 X112.032 Y59.815 E0.00115
G1 X112.541 Y60.159 E0.00087
G1 X113.035 Y60.572 E0.00091
G1 X113.855 Y61.199 E0.00146
G1 X114.417 Y61.68 E0.00105
G1 X115.049 Y62.238 E0.00119
G1 X115.598 Y62.733 E0.00105
G1 X116.039 Y63.169 E0.00088
G1 X116.337 Y63.494 E0.00062
G1 X116.832 Y64.011 E0.00101
G1 X117.089 Y64.329 E0.00058
G1 X117.768 Y65.152 E0.00151
G1 X117.981 Y65.448 E0.00052
G1 X118.288 Y65.899 E0.00077
G1 X118.682 Y66.502 E0.00102
G1 X119.017 Y67.085 E0.00095
G1 X119.432 Y67.875 E0.00126
G1 X119.832 Y68.78 E0.0014
G1 X120.007 Y69.22 E0.00067
G1 X120.301 Y69.989 E0.00116
G1 X120.497 Y70.62 E0.00093
G1 X120.794 Y71.503 E0.00132
G1 X121.027 Y72.408 E0.00132
G1 X121.243 Y73.132 E0.00107
G1 X121.349 Y73.66 E0.00076
G1 X121.496 Y74.217 E0.00081
G1 X121.577 Y74.764 E0.00078
G1 X121.646 Y75.074 E0.00045
G1 X121.705 Y75.633 E0.0008
G1 X121.779 Y76.067 E0.00062
G1 X121.807 Y76.573 E0.00072
G1 X121.85 Y77.129 E0.00079
G1 X121.857 Y78.082 E0.00135
G1 X121.81 Y79.031 E0.00134
G1 X121.78 Y79.296 E0.00038
G1 X121.732 Y79.8 E0.00072
G1 X121.659 Y80.195 E0.00057
G1 X121.588 Y80.718 E0.00075
G1 X121.496 Y81.165 E0.00065
G1 X121.354 Y81.885 E0.00104
G1 X121.284 Y82.149 E0.00039
G1 X121.123 Y82.719 E0.00084
G1 X120.903 Y83.581 E0.00126
G1 X120.616 Y84.436 E0.00128
G1 X120.291 Y85.524 E0.00161
G1 X120.096 Y86.009 E0.00074
G1 X119.895 Y86.572 E0.00085
G1 X119.636 Y87.127 E0.00087
G1 X119.304 Y87.832 E0.0011
G1 X118.916 Y88.558 E0.00116
G1 X118.753 Y88.83 E0.00045
G1 X118.342 Y89.49 E0.0011
G1 X117.916 Y90.099 E0.00105
G1 X117.744 Y90.32 E0.0004
G1 X117.206 Y91.002 E0.00123
G1 X116.671 Y91.591 E0.00113
G1 X115.977 Y92.348 E0.00145
G1 X115.765 Y92.542 E0.00041
G1 X115.213 Y93.074 E0.00108
G1 X114.522 Y93.687 E0.00131
G1 X113.738 Y94.359 E0.00146
G1 X113.223 Y94.785 E0.00095
G1 X112.788 Y95.116 E0.00077
G1 X112.492 Y95.319 E0.00051
G1 X111.829 Y95.819 E0.00117
G1 X111.345 Y96.123 E0.00081
G1 X110.992 Y96.323 E0.00057
G1 X110.496 Y96.631 E0.00083
G1 X109.959 Y96.917 E0.00086
G1 X109.191 Y97.276 E0.0012
G1 X109.017 Y97.352 E0.00027
G1 X108.488 Y97.57 E0.00081
G1 X107.618 Y97.884 E0.00131
G1 X106.974 Y98.058 E0.00094
G1 X106.633 Y98.163 E0.0005
G1 X105.383 Y98.465 E0.00182
G1 X104.97 Y98.527 E0.00059
G1 X103.82 Y98.742 E0.00166
G1 X103.182 Y98.835 E0.00091
G1 X102.346 Y98.931 E0.00119
G1 X102.016 Y98.975 E0.00047
G1 X101.395 Y99.01 E0.00088
G1 X101.074 Y99.05 E0.00046
G1 X100.568 Y99.056 E0.00072
G1 X99.948 Y99.095 E0.00088
G1 X99.396 Y99.071 E0.00078
G1 X98.803 Y99.068 E0.00084
G1 X98.011 Y99.004 E0.00112
G1 X96.969 Y98.859 E0.00149
G1 X96.288 Y98.726 E0.00098
G1 X95.425 Y98.522 E0.00125
G1 X95.109 Y98.416 E0.00047
G1 X94.478 Y98.234 E0.00093
G1 X93.941 Y98.032 E0.00081
G1 X93.325 Y97.819 E0.00092
G1 X92.824 Y97.604 E0.00077
G1 X92.144 Y97.323 E0.00104
G1 X91.455 Y97.018 E0.00107
G1 X90.795 Y96.69 E0.00104
G1 X90.267 Y96.442 E0.00083
G1 X89.8 Y96.175 E0.00076
G1 X89.259 Y95.904 E0.00086
G1 X88.977 Y95.76 E0.00045
G1 X88.369 Y95.367 E0.00102
G1 X87.7 Y94.92 E0.00114
G1 X87.3 Y94.609 E0.00072
G1 X86.997 Y94.393 E0.00053
G1 X86.127 Y93.651 E0.00162
G1 X85.678 Y93.215 E0.00089
G1 X85.228 Y92.762 E0.0009
G1 X84.663 Y92.121 E0.00121
G1 X84.195 Y91.569 E0.00102
G1 X83.8 Y91.042 E0.00093
G1 X83.282 Y90.344 E0.00123
G1 X82.612 Y89.337 E0.00171
G1 X82.222 Y88.726 E0.00103
G1 X81.716 Y87.906 E0.00136
G1 X81.455 Y87.441 E0.00075
G1 X81.303 Y87.137 E0.00048
G1 X80.922 Y86.427 E0.00114
G1 X80.686 Y85.898 E0.00082
G1 X80.545 Y85.539 E0.00055
G1 X80.328 Y85.054 E0.00075
G1 X80.114 Y84.475 E0.00087
G1 X79.867 Y83.666 E0.0012
G1 X79.821 Y83.503 E0.00024
G1 X79.659 Y82.875 E0.00092
G1 X79.406 Y81.546 E0.00191
G1 X79.326 Y80.78 E0.00109
G1 X79.252 Y80.172 E0.00087
G1 X79.228 Y79.312 E0.00122
G1 X79.171 Y78.397 E0.0013
G1 X79.179 Y77.485 E0.00129
G1 X79.173 Y76.899 E0.00083
G1 X79.175 Y76.542 E0.00051
G1 X79.216 Y75.916 E0.00089
G1 X79.273 Y75.055 E0.00122
G1 X79.339 Y74.33 E0.00103
G1 X79.418 Y73.817 E0.00073
G1 X79.495 Y73.441 E0.00054
G1 X79.593 Y72.841 E0.00086
G1 X79.714 Y72.332 E0.00074
G1 X79.951 Y71.506 E0.00122
G1 X80.006 Y71.334 E0.00026
G1 X80.195 Y70.776 E0.00083
G1 X80.359 Y70.363 E0.00063
G1 X80.54 Y69.894 E0.00071
G1 X80.798 Y69.316 E0.0009
G1 X81.092 Y68.717 E0.00094
G1 X81.431 Y68.054 E0.00105
G1 X81.766 Y67.511 E0.0009
G1 X82.288 Y66.622 E0.00146
G1 X82.555 Y66.197 E0.00071
G1 X83.122 Y65.372 E0.00142
G1 X83.591 Y64.658 E0.00121
G1 X83.904 Y64.253 E0.00072
G1 X84.144 Y63.973 E0.00052
G1 X84.683 Y63.272 E0.00125
G1 X85.235 Y62.689 E0.00114
G1 X85.594 Y62.303 E0.00075
G1 X86.02 Y61.894 E0.00084
G1 X86.711 Y61.291 E0.0013
G1 X86.877 Y61.165 E0.00029
G1 X87.364 Y60.783 E0.00088
G1 X87.794 Y60.489 E0.00074
G1 X88.09 Y60.276 E0.00052
G1 X88.528 Y59.994 E0.00074
G1 X89.035 Y59.681 E0.00084
G1 X89.454 Y59.466 E0.00067
G1 X89.92 Y59.197 E0.00076
G1 X91.055 Y58.63 E0.00179
G1 X91.737 Y58.304 E0.00107
G1 X92.656 Y57.923 E0.00141
G1 X93.303 Y57.637 E0.001
G1 X93.779 Y57.47 E0.00071
G1 X94.134 Y57.365 E0.00052
G1 X94.76 Y57.127 E0.00095
G1 X95.132 Y57.008 E0.00055
G1 X96.068 Y56.789 E0.00136
G1 X96.736 Y56.64 E0.00097
G1 X97.603 Y56.499 E0.00124
G1 X98.307 Y56.424 E0.001
G1 X98.601 Y56.408 E0.00042
G1 X99.444 Y56.368 E0.00119
G1 X99.943 Y56.366 E0.00071
G1 X100.454 Y56.396 E0.00072
G1 X101.173 Y56.413 E0.00102
G0 F4800 X101.671 Y56.462
G0 X101.679 Y57.458
;TYPE:SKIN
G1 F600 X102.445 Y57.526 E0.00109
G1 X103.526 Y57.686 E0.00155
G1 X104.035 Y57.754 E0.00073
G1 X104.646 Y57.853 E0.00088
G1 X105.468 Y58.04 E0.00119
G1 X105.968 Y58.135 E0.00072
G1 X106.54 Y58.309 E0.00085
G1 X107.034 Y58.425 E0.00072
G1 X107.773 Y58.67 E0.0011
G1 X108.318 Y58.878 E0.00083
G1 X109.066 Y59.211 E0.00116
G1 X109.196 Y59.274 E0.0002
G1 X109.821 Y59.588 E0.00099
G1 X110.228 Y59.835 E0.00067
G1 X110.835 Y60.188 E0.00099
G1 X111.472 Y60.631 E0.0011
G1 X111.943 Y60.95 E0.0008
G1 X112.417 Y61.346 E0.00087
G1 X113.242 Y61.977 E0.00147
G1 X113.762 Y62.422 E0.00097
G1 X114.39 Y62.977 E0.00119
G1 X114.909 Y63.445 E0.00099
G1 X115.342 Y63.873 E0.00086
G1 X115.614 Y64.171 E0.00057
G1 X116.086 Y64.664 E0.00097
G1 X116.323 Y64.955 E0.00053
G1 X116.984 Y65.758 E0.00147
G1 X117.17 Y66.016 E0.00045
G1 X117.459 Y66.44 E0.00073
G1 X117.833 Y67.013 E0.00097
G1 X118.14 Y67.546 E0.00087
G1 X118.55 Y68.327 E0.00125
G1 X118.912 Y69.146 E0.00127
G1 X119.082 Y69.574 E0.00065
G1 X119.376 Y70.343 E0.00116
G1 X119.555 Y70.924 E0.00086
G1 X119.839 Y71.766 E0.00126
G1 X120.073 Y72.673 E0.00133
G1 X120.282 Y73.373 E0.00103
G1 X120.384 Y73.884 E0.00074
G1 X120.523 Y74.41 E0.00077
G1 X120.603 Y74.944 E0.00076
G1 X120.668 Y75.235 E0.00042
G1 X120.723 Y75.768 E0.00076
G1 X120.795 Y76.184 E0.0006
G1 X120.819 Y76.638 E0.00064
G1 X120.86 Y77.183 E0.00077
G1 X120.867 Y78.09 E0.00128
G1 X120.825 Y78.929 E0.00119
G1 X120.75 Y79.664 E0.00105
G1 X120.681 Y80.039 E0.00054
G1 X120.613 Y80.541 E0.00072
G1 X120.526 Y80.969 E0.00062
G1 X120.385 Y81.682 E0.00103
G1 X120.332 Y81.88 E0.00029
G1 X120.167 Y82.462 E0.00086
G1 X119.952 Y83.304 E0.00123
G1 X119.672 Y84.137 E0.00124
G1 X119.357 Y85.193 E0.00156
G1 X119.17 Y85.658 E0.00071
G1 X118.976 Y86.202 E0.00082
G1 X118.426 Y87.375 E0.00183
G1 X118.053 Y88.073 E0.00112
G1 X117.908 Y88.314 E0.0004
G1 X117.53 Y88.922 E0.00101
G1 X117.109 Y89.524 E0.00104
G1 X116.442 Y90.371 E0.00153
G1 X115.941 Y90.922 E0.00105
G1 X115.282 Y91.641 E0.00138
G1 X115.087 Y91.82 E0.00037
G1 X114.541 Y92.347 E0.00107
G1 X113.878 Y92.935 E0.00125
G1 X113.1 Y93.602 E0.00145
G1 X112.623 Y93.997 E0.00088
G1 X112.196 Y94.322 E0.00076
G1 X111.914 Y94.515 E0.00048
G1 X111.27 Y95.001 E0.00114
G1 X110.833 Y95.275 E0.00073
G1 X110.487 Y95.471 E0.00056
G1 X109.987 Y95.781 E0.00083
G1 X109.528 Y96.026 E0.00074
G1 X108.782 Y96.374 E0.00116
G1 X108.629 Y96.441 E0.00024
G1 X108.126 Y96.649 E0.00077
G1 X107.325 Y96.937 E0.0012
G1 X106.699 Y97.107 E0.00092
G1 X106.359 Y97.211 E0.0005
G1 X105.196 Y97.492 E0.00169
G1 X104.806 Y97.551 E0.00056
G1 X103.664 Y97.764 E0.00164
G1 X103.057 Y97.853 E0.00087
G1 X102.224 Y97.949 E0.00119
G1 X101.908 Y97.99 E0.00045
G1 X101.306 Y98.024 E0.00085
G1 X100.531 Y98.066 E0.0011
G1 X99.947 Y98.103 E0.00083
G1 X99.42 Y98.081 E0.00075
G1 X98.835 Y98.078 E0.00083
G1 X98.122 Y98.02 E0.00101
G1 X97.151 Y97.885 E0.00139
G1 X96.502 Y97.758 E0.00094
G1 X95.691 Y97.567 E0.00118
G1 X95.404 Y97.471 E0.00043
G1 X94.792 Y97.294 E0.0009
G1 X94.277 Y97.101 E0.00078
G1 X93.675 Y96.893 E0.0009
G1 X93.208 Y96.692 E0.00072
G1 X92.522 Y96.408 E0.00105
G1 X91.893 Y96.13 E0.00097
G1 X91.226 Y95.799 E0.00105
G1 X90.719 Y95.56 E0.00079
G1 X90.268 Y95.302 E0.00074
G1 X89.469 Y94.9 E0.00127
G1 X88.913 Y94.54 E0.00094
G1 X88.28 Y94.117 E0.00108
G1 X87.606 Y93.612 E0.00119
G1 X86.8 Y92.925 E0.0015
G1 X86.367 Y92.504 E0.00085
G1 X85.957 Y92.091 E0.00082
G1 X85.405 Y91.466 E0.00118
G1 X84.979 Y90.965 E0.00093
G1 X84.087 Y89.767 E0.00211
G1 X83.441 Y88.796 E0.00165
G1 X83.097 Y88.258 E0.0009
G1 X82.559 Y87.386 E0.00145
G1 X82.182 Y86.682 E0.00113
G1 X81.813 Y85.992 E0.00111
G1 X81.591 Y85.495 E0.00077
G1 X81.458 Y85.155 E0.00052
G1 X81.245 Y84.681 E0.00074
G1 X81.056 Y84.171 E0.00077
G1 X80.814 Y83.377 E0.00117
G1 X80.773 Y83.234 E0.00021
G1 X80.625 Y82.66 E0.00084
G1 X80.386 Y81.401 E0.00181
G1 X80.31 Y80.669 E0.00104
G1 X80.242 Y80.111 E0.0008
G1 X80.218 Y79.267 E0.00119
G1 X80.161 Y78.371 E0.00127
G1 X80.169 Y77.485 E0.00125
G1 X80.163 Y76.905 E0.00082
G1 X80.165 Y76.579 E0.00046
G1 X80.259 Y75.144 E0.00203
G1 X80.323 Y74.441 E0.001
G1 X80.469 Y73.619 E0.00118
G1 X80.564 Y73.037 E0.00083
G1 X80.672 Y72.584 E0.00066
G1 X80.9 Y71.791 E0.00117
G1 X80.94 Y71.662 E0.00019
G1 X81.124 Y71.122 E0.00081
G1 X81.45 Y70.286 E0.00127
G1 X81.695 Y69.736 E0.00085
G1 X81.977 Y69.161 E0.00091
G1 X82.291 Y68.547 E0.00098
G1 X82.614 Y68.021 E0.00087
G1 X83.134 Y67.136 E0.00145
G1 X83.371 Y66.758 E0.00063
G1 X83.944 Y65.924 E0.00143
G1 X84.39 Y65.244 E0.00115
G1 X84.913 Y64.597 E0.00118
G1 X85.433 Y63.92 E0.00121
G1 X85.957 Y63.366 E0.00108
G1 X86.292 Y63.005 E0.0007
G1 X86.688 Y62.625 E0.00078
G1 X87.343 Y62.053 E0.00123
G1 X87.481 Y61.949 E0.00024
G1 X87.951 Y61.581 E0.00084
G1 X88.65 Y61.094 E0.00121
G1 X89.057 Y60.831 E0.00069
G1 X89.516 Y60.547 E0.00076
G1 X89.928 Y60.335 E0.00066
G1 X90.395 Y60.066 E0.00076
G1 X91.482 Y59.523 E0.00172
G1 X92.131 Y59.213 E0.00102
G1 X93.046 Y58.833 E0.0014
G1 X93.656 Y58.563 E0.00094
G1 X94.451 Y58.304 E0.00118
G1 X95.085 Y58.062 E0.00096
G1 X95.392 Y57.964 E0.00046
G1 X96.294 Y57.753 E0.00131
G1 X96.907 Y57.616 E0.00089
G1 X97.758 Y57.477 E0.00122
G1 X98.39 Y57.41 E0.0009
G1 X99.449 Y57.358 E0.0015
G1 X100.413 Y57.386 E0.00136
G1 X101.106 Y57.402 E0.00098
G1 X101.679 Y57.458 E0.00081
G1 F480 E-0.05
G1 F600 Z3
G0 F4800 X118.243 Y68.745 Z3
G1 F600 Z1
G1 F480 E0.05
G1 F600 X109.355 Y59.858 E0.01778
G1 X109.179 Y59.682
G0 F4800 X106.956 Y58.873
G1 F600 X119.117 Y71.034 E0.02433
G1 X119.293 Y71.21
G0 F4800 X119.713 Y73.044
G1 F600 X105.083 Y58.414 E0.02927
G0 F4800 X103.374 Y58.119
G1 F600 X120.137 Y74.882 E0.03354
G0 F4800 X120.362 Y76.521
G1 F600 X101.757 Y57.916 E0.03722
G0 F4800 X100.258 Y57.832
G1 F600 X120.416 Y77.989 E0.04033
G0 F4800 X120.333 Y79.321
G1 F600 X98.849 Y57.837 E0.04298
G0 F4800 X97.562 Y57.964
G1 F600 X120.15 Y80.552 E0.04519
G0 F4800 X119.907 Y81.723
G1 F600 X96.379 Y58.195 E0.04707
G0 F4800 X95.25 Y58.481
G1 F600 X119.607 Y82.837 E0.04873
G0 F4800 X119.271 Y83.915
G1 F600 X94.21 Y58.855 E0.05014
G0 F4800 X93.198 Y59.257
G1 F600 X118.944 Y85.003 E0.05151
G0 F4800 X118.558 Y86.031
G1 F600 X92.203 Y59.676 E0.05273
G0 F4800 X91.252 Y60.14
G1 F600 X118.107 Y86.994 E0.05373
G0 F4800 X117.619 Y87.92
G1 F600 X90.324 Y60.625 E0.05461
G0 F4800 X89.42 Y61.135
G1 F600 X117.072 Y88.788 E0.05532
G0 F4800 X116.473 Y89.603
G1 F600 X88.568 Y61.698 E0.05583
G0 F4800 X87.759 Y62.303
G1 F600 X115.83 Y90.374 E0.05616
G0 F4800 X115.154 Y91.112
G1 F600 X86.996 Y62.954 E0.05634
G0 F4800 X86.292 Y63.665
G1 F600 X114.442 Y91.814 E0.05632
G0 F4800 X113.701 Y92.488
G1 F600 X85.622 Y64.409 E0.05618
G0 F4800 X85.001 Y65.202
G1 F600 X112.941 Y93.142 E0.0559
G0 F4800 X112.164 Y93.779
G1 F600 X84.412 Y66.028 E0.05552
G0 F4800 X83.839 Y66.868
G1 F600 X111.348 Y94.377 E0.05504
G0 F4800 X110.501 Y94.945
G1 F600 X83.298 Y67.742 E0.05443
G0 F4800 X82.768 Y68.626
G1 F600 X109.612 Y95.47 E0.05371
G0 F4800 X108.661 Y95.933
G1 F600 X82.283 Y69.555 E0.05277
G0 F4800 X81.838 Y70.524
G1 F600 X107.653 Y96.339 E0.05165
G0 F4800 X106.574 Y96.674
G1 F600 X81.451 Y71.552 E0.05026
G0 F4800 X81.123 Y72.638
G1 F600 X105.452 Y96.966 E0.04867
G0 F4800 X104.264 Y97.193
G1 F600 X80.889 Y73.818 E0.04677
G0 F4800 X80.716 Y75.06
G1 F600 X103.054 Y97.397 E0.04469
G0 F4800 X101.788 Y97.546
G1 F600 X80.627 Y76.384 E0.04234
G0 F4800 X80.615 Y77.787
G1 F600 X100.448 Y97.619 E0.03968
G0 F4800 X99.042 Y97.628
G1 F600 X80.667 Y79.253 E0.03676
G0 F4800 X80.772 Y80.772
G1 F600 X97.474 Y97.474 E0.03342
G0 F4800 X95.67 Y97.085
G1 F600 X81.045 Y82.459 E0.02926
G1 X80.869 Y82.283
G0 F4800 X81.651 Y84.479
G1 F600 X93.497 Y96.326 E0.0237
G1 X93.673 Y96.502
G0 F4800 X90.902 Y95.144
G1 F600 X83 Y87.242 E0.01581
G1 X82.824 Y87.066
G1 F480 E-0.05
G1 F600 Z3
;MESH:NONMESH
G0 F4800 X83.288 Y64.166 Z3
;TIME_ELAPSED:159.009123
;LAYER:1
;MESH:HQvase11.stl
G0 X83.288 Y64.166 Z4
;TYPE:WALL-OUTER
G1 F600 Z2
G1 F480 E0.05
G1 F554.7 X83.634 Y63.591 E0.00095
G1 X84.303 Y62.728 E0.00154
G1 X84.615 Y62.315 E0.00073
G1 X85.261 Y61.608 E0.00135
G1 X85.639 Y61.249 E0.00074
G1 X86.048 Y60.894 E0.00077
G1 X86.485 Y60.566 E0.00077
G1 X87.205 Y60.065 E0.00124
G1 X88.162 Y59.519 E0.00156
G1 X88.226 Y59.478 E0.00011
G1 X89.177 Y59.003 E0.0015
G1 X89.793 Y58.691 E0.00098
G1 X90.251 Y58.492 E0.00071
G1 X91.744 Y57.783 E0.00234
G1 X93.049 Y57.186 E0.00203
G1 X93.458 Y56.975 E0.00065
G1 X94.262 Y56.661 E0.00122
G1 X94.61 Y56.494 E0.00055
G1 X95.288 Y56.275 E0.00101
G1 X95.451 Y56.205 E0.00025
G1 X96.246 Y55.993 E0.00116
G1 X97.204 Y55.823 E0.00138
G1 X97.794 Y55.762 E0.00084
G1 X98.323 Y55.725 E0.00075
G1 X98.512 Y55.73 E0.00027
G1 X99.346 Y55.72 E0.00118
G1 X100.009 Y55.758 E0.00094
G1 X100.333 Y55.794 E0.00046
G1 X101.39 Y55.942 E0.00151
G1 X102.114 Y56.01 E0.00103
G1 X102.386 Y56.051 E0.00039
G1 X103.962 Y56.259 E0.00225
G1 X104.22 Y56.283 E0.00037
G1 X105.167 Y56.42 E0.00135
G1 X105.767 Y56.482 E0.00085
G1 X106.352 Y56.592 E0.00084
G1 X107.214 Y56.79 E0.00125
G1 X107.75 Y56.889 E0.00077
G1 X108.485 Y57.113 E0.00109
G1 X109.095 Y57.335 E0.00092
G1 X109.424 Y57.481 E0.00051
G1 X109.929 Y57.724 E0.00079
G1 X110.228 Y57.874 E0.00047
G1 X110.702 Y58.161 E0.00078
G1 X111.252 Y58.525 E0.00093
G1 X112.103 Y59.129 E0.00148
G1 X112.58 Y59.546 E0.0009
G1 X113.815 Y60.564 E0.00226
G1 X114.176 Y60.867 E0.00067
