;FLAVOR:RepRap
;TIME:8992
;Filament used: 0.0478454m
;Layer height: 0.4
;MINX:81.407
;MINY:30.169
;MINZ:0.4
;MAXX:113.102
;MAXY:75.771
;MAXZ:55.2
;Generated with Cura_SteamEngine 4.11.0
T0
M104 S35
M109 S35
M82 ;absolute extrusion mode
;Pressure advances
M400 ; Finish all current moves and for pressure advances.
M572 D0 S0.00                      ;Pressure advance enabled
;Wipe
G1 Z1 F900			;Wipe height
M83			;Extruder to relative mode
M400
G1 Y140 E0.2 F900		;Draw first thin line
G1 X1 F900
G1 Y5 E0.2 F900		;Draw second thin line
G1 X2 F900
G1 Y50 F900			;Coast in case of leakage
;M82			;Extruder to absolute mode (default)
M400			; wait for moves to finish
G92 E0			; zero extruder
;MHI3D CODE END
M83 ;relative extrusion mode
G1 F480 E-0.05
;LAYER_COUNT:137
;LAYER:0
M107
G1 F600 Z2.4
;MESH:squirrelKnight.stl
G0 F4800 X86.748 Y58.737 Z2.4
;TYPE:WALL-OUTER
G1 F600 Z0.4
G1 F480 E0.05
G1 F600 X86.402 Y58.155 E0.00038
G1 X85.988 Y56.679 E0.00087
G1 X85.822 Y55.782 E0.00052
G1 X85.763 Y55.48 E0.00017
G1 X85.608 Y54.858 E0.00036
G1 X85.485 Y54.314 E0.00032
G1 X85.467 Y54.162 E0.00009
G1 X85.47 Y53.637 E0.0003
G1 X85.329 Y52.706 E0.00053
G1 X85.29 Y52.282 E0.00024
G1 X85.335 Y51.045 E0.0007
G1 X85.38 Y50.775 E0.00015
G1 X85.312 Y50.353 E0.00024
G1 X85.319 Y50.05 E0.00017
G1 X85.523 Y47.352 E0.00153
G1 X85.627 Y46.522 E0.00047
G1 X85.842 Y45.466 E0.00061
G1 X85.953 Y44.99 E0.00028
G1 X86.135 Y44.362 E0.00037
G1 X86.245 Y44.052 E0.00019
G1 X86.42 Y43.525 E0.00031
G1 X86.635 Y43.001 E0.00032
G1 X86.664 Y42.947 E0.00003
G1 X87.085 Y42.32 E0.00043
G1 X87.508 Y41.902 E0.00034
G1 X87.97 Y41.803 E0.00027
G1 X88.788 Y41.644 E0.00047
G1 X89.424 Y41.607 E0.00036
G1 X89.664 Y41.637 E0.00014
G1 X90.729 Y42.007 E0.00064
G1 X91.351 Y42.226 E0.00037
G1 X92.987 Y43.459 E0.00116
G1 X93.033 Y43.509 E0.00004
G1 X93.004 Y43.766 E0.00015
G1 X93.418 Y44.16 E0.00032
G1 X93.683 Y44.587 E0.00028
G1 X94.08 Y44.86 E0.00027
G1 X94.615 Y45.145 E0.00034
G1 X95.01 Y45.254 E0.00023
G1 X96.027 Y45.332 E0.00058
G1 X96.719 Y45.481 E0.0004
G1 X97.307 Y45.44 E0.00033
G1 X97.84 Y45.528 E0.00031
G1 X98.871 Y45.656 E0.00059
G1 X99.235 Y45.713 E0.00021
G1 X100.017 Y45.893 E0.00045
G1 X100.243 Y45.888 E0.00013
G1 X100.514 Y45.966 E0.00016
G1 X101.15 Y46.023 E0.00036
G1 X101.506 Y45.998 E0.0002
G1 X101.684 Y45.906 E0.00011
G1 X101.982 Y45.86 E0.00017
G1 X102.403 Y45.646 E0.00027
G1 X102.75 Y45.373 E0.00025
G1 X103.108 Y44.935 E0.00032
G1 X103.383 Y44.553 E0.00027
G1 X103.814 Y44.259 E0.0003
G1 X103.987 Y44.17 E0.00011
G1 X104.303 Y44.099 E0.00018
G1 X105.252 Y43.944 E0.00054
G1 X105.888 Y43.908 E0.00036
G1 X106.438 Y43.946 E0.00031
G1 X106.742 Y43.924 E0.00017
G1 X107.177 Y44.098 E0.00027
G1 X107.955 Y44.427 E0.00048
G1 X108.561 Y44.672 E0.00037
G1 X108.719 Y44.769 E0.0001
G1 X109.047 Y45.22 E0.00032
G1 X109.401 Y45.859 E0.00041
G1 X109.441 Y45.936 E0.00005
G1 X109.601 Y46.679 E0.00043
G1 X109.891 Y47.656 E0.00058
G1 X109.929 Y47.812 E0.00009
G1 X109.943 Y48.369 E0.00032
G1 X110.052 Y49.227 E0.00049
G1 X110.042 Y49.491 E0.00015
G1 X109.91 Y50.448 E0.00055
G1 X109.885 Y51.204 E0.00043
G1 X109.877 Y51.364 E0.00009
G1 X109.697 Y52.304 E0.00054
G1 X109.518 Y53.203 E0.00052
G1 X109.427 Y53.74 E0.00031
G1 X109.223 Y54.751 E0.00058
G1 X109.019 Y55.923 E0.00067
G1 X108.626 Y57.257 E0.00079
G1 X108.573 Y57.408 E0.00009
G1 X108.073 Y58.667 E0.00077
G1 X107.993 Y58.811 E0.00009
G1 X107.295 Y59.828 E0.0007
G1 X107.175 Y59.993 E0.00012
G1 X105.984 Y61.393 E0.00104
G1 X105.921 Y61.521 E0.00008
G1 X105.78 Y61.66 E0.00011
G1 X105.388 Y62.067 E0.00032
G1 X104.89 Y62.539 E0.00039
G1 X104.592 Y62.845 E0.00024
G1 X103.4 Y63.77 E0.00085
G1 X103.072 Y63.955 E0.00021
G1 X102.785 Y64.06 E0.00017
G1 X101.9 Y64.602 E0.00059
G1 X101.358 Y64.914 E0.00035
G1 X100.301 Y65.534 E0.00069
G1 X99.438 Y66.361 E0.00068
G1 X99.194 Y66.56 E0.00018
G1 X98.706 Y66.876 E0.00033
G1 X98.259 Y67.292 E0.00035
G1 X97.967 Y67.504 E0.0002
G1 X97.36 Y67.767 E0.00037
G1 X97.039 Y67.952 E0.00021
G1 X96.666 Y68.104 E0.00023
G1 X95.461 Y68.377 E0.0007
G1 X94.725 Y68.23 E0.00042
G1 X94.045 Y68.157 E0.00039
G1 X93.56 Y68.029 E0.00028
G1 X93.189 Y67.812 E0.00024
G1 X92.576 Y67.618 E0.00036
G1 X92.353 Y67.528 E0.00014
G1 X91.775 Y67.075 E0.00042
G1 X91.271 Y66.627 E0.00038
G1 X90.588 Y65.863 E0.00058
G1 X90.482 Y65.707 E0.00011
G1 X89.337 Y63.904 E0.00121
G1 X88.837 Y63.171 E0.0005
G1 X88.038 Y61.893 E0.00085
G1 X87.684 Y61.248 E0.00042
G1 X87.236 Y60.337 E0.00057
G1 X86.833 Y59.502 E0.00052
G1 X86.824 Y59.325 E0.0001
G1 X86.748 Y58.737 E0.00034
G0 F4800 X86.493 Y58.308
G0 X87.319 Y57.76
;TYPE:SKIN
G1 F600 X86.955 Y56.463 E0.00076
G1 X86.794 Y55.597 E0.0005
G1 X86.73 Y55.266 E0.00019
G1 X86.572 Y54.63 E0.00037
G1 X86.457 Y54.099 E0.00031
G1 X86.46 Y53.565 E0.0003
G1 X86.313 Y52.601 E0.00055
G1 X86.282 Y52.259 E0.00019
G1 X86.323 Y51.138 E0.00063
G1 X86.384 Y50.778 E0.00021
G1 X86.304 Y50.282 E0.00028
G1 X86.307 Y50.125 E0.00009
G1 X86.511 Y47.427 E0.00153
G1 X86.604 Y46.683 E0.00042
G1 X86.806 Y45.691 E0.00057
G1 X86.911 Y45.241 E0.00026
G1 X87.082 Y44.653 E0.00035
G1 X87.181 Y44.373 E0.00017
G1 X87.352 Y43.863 E0.0003
G1 X87.526 Y43.439 E0.00026
G1 X87.853 Y42.954 E0.00033
G1 X87.998 Y42.81 E0.00012
G1 X88.178 Y42.771 E0.0001
G1 X88.914 Y42.628 E0.00042
G1 X89.437 Y42.606 E0.0003
G1 X90.235 Y42.883 E0.00048
G1 X90.879 Y43.11 E0.00039
G1 X91.987 Y43.944 E0.00078
G1 X91.964 Y44.144 E0.00011
G1 X92.644 Y44.791 E0.00053
G1 X92.951 Y45.286 E0.00033
G1 X93.565 Y45.708 E0.00042
G1 X94.246 Y46.07 E0.00044
G1 X94.839 Y46.234 E0.00035
G1 X95.89 Y46.316 E0.0006
G1 X96.648 Y46.479 E0.00044
G1 X97.265 Y46.436 E0.00035
G1 X97.698 Y46.508 E0.00025
G1 X98.722 Y46.635 E0.00058
G1 X99.043 Y46.685 E0.00018
G1 X99.915 Y46.885 E0.00051
G1 X100.114 Y46.881 E0.00011
G1 X100.331 Y46.944 E0.00013
G1 X101.14 Y47.017 E0.00046
G1 X101.78 Y46.972 E0.00036
G1 X101.998 Y46.858 E0.00014
G1 X102.289 Y46.814 E0.00017
G1 X102.938 Y46.484 E0.00041
G1 X103.447 Y46.084 E0.00037
G1 X103.894 Y45.539 E0.0004
G1 X104.086 Y45.272 E0.00019
G1 X104.327 Y45.109 E0.00016
G1 X104.496 Y45.071 E0.0001
G1 X105.364 Y44.929 E0.0005
G1 X105.877 Y44.9 E0.00029
G1 X106.44 Y44.938 E0.00032
G1 X106.587 Y44.928 E0.00008
G1 X106.755 Y44.995 E0.0001
G1 X107.577 Y45.342 E0.0005
G1 X108.05 Y45.532 E0.00029
G1 X108.21 Y45.753 E0.00015
G1 X108.502 Y46.28 E0.00034
G1 X108.641 Y46.925 E0.00037
G1 X108.935 Y47.914 E0.00058
G1 X108.941 Y47.94 E0.00002
G1 X108.955 Y48.445 E0.00029
G1 X109.06 Y49.266 E0.00047
G1 X109.054 Y49.418 E0.00009
G1 X108.922 Y50.363 E0.00054
G1 X108.893 Y51.244 E0.0005
G1 X108.726 Y52.11 E0.0005
G1 X108.544 Y53.023 E0.00053
G1 X108.457 Y53.544 E0.0003
G1 X108.25 Y54.568 E0.00059
G1 X108.053 Y55.699 E0.00065
G1 X107.684 Y56.951 E0.00074
G1 X107.645 Y57.062 E0.00007
G1 X107.178 Y58.239 E0.00072
G1 X107.147 Y58.294 E0.00004
G1 X106.494 Y59.247 E0.00065
G1 X106.403 Y59.373 E0.00009
G1 X105.151 Y60.844 E0.00109
G1 X105.075 Y60.964 E0.00008
G1 X104.7 Y61.355 E0.00031
G1 X104.195 Y61.834 E0.00039
G1 X103.931 Y62.106 E0.00021
G1 X102.856 Y62.939 E0.00077
G1 X102.351 Y63.165 E0.00031
G1 X101.389 Y63.754 E0.00064
G1 X100.861 Y64.058 E0.00034
G1 X99.699 Y64.738 E0.00076
G1 X98.775 Y65.626 E0.00073
G1 X98.615 Y65.755 E0.00012
G1 X98.094 Y66.092 E0.00035
G1 X97.632 Y66.524 E0.00036
G1 X97.471 Y66.64 E0.00011
G1 X96.915 Y66.882 E0.00034
G1 X96.367 Y67.156 E0.00035
G1 X95.446 Y67.365 E0.00053
G1 X94.875 Y67.25 E0.00033
G1 X94.227 Y67.181 E0.00037
G1 X93.945 Y67.107 E0.00016
G1 X93.593 Y66.901 E0.00023
G1 X92.916 Y66.687 E0.0004
G1 X92.853 Y66.662 E0.00004
G1 X92.398 Y66.305 E0.00033
G1 X91.975 Y65.929 E0.00032
G1 X91.37 Y65.251 E0.00051
G1 X91.31 Y65.163 E0.00006
G1 X90.164 Y63.359 E0.00121
G1 X89.666 Y62.629 E0.0005
G1 X88.892 Y61.39 E0.00083
G1 X88.563 Y60.791 E0.00039
G1 X88.06 Y59.769 E0.00064
G1 X87.811 Y59.252 E0.00032
G1 X87.704 Y58.407 E0.00048
G1 X87.319 Y57.76 E0.00043
G1 F480 E-0.05
G1 F600 Z2.4
G0 F4800 X93.163 Y66.293 Z2.4
G1 F600 Z0.4
G1 F480 E0.05
G1 F600 X91.51 Y64.64 E0.00132
G1 X91.334 Y64.464
G0 F4800 X95.125 Y66.841
G1 F600 X89.077 Y60.792 E0.00484
G1 X88.901 Y60.616
G0 F4800 X88.163 Y58.465
G1 F600 X96.355 Y66.656 E0.00656
G0 F4800 X97.312 Y66.199
G1 F600 X87.373 Y56.26 E0.00795
G0 F4800 X86.996 Y54.469
G1 F600 X98.087 Y65.56 E0.00888
G0 F4800 X98.859 Y64.918
G1 F600 X86.807 Y52.866 E0.00964
G0 F4800 X86.762 Y51.407
G1 F600 X99.617 Y64.262 E0.01029
G0 F4800 X100.51 Y63.74
G1 F600 X86.766 Y49.997 E0.011
G0 F4800 X86.866 Y48.682
G1 F600 X101.401 Y63.218 E0.01163
G0 F4800 X102.294 Y62.696
G1 F600 X86.969 Y47.371 E0.01226
G0 F4800 X87.169 Y46.157
G1 F600 X103.151 Y62.139 E0.01279
G0 F4800 X103.909 Y61.482
G1 F600 X87.443 Y45.017 E0.01318
G0 F4800 X87.797 Y43.957
G1 F600 X104.624 Y60.783 E0.01347
G0 F4800 X105.266 Y60.012
G1 F600 X88.434 Y43.179 E0.01347
G0 F4800 X89.917 Y43.248
G1 F600 X105.917 Y59.248 E0.0128
G0 F4800 X106.51 Y58.426
G1 F600 X94.763 Y46.68 E0.0094
G0 F4800 X96.379 Y46.881
G1 F600 X106.989 Y57.492 E0.00849
G0 F4800 X107.362 Y56.45
G1 F600 X97.898 Y46.986 E0.00757
G0 F4800 X99.6 Y47.275
G1 F600 X107.659 Y55.333 E0.00645
G0 F4800 X107.878 Y54.138
G1 F600 X101.204 Y47.464 E0.00534
G0 F4800 X102.406 Y47.252
G1 F600 X108.1 Y52.946 E0.00456
G0 F4800 X108.333 Y51.765
G1 F600 X103.322 Y46.753 E0.00401
G0 F4800 X104.045 Y46.062
G1 F600 X108.467 Y50.484 E0.00354
G0 F4800 X108.596 Y49.199
G1 F600 X104.863 Y45.466 E0.00299
G0 F4800 X106.183 Y45.372
G1 F600 X108.355 Y47.544 E0.00174
G1 X108.531 Y47.72
G1 F480 E-0.05
G1 F600 Z2.4
;MESH:NONMESH
G0 F4800 X86.475 Y45.418 Z2.4
;TIME_ELAPSED:60.408637
;LAYER:1
;MESH:squirrelKnight.stl
G0 X86.475 Y45.418 Z2.8
;TYPE:FILL
G1 F600 Z0.8
G1 F480 E0.05
G1 F600 X86.475 Y56.121 E0.00606
G1 X86.429 Y55.933 E0.00011
G1 X86.343 Y55.4 E0.00031
G1 X86.079 Y54.396 E0.00059
G1 X86.053 Y53.92 E0.00027
G1 X86.053 Y53.533 E0.00022
G1 X85.968 Y52.976 E0.00032
G1 X85.917 Y52.019 E0.00054
G1 X85.9 Y50.457 E0.00088
G1 X85.94 Y49.644 E0.00046
G1 X86.155 Y47.32 E0.00132
G1 X86.255 Y46.936 E0.00022
G1 X86.407 Y45.812 E0.00064
G1 X86.461 Y45.46 E0.0002
G1 X86.968 Y43.959 E0.0009
G1 X87.139 Y43.538 E0.00026
G1 X87.387 Y43.084 E0.00029
G1 X87.455 Y42.981 E0.00007
G1 X87.455 Y59.363 E0.00927
G1 X87.563 Y59.561 E0.00013
G1 X87.657 Y59.866 E0.00018
G1 X87.909 Y60.4 E0.00033
G1 X88.113 Y60.808 E0.00026
G1 X88.435 Y61.422 E0.00039
G1 X88.435 Y42.416 E0.01076
G1 X88.549 Y42.403 E0.00006
G1 X89.415 Y42.337 E0.00049
G1 X89.415 Y62.914 E0.01164
G1 X90.236 Y64.179 E0.00085
G1 X90.395 Y64.429 E0.00017
G1 X90.395 Y42.555 E0.01238
G1 X90.503 Y42.587 E0.00006
G1 X90.704 Y42.691 E0.00013
G1 X91.375 Y42.993 E0.00042
G1 X91.375 Y65.923 E0.01298
G1 X91.6 Y66.252 E0.00023
G1 X92.355 Y66.91 E0.00057
G1 X92.355 Y43.728 E0.01312
G1 X92.371 Y43.744 E0.00001
G1 X92.816 Y44.575 E0.00053
G1 X93.253 Y45.232 E0.00045
G1 X93.335 Y45.284 E0.00005
G1 X93.335 Y67.581 E0.01262
G1 X93.703 Y67.808 E0.00024
G1 X93.723 Y67.818 E0.00001
G1 X93.952 Y67.843 E0.00013
G1 X94.315 Y67.904 E0.00021
G1 X94.315 Y45.921 E0.01244
G1 X95.019 Y46.121 E0.00041
G1 X95.295 Y46.139 E0.00016
G1 X95.295 Y67.976 E0.01236
G1 X96.124 Y67.837 E0.00048
G1 X96.275 Y67.759 E0.0001
G1 X96.275 Y46.201 E0.0122
G1 X96.379 Y46.207 E0.00006
G1 X96.913 Y46.26 E0.0003
G1 X97.255 Y46.337 E0.0002
G1 X97.255 Y67.228 E0.01182
G1 X97.565 Y67.087 E0.00019
G1 X97.618 Y67.047 E0.00004
G1 X97.807 Y66.809 E0.00017
G1 X98.228 Y66.496 E0.0003
G1 X98.235 Y66.492 E0
G1 X98.235 Y46.468 E0.01133
G1 X98.576 Y46.497 E0.00019
G1 X99.215 Y46.618 E0.00037
G1 X99.215 Y65.738 E0.01082
G1 X99.348 Y65.613 E0.0001
G1 X99.919 Y65.056 E0.00045
G1 X100.195 Y64.892 E0.00018
G1 X100.195 Y46.799 E0.01024
G1 X101.035 Y46.875 E0.00048
G1 X101.175 Y46.864 E0.00008
G1 X101.175 Y64.308 E0.00987
G1 X102.155 Y63.737 E0.00064
G1 X102.155 Y46.699 E0.00964
G1 X102.738 Y46.404 E0.00037
G1 X102.908 Y46.213 E0.00014
G1 X103.135 Y46.036 E0.00016
G1 X103.135 Y63.166 E0.00969
G1 X103.321 Y63.057 E0.00012
G1 X103.475 Y62.945 E0.00011
G1 X104.115 Y62.405 E0.00047
G1 X104.115 Y45.008 E0.00984
G1 X104.286 Y44.899 E0.00011
G1 X105.095 Y44.719 E0.00047
G1 X105.095 Y61.556 E0.00953
G1 X105.118 Y61.535 E0.00002
G1 X105.62 Y60.899 E0.00046
G1 X105.961 Y60.519 E0.00029
G1 X106.075 Y60.372 E0.00011
G1 X106.075 Y44.557 E0.00895
G1 X106.09 Y44.557 E0.00001
G1 X106.802 Y44.707 E0.00041
G1 X107.055 Y44.798 E0.00015
G1 X107.055 Y59.035 E0.00806
G1 X107.227 Y58.783 E0.00017
G1 X107.57 Y58.165 E0.0004
G1 X107.65 Y57.961 E0.00012
G1 X107.929 Y57.153 E0.00048
G1 X108.509 Y55.304 E0.0011
G1 X108.945 Y53.061 E0.00129
G1 X108.988 Y52.743 E0.00018
G1 X109.015 Y52.518 E0.00013
G1 X109.015 Y46.748 E0.00327
G1 X109.007 Y46.71 E0.00002
G1 X108.712 Y45.962 E0.00046
G1 X108.458 Y45.475 E0.00031
G1 X108.351 Y45.414 E0.00007
G1 X108.035 Y45.22 E0.00021
G1 X108.035 Y56.816 E0.00656
G1 X108.035 Y57.066
G1 F480 E-0.05
G1 F600 Z2.8
G0 F4800 X100.277 Y45.801 Z2.8
;TYPE:WALL-OUTER
G1 F600 Z0.8
G1 F480 E0.05
G1 F600 X101.043 Y45.871 E0.00044
G1 X101.671 Y45.824 E0.00036
G1 X102.118 Y45.597 E0.00028
G1 X102.224 Y45.479 E0.00009
G1 X102.671 Y45.13 E0.00032
G1 X102.762 Y45.008 E0.00009
G1 X103.31 Y44.349 E0.00049
G1 X103.366 Y44.3 E0.00004
G1 X103.828 Y44.005 E0.00031
G1 X103.976 Y43.944 E0.00009
G1 X105.184 Y43.676 E0.0007
G1 X105.716 Y43.579 E0.00031
G1 X106.16 Y43.551 E0.00025
G1 X107.084 Y43.745 E0.00053
G1 X108.155 Y44.13 E0.00064
G1 X108.23 Y44.166 E0.00005
G1 X108.858 Y44.552 E0.00042
G1 X109.198 Y44.743 E0.00022
G1 X109.229 Y44.791 E0.00003
G1 X109.625 Y45.551 E0.00048
G1 X109.969 Y46.424 E0.00053
G1 X110.254 Y47.762 E0.00077
G1 X110.34 Y48.148 E0.00022
G1 X110.392 Y48.77 E0.00035
G1 X110.336 Y50.491 E0.00097
G1 X110.333 Y50.524 E0.00002
G1 X110.153 Y51.425 E0.00052
G1 X109.978 Y52.878 E0.00083
G1 X109.927 Y53.251 E0.00021
G1 X109.481 Y55.548 E0.00132
G1 X108.875 Y57.479 E0.00115
G1 X108.589 Y58.306 E0.0005
G1 X108.479 Y58.585 E0.00017
G1 X108.07 Y59.324 E0.00048
G1 X107.746 Y59.797 E0.00032
G1 X106.928 Y60.902 E0.00078
G1 X106.729 Y61.161 E0.00018
G1 X106.386 Y61.543 E0.00029
G1 X105.846 Y62.226 E0.00049
G1 X105.632 Y62.417 E0.00016
G1 X105.145 Y62.844 E0.00037
G1 X104.086 Y63.738 E0.00078
G1 X103.871 Y63.895 E0.00015
G1 X101.66 Y65.183 E0.00145
G1 X100.533 Y65.854 E0.00074
G1 X100.04 Y66.336 E0.00039
G1 X99.477 Y66.863 E0.00044
G1 X99.261 Y67.037 E0.00016
G1 X98.788 Y67.326 E0.00031
G1 X98.509 Y67.533 E0.0002
G1 X98.319 Y67.774 E0.00017
G1 X98.076 Y67.953 E0.00017
G1 X97.438 Y68.241 E0.0004
G1 X96.749 Y68.639 E0.00045
G1 X96.46 Y68.791 E0.00018
G1 X96.343 Y68.814 E0.00007
G1 X95.187 Y69.007 E0.00066
G1 X94.614 Y68.969 E0.00032
G1 X93.814 Y68.833 E0.00046
G1 X93.435 Y68.792 E0.00022
G1 X93.222 Y68.685 E0.00013
G1 X92.705 Y68.368 E0.00034
G1 X92.116 Y68.029 E0.00038
G1 X90.894 Y66.964 E0.00092
G1 X90.837 Y66.907 E0.00005
G1 X90.253 Y66.055 E0.00058
G1 X90.053 Y65.738 E0.00021
G1 X89.606 Y65.053 E0.00046
G1 X89.394 Y64.719 E0.00022
G1 X88.433 Y63.239 E0.001
G1 X87.934 Y62.555 E0.00048
G1 X87.795 Y62.355 E0.00014
G1 X87.227 Y61.272 E0.00069
G1 X87.015 Y60.848 E0.00027
G1 X86.722 Y60.227 E0.00039
G1 X86.637 Y59.951 E0.00016
G1 X86.461 Y59.628 E0.00021
G1 X86.256 Y59.04 E0.00035
G1 X86.185 Y58.667 E0.00021
G1 X86.091 Y58.442 E0.00014
G1 X85.804 Y57.565 E0.00052
G1 X85.77 Y57.452 E0.00007
G1 X85.447 Y56.126 E0.00077
G1 X85.363 Y55.608 E0.0003
G1 X85.087 Y54.558 E0.00061
G1 X85.053 Y53.92 E0.00036
G1 X85.053 Y53.609 E0.00018
G1 X84.972 Y53.078 E0.0003
G1 X84.917 Y52.035 E0.00059
G1 X84.9 Y50.467 E0.00089
G1 X84.944 Y49.552 E0.00052
G1 X85.167 Y47.145 E0.00137
G1 X85.272 Y46.742 E0.00024
G1 X85.415 Y45.678 E0.00061
G1 X85.487 Y45.218 E0.00026
G1 X86.024 Y43.627 E0.00095
G1 X86.234 Y43.111 E0.00032
G1 X86.535 Y42.557 E0.00036
G1 X86.732 Y42.262 E0.0002
G1 X87.128 Y41.852 E0.00032
G1 X87.185 Y41.797 E0.00004
G1 X87.786 Y41.514 E0.00038
G1 X87.876 Y41.475 E0.00006
G1 X88.457 Y41.407 E0.00033
G1 X89.645 Y41.317 E0.00067
G1 X90 Y41.395 E0.00021
G1 X90.883 Y41.658 E0.00052
G1 X91.14 Y41.791 E0.00016
G1 X91.864 Y42.117 E0.00045
G1 X92.255 Y42.349 E0.00026
G1 X92.836 Y42.785 E0.00041
