;FLAVOR:RepRap
;TIME:3762
;Filament used: 0.0467497m
;Layer height: 0.64
;MINX:81.057
;MINY:61.39
;MINZ:0.64
;MAXX:118.938
;MAXY:93.655
;MAXZ:56.84
;Generated with Cura_SteamEngine 4.11.0
T0
M104 S34
M109 S34
M82 ;absolute extrusion mode
;Pressure advances
M400 ; Finish all current moves and for pressure advances.
M572 D0 S0.00                      ;Pressure advance enabled
;Wipe
G1 Z1 F900			;Wipe height
M83			;Extruder to relative mode
M400
G1 Y140 E0.2 F900		;Draw first thin line
G1 X1 F900
G1 Y5 E0.2 F900		;Draw second thin line
G1 X2 F900
G1 Y50 F900			;Coast in case of leakage
;M82			;Extruder to absolute mode (default)
M400			; wait for moves to finish
G92 E0			; zero extruder
;MHI3D CODE END
M83 ;relative extrusion mode
G1 F480 E-0.05
;LAYER_COUNT:81
;LAYER:0
M106 S25.5
G1 F600 Z5.64
;MESH:teddy_with_pie_eyes.stl
G0 F4800 X97.231 Y77.26 Z5.64
;TYPE:WALL-OUTER
G1 F600 Z0.64
G1 F480 E0.05
G1 F476.2 X97.223 Y78.208 E0.00137
G1 X97.226 Y78.668 E0.00067
G1 X97.154 Y79.529 E0.00125
G1 X97.006 Y81.039 E0.0022
G1 X96.909 Y81.751 E0.00104
G1 X96.623 Y83.089 E0.00198
G1 X96.495 Y83.66 E0.00085
G1 X96.432 Y83.869 E0.00032
G1 X95.853 Y85.12 E0.002
G1 X95.149 Y86.065 E0.00171
G1 X94.583 Y86.533 E0.00106
G1 X94.36 Y86.687 E0.00039
G1 X93.925 Y86.94 E0.00073
G1 X93.284 Y87.238 E0.00102
G1 X93.086 Y87.305 E0.0003
G1 X92.149 Y87.496 E0.00139
G1 X91.385 Y87.502 E0.00111
G1 X90.608 Y87.428 E0.00113
G1 X89.921 Y87.31 E0.00101
G1 X89.247 Y87.11 E0.00102
G1 X89.105 Y87.044 E0.00023
G1 X88.572 Y86.663 E0.00095
G1 X88.371 Y86.525 E0.00035
G1 X87.998 Y86.132 E0.00078
G1 X87.601 Y85.742 E0.00081
G1 X87.498 Y85.572 E0.00029
G1 X87.084 Y84.977 E0.00105
G1 X86.793 Y84.411 E0.00092
G1 X86.759 Y84.325 E0.00013
G1 X86.257 Y82.933 E0.00214
G1 X86.153 Y82.588 E0.00052
G1 X85.797 Y81.198 E0.00208
G1 X85.619 Y80.647 E0.00084
G1 X85.549 Y80.366 E0.00042
G1 X85.415 Y79.869 E0.00075
G1 X85.331 Y79.366 E0.00074
G1 X85.285 Y78.079 E0.00187
G1 X85.301 Y77.541 E0.00078
G1 X85.423 Y76.709 E0.00122
G1 X85.475 Y75.964 E0.00108
G1 X85.566 Y75.241 E0.00106
G1 X85.718 Y74.559 E0.00101
G1 X85.78 Y73.954 E0.00088
G1 X85.872 Y73.506 E0.00066
G1 X86.012 Y73.018 E0.00074
G1 X86.121 Y72.506 E0.00076
G1 X86.164 Y72.373 E0.0002
G1 X86.556 Y71.342 E0.0016
G1 X86.792 Y70.809 E0.00084
G1 X86.996 Y70.401 E0.00066
G1 X87.475 Y69.627 E0.00132
G1 X87.872 Y69.147 E0.0009
G1 X88.031 Y68.973 E0.00034
G1 X88.52 Y68.558 E0.00093
G1 X88.672 Y68.438 E0.00028
G1 X89.229 Y68.104 E0.00094
G1 X89.534 Y67.924 E0.00051
G1 X89.914 Y67.791 E0.00058
G1 X90.441 Y67.602 E0.00081
G1 X91.153 Y67.497 E0.00104
G1 X91.526 Y67.472 E0.00054
G1 X92.134 Y67.541 E0.00089
G1 X92.528 Y67.613 E0.00058
G1 X93.045 Y67.791 E0.00079
G1 X93.311 Y67.903 E0.00042
G1 X93.545 Y68.071 E0.00042
G1 X94.06 Y68.395 E0.00088
G1 X94.623 Y69.027 E0.00123
G1 X94.898 Y69.51 E0.00081
G1 X95.06 Y69.825 E0.00051
G1 X95.276 Y70.42 E0.00092
G1 X95.735 Y71.199 E0.00131
G1 X95.779 Y71.303 E0.00016
G1 X96.041 Y71.791 E0.0008
G1 X96.213 Y72.154 E0.00058
G1 X96.549 Y73.037 E0.00137
G1 X96.802 Y73.799 E0.00116
G1 X96.939 Y74.247 E0.00068
G1 X97.153 Y75.468 E0.0018
G1 X97.171 Y75.584 E0.00017
G1 X97.211 Y76.796 E0.00176
G1 X97.231 Y77.26 E0.00067
G0 F4800 X97.227 Y77.76
G0 X95.633 Y78.206
;TYPE:SKIN
G1 F476.2 X95.636 Y78.611 E0.00059
G1 X95.572 Y79.374 E0.00111
G1 X95.43 Y80.825 E0.00211
G1 X95.341 Y81.482 E0.00096
G1 X95.085 Y82.678 E0.00177
G1 X94.954 Y83.263 E0.00087
G1 X94.941 Y83.304 E0.00006
G1 X94.479 Y84.303 E0.00159
G1 X93.991 Y84.958 E0.00118
G1 X93.517 Y85.338 E0.00088
G1 X93.187 Y85.53 E0.00055
G1 X92.693 Y85.759 E0.00079
G1 X92.667 Y85.768 E0.00004
G1 X91.982 Y85.908 E0.00101
G1 X91.446 Y85.912 E0.00078
G1 X90.828 Y85.853 E0.0009
G1 X90.283 Y85.759 E0.0008
G1 X89.87 Y85.636 E0.00062
G1 X89.41 Y85.309 E0.00082
G1 X88.855 Y84.744 E0.00115
G1 X88.832 Y84.706 E0.00006
G1 X88.448 Y84.152 E0.00098
G1 X88.244 Y83.755 E0.00065
G1 X87.765 Y82.426 E0.00205
G1 X87.684 Y82.159 E0.0004
G1 X87.325 Y80.756 E0.0021
G1 X87.146 Y80.201 E0.00084
G1 X86.97 Y79.529 E0.00101
G1 X86.915 Y79.201 E0.00048
G1 X86.875 Y78.101 E0.00159
G1 X86.889 Y77.68 E0.00061
G1 X87.005 Y76.879 E0.00117
G1 X87.057 Y76.127 E0.00109
G1 X87.134 Y75.511 E0.0009
G1 X87.29 Y74.814 E0.00103
G1 X87.354 Y74.195 E0.0009
G1 X87.556 Y73.403 E0.00118
G1 X87.668 Y72.891 E0.00076
G1 X88.023 Y71.958 E0.00145
G1 X88.231 Y71.486 E0.00075
G1 X88.389 Y71.171 E0.00051
G1 X88.772 Y70.552 E0.00105
G1 X89.14 Y70.117 E0.00083
G1 X89.527 Y69.788 E0.00074
G1 X89.579 Y69.747 E0.0001
G1 X90.205 Y69.374 E0.00106
G1 X90.831 Y69.152 E0.00096
G1 X91.328 Y69.078 E0.00073
G1 X91.486 Y69.068 E0.00023
G1 X92.125 Y69.156 E0.00093
G1 X92.527 Y69.298 E0.00062
G1 X93.024 Y69.621 E0.00086
G1 X93.323 Y69.957 E0.00065
G1 X93.601 Y70.464 E0.00084
G1 X93.831 Y71.101 E0.00098
G1 X94.311 Y71.912 E0.00137
G1 X94.344 Y71.991 E0.00012
G1 X94.624 Y72.512 E0.00086
G1 X94.747 Y72.774 E0.00042
G1 X95.051 Y73.571 E0.00124
G1 X95.287 Y74.282 E0.00109
G1 X95.391 Y74.619 E0.00051
G1 X95.584 Y75.727 E0.00163
G1 X95.623 Y76.856 E0.00164
G1 X95.641 Y77.269 E0.0006
G1 X95.633 Y78.206 E0.00136
G0 F4800 X90.437 Y70.072
G1 F476.2 X94.469 Y74.104 E0.00826
G0 F4800 X94.9 Y76.798
G1 F476.2 X89.249 Y71.147 E0.01158
G0 F4800 X88.517 Y72.678
G1 F476.2 X94.878 Y79.038 E0.01303
G0 F4800 X94.666 Y81.09
G1 F476.2 X88.048 Y74.471 E0.01356
G0 F4800 X87.755 Y76.441
G1 F476.2 X94.282 Y82.968 E0.01337
G0 F4800 X93.483 Y84.432
G1 F476.2 X87.61 Y78.559 E0.01203
G0 F4800 X88.246 Y81.458
G1 F476.2 X91.964 Y85.176 E0.00762
G1 X92.246 Y85.458
G1 F480 E-0.05
G1 F600 Z5.64
G0 F4800 X102.848 Y75.464 Z5.64
;TYPE:WALL-OUTER
G1 F600 Z0.64
G1 F480 E0.05
G1 F476.2 X103.067 Y74.218 E0.00183
G1 X103.336 Y73.353 E0.00131
G1 X103.447 Y73.047 E0.00047
G1 X103.784 Y72.157 E0.00138
G1 X103.961 Y71.788 E0.00059
G1 X104.221 Y71.303 E0.0008
G1 X104.265 Y71.199 E0.00016
G1 X104.724 Y70.42 E0.00131
G1 X104.94 Y69.825 E0.00092
G1 X105.102 Y69.51 E0.00051
G1 X105.377 Y69.027 E0.00081
G1 X105.71 Y68.678 E0.0007
G1 X105.947 Y68.39 E0.00054
G1 X106.455 Y68.071 E0.00087
G1 X106.744 Y67.884 E0.0005
G1 X106.955 Y67.791 E0.00033
G1 X107.466 Y67.615 E0.00078
G1 X107.652 Y67.575 E0.00028
G1 X108.166 Y67.493 E0.00075
G1 X108.852 Y67.496 E0.00099
G1 X109.556 Y67.602 E0.00103
G1 X110.087 Y67.792 E0.00082
G1 X110.465 Y67.923 E0.00058
G1 X111.331 Y68.44 E0.00146
G1 X111.501 Y68.575 E0.00031
G1 X111.962 Y68.967 E0.00088
G1 X112.133 Y69.153 E0.00037
G1 X112.528 Y69.63 E0.0009
G1 X113.003 Y70.398 E0.00131
G1 X113.343 Y71.155 E0.0012
G1 X113.44 Y71.338 E0.0003
G1 X113.838 Y72.375 E0.00161
G1 X113.872 Y72.483 E0.00016
G1 X113.988 Y73.018 E0.00079
G1 X114.128 Y73.506 E0.00074
G1 X114.25 Y74.145 E0.00094
G1 X114.277 Y74.53 E0.00056
G1 X114.43 Y75.183 E0.00097
G1 X114.479 Y75.729 E0.00079
G1 X114.523 Y75.957 E0.00034
G1 X114.578 Y76.71 E0.00109
G1 X114.697 Y77.535 E0.00121
G1 X114.715 Y78.079 E0.00079
G1 X114.667 Y79.38 E0.00189
G1 X114.585 Y79.869 E0.00072
G1 X114.343 Y80.763 E0.00134
G1 X114.204 Y81.2 E0.00066
G1 X113.838 Y82.616 E0.00212
G1 X113.738 Y82.948 E0.0005
G1 X113.241 Y84.325 E0.00212
G1 X113.205 Y84.416 E0.00014
G1 X112.916 Y84.977 E0.00091
G1 X112.502 Y85.572 E0.00105
G1 X112.399 Y85.74 E0.00029
G1 X112.001 Y86.134 E0.00081
G1 X111.629 Y86.524 E0.00078
G1 X111.425 Y86.664 E0.00036
G1 X110.898 Y87.042 E0.00094
G1 X110.339 Y87.247 E0.00086
G1 X110.079 Y87.31 E0.00039
G1 X109.392 Y87.428 E0.00101
G1 X108.755 Y87.499 E0.00093
G1 X108.615 Y87.502 E0.0002
G1 X107.852 Y87.496 E0.00111
G1 X106.914 Y87.305 E0.00139
G1 X106.072 Y86.939 E0.00133
G1 X105.64 Y86.687 E0.00072
G1 X105.415 Y86.532 E0.0004
G1 X104.86 Y86.073 E0.00104
G1 X104.121 Y85.084 E0.00179
G1 X103.638 Y84.008 E0.00171
G1 X103.494 Y83.619 E0.0006
G1 X103.369 Y83.067 E0.00082
G1 X103.09 Y81.742 E0.00196
G1 X102.994 Y81.041 E0.00102
G1 X102.846 Y79.532 E0.0022
G1 X102.774 Y78.669 E0.00125
G1 X102.775 Y78.208 E0.00067
G1 X102.769 Y77.257 E0.00138
G1 X102.788 Y76.796 E0.00067
G1 X102.83 Y75.584 E0.00176
G1 X102.848 Y75.464 E0.00018
G0 F4800 X102.934 Y74.972
G0 X104.416 Y75.729
;TYPE:SKIN
G1 F476.2 X104.616 Y74.593 E0.00167
G1 X104.844 Y73.857 E0.00112
G1 X104.934 Y73.61 E0.00038
G1 X105.247 Y72.784 E0.00128
G1 X105.379 Y72.507 E0.00044
G1 X105.656 Y71.991 E0.00085
G1 X105.689 Y71.912 E0.00012
G1 X106.169 Y71.1 E0.00137
G1 X106.404 Y70.453 E0.001
G1 X106.662 Y69.983 E0.00078
G1 X107.012 Y69.597 E0.00075
G1 X107.505 Y69.286 E0.00084
G1 X107.937 Y69.14 E0.00066
G1 X108.288 Y69.083 E0.00052
G1 X108.732 Y69.086 E0.00064
G1 X109.166 Y69.151 E0.00064
G1 X109.792 Y69.372 E0.00096
G1 X110.425 Y69.75 E0.00107
G1 X110.856 Y70.114 E0.00082
G1 X111.236 Y70.563 E0.00085
G1 X111.591 Y71.137 E0.00098
G1 X111.914 Y71.854 E0.00114
G1 X111.989 Y71.996 E0.00023
G1 X112.336 Y72.901 E0.0014
G1 X112.445 Y73.406 E0.00075
G1 X112.67 Y74.35 E0.00141
G1 X112.699 Y74.769 E0.00061
G1 X112.856 Y75.435 E0.00099
G1 X112.903 Y75.951 E0.00075
G1 X112.944 Y76.169 E0.00032
G1 X112.996 Y76.881 E0.00103
G1 X113.109 Y77.668 E0.00115
G1 X113.124 Y78.102 E0.00063
G1 X113.083 Y79.211 E0.00161
G1 X113.03 Y79.527 E0.00046
G1 X112.816 Y80.32 E0.00119
G1 X112.676 Y80.759 E0.00067
G1 X112.308 Y82.181 E0.00213
G1 X112.223 Y82.464 E0.00043
G1 X111.754 Y83.763 E0.002
G1 X111.555 Y84.148 E0.00063
G1 X111.171 Y84.701 E0.00098
G1 X110.594 Y85.305 E0.00121
G1 X110.147 Y85.625 E0.0008
G1 X109.752 Y85.753 E0.0006
G1 X109.167 Y85.854 E0.00086
G1 X108.656 Y85.911 E0.00074
G1 X108.018 Y85.908 E0.00092
G1 X107.396 Y85.781 E0.00092
G1 X106.787 Y85.516 E0.00096
G1 X106.367 Y85.257 E0.00071
G1 X106.023 Y84.972 E0.00065
G1 X105.5 Y84.272 E0.00127
G1 X105.105 Y83.391 E0.0014
G1 X104.92 Y82.716 E0.00101
G1 X104.66 Y81.483 E0.00183
G1 X104.57 Y80.824 E0.00096
G1 X104.428 Y79.377 E0.00211
G1 X104.364 Y78.61 E0.00111
G1 X104.365 Y78.204 E0.00059
G1 X104.359 Y77.257 E0.00137
G1 X104.376 Y76.857 E0.00058
G1 X104.416 Y75.729 E0.00164
G0 F4800 X108.28 Y69.814
G1 F476.2 X111.662 Y73.196 E0.00693
G0 F4800 X112.181 Y75.977
G1 F476.2 X107.033 Y70.829 E0.01055
G0 F4800 X106.282 Y72.341
G1 F476.2 X112.389 Y78.448 E0.01251
G0 F4800 X112.044 Y80.366
G1 F476.2 X105.588 Y73.91 E0.01323
G0 F4800 X105.146 Y75.73
G1 F476.2 X111.565 Y82.15 E0.01315
G0 F4800 X110.933 Y83.78
G1 F476.2 X105.082 Y77.929 E0.01199
G0 F4800 X105.246 Y80.356
G1 F476.2 X109.844 Y84.954 E0.00942
G0 F4800 X107.744 Y85.117
G1 F476.2 X105.79 Y83.162 E0.004
G1 F480 E-0.05
G1 F600 Z5.64
;MESH:NONMESH
G0 F4800 X88.8 Y70.204 Z5.64
;TIME_ELAPSED:46.558955
;LAYER:1
;MESH:teddy_with_pie_eyes.stl
G0 X88.8 Y70.204 Z6.28
;TYPE:FILL
G1 F600 Z1.28
G1 F480 E0.05
G1 F505 X88.8 Y84.926 E0.02133
G1 X88.7 Y84.812 E0.00022
G1 X88.347 Y84.307 E0.00089
G1 X88.05 Y83.827 E0.00082
G1 X88.005 Y83.716 E0.00017
G1 X87.769 Y83.189 E0.00084
G1 X87.634 Y82.855 E0.00052
G1 X87.303 Y81.881 E0.00149
G1 X87.252 Y81.714 E0.00025
G1 X87.2 Y81.519 E0.00029
G1 X87.2 Y73.515 E0.0116
G1 X87.356 Y73.005 E0.00077
G1 X87.595 Y72.382 E0.00097
G1 X87.923 Y71.603 E0.00122
G1 X87.959 Y71.528 E0.00012
G1 X88.34 Y70.849 E0.00113
G1 X88.608 Y70.433 E0.00072
G1 X89.007 Y69.959 E0.0009
G1 X89.269 Y69.722 E0.00051
G1 X89.571 Y69.502 E0.00054
G1 X89.903 Y69.299 E0.00056
G1 X90.249 Y69.142 E0.00055
G1 X90.4 Y69.096 E0.00023
G1 X90.4 Y86.135 E0.02468
G1 X90.781 Y86.244 E0.00057
G1 X91.279 Y86.323 E0.00073
G1 X91.852 Y86.327 E0.00083
G1 X92 Y86.324 E0.00021
G1 X92 Y68.997 E0.0251
G1 X92.132 Y69.02 E0.00019
G1 X92.584 Y69.136 E0.00068
G1 X92.934 Y69.279 E0.00055
G1 X93.266 Y69.457 E0.00055
G1 X93.54 Y69.65 E0.00049
G1 X93.6 Y69.708 E0.00012
G1 X93.6 Y85.847 E0.02338
G1 X93.854 Y85.719 E0.00041
G1 X94.274 Y85.436 E0.00073
G1 X94.52 Y85.222 E0.00047
G1 X94.849 Y84.801 E0.00077
G1 X95.084 Y84.352 E0.00073
G1 X95.346 Y83.691 E0.00103
G1 X95.529 Y83.076 E0.00093
G1 X95.665 Y82.452 E0.00093
G1 X95.796 Y81.773 E0.001
G1 X95.902 Y80.954 E0.0012
G1 X95.966 Y80.266 E0.001
G1 X96.029 Y79.426 E0.00122
G1 X96.052 Y78.857 E0.00082
G1 X96.067 Y78.292 E0.00082
G1 X96.079 Y77.484 E0.00117
G1 X96.017 Y75.597 E0.00274
G1 X96.008 Y75.512 E0.00012
G0 F4800 X96.009 Y75.512
G1 F505 X95.891 Y74.609 E0.00132
G1 X95.703 Y73.728 E0.00131
G1 X95.419 Y72.808 E0.00139
G1 X95.299 Y72.502 E0.00048
G1 X95.2 Y72.278 E0.00035
G1 X95.2 Y84.06 E0.01707
G1 X95.2 Y84.46
G1 F480 E-0.05
G1 F600 Z6.28
G0 F4800 X86.11 Y71.786 Z6.28
;TYPE:WALL-OUTER
G1 F600 Z1.28
G1 F480 E0.05
G1 F505 X86.463 Y70.946 E0.00132
G1 X86.543 Y70.782 E0.00026
G1 X86.972 Y70.017 E0.00127
G1 X87.317 Y69.481 E0.00092
G1 X87.842 Y68.856 E0.00118
G1 X88.258 Y68.479 E0.00081
G1 X88.68 Y68.171 E0.00076
G1 X89.129 Y67.896 E0.00076
G1 X89.165 Y67.876 E0.00006
G1 X89.688 Y67.64 E0.00083
G1 X90.276 Y67.464 E0.00089
G1 X90.806 Y67.368 E0.00078
G1 X91.402 Y67.323 E0.00087
G1 X91.929 Y67.358 E0.00077
G1 X92.47 Y67.454 E0.0008
G1 X93.083 Y67.612 E0.00092
G1 X93.612 Y67.827 E0.00083
G1 X94.11 Y68.095 E0.00082
G1 X94.565 Y68.415 E0.00081
G1 X94.929 Y68.765 E0.00073
G1 X95.292 Y69.194 E0.00081
G1 X95.432 Y69.382 E0.00034
G1 X95.858 Y70.084 E0.00119
G1 X96.058 Y70.45 E0.0006
G1 X96.555 Y71.386 E0.00154
G1 X96.789 Y71.918 E0.00084
G1 X96.925 Y72.265 E0.00054
G1 X97.253 Y73.326 E0.00161
G1 X97.469 Y74.336 E0.0015
G1 X97.6 Y75.345 E0.00147
G1 X97.615 Y75.489 E0.00021
G1 X97.679 Y77.454 E0.00285
G1 X97.667 Y78.334 E0.00127
G1 X97.655 Y78.781 E0.00065
G1 X97.625 Y79.546 E0.00111
G1 X97.56 Y80.416 E0.00126
G1 X97.498 Y81.078 E0.00096
G1 X97.374 Y82.04 E0.00141
G1 X97.225 Y82.811 E0.00114
G1 X97.083 Y83.46 E0.00096
G1 X96.865 Y84.195 E0.00111
G1 X96.842 Y84.259 E0.0001
G1 X96.541 Y85.02 E0.00119
G1 X96.223 Y85.626 E0.00099
G1 X96.19 Y85.684 E0.0001
G1 X95.686 Y86.328 E0.00118
G1 X95.253 Y86.705 E0.00083
G1 X94.658 Y87.106 E0.00104
G1 X93.856 Y87.508 E0.0013
G1 X93.053 Y87.77 E0.00122
G1 X92.227 Y87.92 E0.00122
G1 X91.876 Y87.927 E0.00051
G1 X91.146 Y87.923 E0.00106
G1 X90.432 Y87.808 E0.00105
G1 X89.827 Y87.637 E0.00091
G1 X89.333 Y87.415 E0.00078
G1 X89.164 Y87.328 E0.00028
G1 X88.687 Y87.018 E0.00082
G1 X88.003 Y86.426 E0.00131
G1 X87.828 Y86.247 E0.00036
G1 X87.442 Y85.804 E0.00085
G1 X87.008 Y85.184 E0.0011
G1 X86.62 Y84.556 E0.00107
G1 X86.534 Y84.346 E0.00033
G1 X86.295 Y83.815 E0.00084
G1 X86.132 Y83.412 E0.00063
G1 X85.787 Y82.395 E0.00156
G1 X85.712 Y82.15 E0.00037
G1 X85.424 Y81.074 E0.00161
G1 X85.271 Y80.43 E0.00096
G1 X85.222 Y80.155 E0.0004
G1 X85.062 Y79.096 E0.00155
G1 X85.041 Y78.818 E0.0004
G1 X84.979 Y77.803 E0.00147
G1 X84.977 Y77.692 E0.00016
G1 X85.037 Y76.652 E0.00151
G1 X85.101 Y75.884 E0.00112
G1 X85.153 Y75.335 E0.0008
G1 X85.236 Y74.808 E0.00077
G1 X85.341 Y74.322 E0.00072
G1 X85.432 Y73.792 E0.00078
G1 X85.622 Y73.206 E0.00089
G1 X85.84 Y72.493 E0.00108
G1 X86.11 Y71.786 E0.0011
G0 F4800 X86.303 Y71.325
G1 F480 E-0.05
G1 F600 Z6.28
G0 F4800 X106.4 Y69.707 Z6.28
;TYPE:FILL
G1 F600 Z1.28
G1 F480 E0.05
G1 F505 X106.4 Y85.849 E0.02338
G1 X106.387 Y85.843 E0.00002
G1 X105.968 Y85.599 E0.0007
G1 X105.669 Y85.389 E0.00053
G1 X105.469 Y85.21 E0.00039
G1 X105.152 Y84.803 E0.00075
G1 X104.918 Y84.359 E0.00073
G1 X104.8 Y84.06 E0.00047
G1 X104.8 Y72.267 E0.01708
G1 X104.82 Y72.218 E0.00008
G1 X104.859 Y72.138 E0.00013
G1 X105.351 Y71.21 E0.00152
G1 X105.605 Y70.757 E0.00075
G1 X105.89 Y70.287 E0.0008
G1 X105.969 Y70.18 E0.00019
G1 X106.239 Y69.862 E0.0006
G1 X106.459 Y69.651 E0.00044
G1 X106.739 Y69.455 E0.0005
G1 X107.068 Y69.276 E0.00054
G1 X107.433 Y69.128 E0.00057
G1 X107.461 Y69.12 E0.00004
G1 X107.866 Y69.02 E0.0006
G1 X108 Y68.996 E0.0002
G1 X108 Y86.323 E0.0251
G1 X108.148 Y86.327 E0.00021
G1 X108.725 Y86.323 E0.00084
G1 X109.364 Y86.209 E0.00094
G1 X109.6 Y86.133 E0.00036
G1 X109.6 Y69.099 E0.02468
G1 X109.767 Y69.149 E0.00025
G1 X110.086 Y69.292 E0.00051
G1 X110.421 Y69.496 E0.00057
G1 X110.733 Y69.724 E0.00056
G1 X111.014 Y69.979 E0.00055
G1 X111.2 Y70.202 E0.00042
G1 X111.2 Y84.927 E0.02133
G1 X111.33 Y84.778 E0.00029
G1 X111.456 Y84.621 E0.00029
G1 X111.947 Y83.832 E0.00135
G1 X111.993 Y83.722 E0.00017
G1 X112.232 Y83.19 E0.00084
G1 X112.36 Y82.872 E0.0005
G1 X112.697 Y81.881 E0.00152
G1 X112.746 Y81.721 E0.00024
