;FLAVOR:RepRap
;TIME:17401
;Filament used: 0.090325m
;Layer height: 0.4
;MINX:72.718
;MINY:47.027
;MINZ:0.4
;MAXX:127.283
;MAXY:107.973
;MAXZ:49.6
;Generated with Cura_SteamEngine 4.10.0
T0
M104 S35
M109 S35
M82 ;absolute extrusion mode
;Pressure advances
M400 ; Finish all current moves and for pressure advances.
M572 D0 S0.00                      ;Pressure advance enabled
;Wipe
G1 Z1 F900			;Wipe height
M83			;Extruder to relative mode
M400
G1 Y140 E0.2 F900		;Draw first thin line
G1 X1 F900
G1 Y5 E0.2 F900		;Draw second thin line
G1 X2 F900
G1 Y50 F900			;Coast in case of leakage
;M82			;Extruder to absolute mode (default)
M400			; wait for moves to finish
G92 E0			; zero extruder
;MHI3D CODE END
M83 ;relative extrusion mode
G1 F480 E-0.05
;LAYER_COUNT:119
;LAYER:0
M106 S25.5
G1 F600 Z2.4
;MESH:Monopoly_House.stl
G0 X78.642 Y56.143 Z2.4
;TYPE:FILL
G1 F600 Z0.4
G1 F480 E0.05
G1 F600 X73.717 Y51.218 E0.00394
G1 X73.717 Y52.604 E0.00078
G1 X78.643 Y57.53 E0.00394
G1 X78.643 Y58.916 E0.00078
G1 X73.717 Y53.99 E0.00394
G1 X73.717 Y55.376 E0.00078
G1 X78.643 Y60.302 E0.00394
G1 X78.643 Y61.687 E0.00078
G1 X73.717 Y56.762 E0.00394
G1 X73.717 Y58.148 E0.00078
G1 X78.643 Y63.073 E0.00394
G1 X78.643 Y64.459 E0.00078
G1 X73.717 Y59.534 E0.00394
G1 X73.717 Y60.92 E0.00078
G1 X78.643 Y65.845 E0.00394
G1 X78.643 Y67.231 E0.00078
G1 X73.717 Y62.306 E0.00394
G1 X73.717 Y63.691 E0.00078
G1 X78.643 Y68.617 E0.00394
G1 X78.643 Y70.003 E0.00078
G1 X73.717 Y65.077 E0.00394
G1 X73.717 Y66.463 E0.00078
G1 X78.643 Y71.389 E0.00394
G1 X78.643 Y72.775 E0.00078
G1 X73.717 Y67.849 E0.00394
G1 X73.717 Y69.235 E0.00078
G1 X78.643 Y74.161 E0.00394
G1 X78.643 Y75.547 E0.00078
G1 X73.717 Y70.621 E0.00394
G1 X73.717 Y72.007 E0.00078
G1 X78.643 Y76.933 E0.00394
G1 X78.643 Y78.319 E0.00078
G1 X73.717 Y73.393 E0.00394
G1 X73.717 Y74.779 E0.00078
G1 X78.643 Y79.705 E0.00394
G1 X78.643 Y81.091 E0.00078
G1 X73.717 Y76.165 E0.00394
G1 X73.717 Y77.551 E0.00078
G1 X78.643 Y82.476 E0.00394
G1 X78.643 Y83.862 E0.00078
G1 X73.717 Y78.937 E0.00394
G1 X73.717 Y80.323 E0.00078
G1 X78.643 Y85.248 E0.00394
G1 X78.643 Y86.634 E0.00078
G1 X73.717 Y81.709 E0.00394
G1 X73.717 Y83.094 E0.00078
G1 X78.643 Y88.02 E0.00394
G1 X78.643 Y89.406 E0.00078
G1 X73.717 Y84.48 E0.00394
G1 X73.717 Y85.866 E0.00078
G1 X78.643 Y90.792 E0.00394
G1 X78.643 Y92.178 E0.00078
G1 X73.717 Y87.252 E0.00394
G1 X73.717 Y88.638 E0.00078
G1 X78.643 Y93.564 E0.00394
G1 X78.643 Y94.95 E0.00078
G1 X73.717 Y90.024 E0.00394
G1 X73.717 Y91.41 E0.00078
G1 X78.643 Y96.336 E0.00394
G1 X78.643 Y97.722 E0.00078
G1 X73.717 Y92.796 E0.00394
G1 X73.717 Y94.182 E0.00078
G1 X83.316 Y103.781 E0.00768
G1 X81.93 Y103.781 E0.00078
G1 X73.717 Y95.568 E0.00657
G1 X73.717 Y96.954 E0.00078
G1 X80.544 Y103.781 E0.00546
G1 X79.158 Y103.781 E0.00078
G1 X73.717 Y98.34 E0.00435
G1 X73.717 Y99.726 E0.00078
G1 X77.772 Y103.781 E0.00325
G1 X76.386 Y103.781 E0.00078
G1 X73.717 Y101.112 E0.00214
G1 X73.718 Y103.782 E0.00151
G1 X75 Y103.781 E0.00073
G1 X73.717 Y102.497 E0.00103
G0 X81.163 Y98.857
G1 X86.088 Y103.781 E0.00394
G1 X84.702 Y103.781 E0.00078
G1 X79.777 Y98.857 E0.00394
G1 X82.549 Y98.857 E0.00157
G1 X87.474 Y103.781 E0.00394
G1 X88.859 Y103.781 E0.00078
G1 X83.935 Y98.857 E0.00394
G1 X85.321 Y98.857 E0.00078
G1 X90.245 Y103.781 E0.00394
G1 X91.631 Y103.781 E0.00078
G1 X86.707 Y98.857 E0.00394
G1 X88.093 Y98.857 E0.00078
G1 X93.017 Y103.781 E0.00394
G1 X94.403 Y103.781 E0.00078
G1 X89.479 Y98.857 E0.00394
G1 X90.865 Y98.857 E0.00078
G1 X95.789 Y103.781 E0.00394
G1 X97.175 Y103.781 E0.00078
G1 X92.251 Y98.857 E0.00394
G1 X93.637 Y98.857 E0.00078
G1 X98.561 Y103.781 E0.00394
G1 X99.947 Y103.781 E0.00078
G1 X95.023 Y98.857 E0.00394
G1 X96.409 Y98.857 E0.00078
G1 X101.333 Y103.781 E0.00394
G1 X102.719 Y103.781 E0.00078
G1 X97.794 Y98.857 E0.00394
G1 X99.18 Y98.857 E0.00078
G1 X104.105 Y103.781 E0.00394
G1 X105.491 Y103.781 E0.00078
G1 X100.566 Y98.857 E0.00394
G1 X101.952 Y98.857 E0.00078
G1 X106.877 Y103.781 E0.00394
G1 X108.262 Y103.781 E0.00078
G1 X103.338 Y98.857 E0.00394
G1 X104.724 Y98.857 E0.00078
G1 X109.648 Y103.781 E0.00394
G1 X111.034 Y103.781 E0.00078
G1 X106.11 Y98.857 E0.00394
G1 X107.496 Y98.857 E0.00078
G1 X112.42 Y103.781 E0.00394
G1 X113.806 Y103.781 E0.00078
G1 X108.882 Y98.857 E0.00394
G1 X110.268 Y98.857 E0.00078
G1 X115.192 Y103.781 E0.00394
G1 X116.578 Y103.781 E0.00078
G1 X111.654 Y98.857 E0.00394
G1 X113.04 Y98.857 E0.00078
G1 X117.964 Y103.781 E0.00394
G1 X119.35 Y103.781 E0.00078
G1 X114.426 Y98.857 E0.00394
G1 X115.812 Y98.857 E0.00078
G1 X120.736 Y103.781 E0.00394
G1 X122.122 Y103.781 E0.00078
G1 X117.197 Y98.857 E0.00394
G1 X118.583 Y98.857 E0.00078
G1 X123.508 Y103.781 E0.00394
G1 X124.894 Y103.781 E0.00078
G1 X119.969 Y98.857 E0.00394
G1 X121.355 Y98.857 E0.00078
G1 X126.28 Y103.781 E0.00394
G0 X126.283 Y103.782
G1 X126.282 Y102.397 E0.00078
G1 X121.357 Y97.472 E0.00394
G1 X121.357 Y96.086 E0.00078
G1 X126.282 Y101.011 E0.00394
G1 X126.282 Y99.625 E0.00078
G1 X121.357 Y94.7 E0.00394
G1 X121.357 Y93.314 E0.00078
G1 X126.282 Y98.239 E0.00394
G1 X126.282 Y96.853 E0.00078
G1 X121.357 Y91.928 E0.00394
G1 X121.357 Y90.542 E0.00078
G1 X126.282 Y95.467 E0.00394
G1 X126.282 Y94.081 E0.00078
G1 X121.357 Y89.156 E0.00394
G1 X121.357 Y87.771 E0.00078
G1 X126.282 Y92.696 E0.00394
G1 X126.282 Y91.31 E0.00078
G1 X121.357 Y86.385 E0.00394
G1 X121.357 Y84.999 E0.00078
G1 X126.282 Y89.924 E0.00394
G1 X126.282 Y88.538 E0.00078
G1 X121.357 Y83.613 E0.00394
G1 X121.357 Y82.227 E0.00078
G1 X126.282 Y87.152 E0.00394
G1 X126.282 Y85.766 E0.00078
G1 X121.357 Y80.841 E0.00394
G1 X121.357 Y79.455 E0.00078
G1 X126.282 Y84.38 E0.00394
G1 X126.282 Y82.994 E0.00078
G1 X121.357 Y78.069 E0.00394
G1 X121.357 Y76.683 E0.00078
G1 X126.282 Y81.608 E0.00394
G1 X126.282 Y80.222 E0.00078
G1 X121.357 Y75.297 E0.00394
G1 X121.357 Y73.911 E0.00078
G1 X126.282 Y78.836 E0.00394
G1 X126.282 Y77.45 E0.00078
G1 X121.357 Y72.525 E0.00394
G1 X121.357 Y71.139 E0.00078
G1 X126.282 Y76.064 E0.00394
G1 X126.282 Y74.678 E0.00078
G1 X121.357 Y69.753 E0.00394
G1 X121.357 Y68.368 E0.00078
G1 X126.282 Y73.293 E0.00394
G1 X126.282 Y71.907 E0.00078
G1 X121.357 Y66.982 E0.00394
G1 X121.357 Y65.596 E0.00078
G1 X126.282 Y70.521 E0.00394
G1 X126.282 Y69.135 E0.00078
G1 X121.357 Y64.21 E0.00394
G1 X121.357 Y62.824 E0.00078
G1 X126.282 Y67.749 E0.00394
G1 X126.282 Y66.363 E0.00078
G1 X121.357 Y61.438 E0.00394
G1 X121.357 Y60.052 E0.00078
G1 X126.282 Y64.977 E0.00394
G1 X126.282 Y63.591 E0.00078
G1 X121.357 Y58.666 E0.00394
G1 X121.357 Y57.28 E0.00078
G1 X126.282 Y62.205 E0.00394
G1 X126.282 Y60.819 E0.00078
G1 X116.679 Y51.217 E0.00768
G1 X118.065 Y51.217 E0.00078
G1 X126.282 Y59.433 E0.00658
G1 X126.282 Y58.047 E0.00078
G1 X119.451 Y51.217 E0.00547
G1 X120.837 Y51.217 E0.00078
G1 X126.282 Y56.661 E0.00436
G1 X126.282 Y55.275 E0.00078
G1 X122.223 Y51.217 E0.00325
G1 X123.609 Y51.217 E0.00078
G1 X126.282 Y53.89 E0.00214
G1 X126.282 Y52.504 E0.00078
G1 X124.995 Y51.217 E0.00103
G1 X126.283 Y51.217 E0.00073
G0 X118.834 Y56.143
G1 X113.907 Y51.217 E0.00394
G1 X115.293 Y51.217 E0.00078
G1 X120.22 Y56.143 E0.00394
G1 X117.448 Y56.143 E0.00157
G1 X112.521 Y51.217 E0.00394
G1 X111.135 Y51.217 E0.00078
G1 X116.062 Y56.143 E0.00394
G1 X114.676 Y56.143 E0.00078
G1 X109.75 Y51.217 E0.00394
G1 X108.364 Y51.217 E0.00078
G1 X113.29 Y56.143 E0.00394
G1 X111.904 Y56.143 E0.00078
G1 X106.978 Y51.217 E0.00394
G1 X105.592 Y51.217 E0.00078
G1 X110.518 Y56.143 E0.00394
G1 X109.132 Y56.143 E0.00078
G1 X104.206 Y51.217 E0.00394
G1 X102.82 Y51.217 E0.00078
G1 X107.746 Y56.143 E0.00394
G1 X106.36 Y56.143 E0.00078
G1 X101.434 Y51.217 E0.00394
G1 X100.048 Y51.217 E0.00078
G1 X104.974 Y56.143 E0.00394
G1 X103.589 Y56.143 E0.00078
G1 X98.662 Y51.217 E0.00394
G1 X97.276 Y51.217 E0.00078
G1 X102.203 Y56.143 E0.00394
G1 X100.817 Y56.143 E0.00078
G1 X95.89 Y51.217 E0.00394
G1 X94.504 Y51.217 E0.00078
G1 X99.431 Y56.143 E0.00394
G1 X98.045 Y56.143 E0.00078
G1 X93.118 Y51.217 E0.00394
G1 X91.732 Y51.217 E0.00078
G1 X96.659 Y56.143 E0.00394
G1 X95.273 Y56.143 E0.00078
G1 X90.347 Y51.217 E0.00394
G1 X88.961 Y51.217 E0.00078
G1 X93.887 Y56.143 E0.00394
G1 X92.501 Y56.143 E0.00078
G1 X87.575 Y51.217 E0.00394
G1 X86.189 Y51.217 E0.00078
G1 X91.115 Y56.143 E0.00394
G1 X89.729 Y56.143 E0.00078
G1 X84.803 Y51.217 E0.00394
G1 X83.417 Y51.217 E0.00078
G1 X88.343 Y56.143 E0.00394
G1 X86.957 Y56.143 E0.00078
G1 X82.031 Y51.217 E0.00394
G1 X80.645 Y51.217 E0.00078
G1 X85.571 Y56.143 E0.00394
G1 X84.186 Y56.143 E0.00078
G1 X79.259 Y51.217 E0.00394
G1 X77.873 Y51.217 E0.00078
G1 X82.8 Y56.143 E0.00394
G1 X81.414 Y56.143 E0.00078
G1 X76.487 Y51.217 E0.00394
G1 X75.101 Y51.217 E0.00078
G1 X80.028 Y56.143 E0.00394
G1 X78.643 Y56.143 E0.00078
G1 F480 E-0.05
G1 F600 Z2.4
G0 X120.358 Y97.857 Z2.4
;TYPE:WALL-OUTER
G1 F600 Z0.4
G1 F480 E0.05
G1 F600 X120.358 Y57.143 E0.02304
G1 X79.643 Y57.143 E0.02304
G1 X79.643 Y97.857 E0.02304
G1 X120.358 Y97.857 E0.02304
G0 X120.358 Y97.357
G0 X121.458 Y97.357
G0 X127.283 Y104.782
G1 X72.718 Y104.782 E0.03088
G1 X72.718 Y50.217 E0.03088
G1 X127.283 Y50.217 E0.03088
G1 X127.283 Y104.782 E0.03088
G0 X126.783 Y104.782
G0 X126.183 Y103.682
G1 F480 E-0.05
G1 F600 Z2.4
;MESH:NONMESH
G0 X74.52 Y51.217 Z2.4
;TIME_ELAPSED:182.623950
;LAYER:1
;MESH:Monopoly_House.stl
G0 X74.52 Y51.217 Z2.8
;TYPE:FILL
G1 F600 Z0.8
G1 F480 E0.05
G1 F600 X74.52 Y103.782 E0.02975
G1 X73.718 Y103.782 E0.00045
G1 X73.718 Y51.217 E0.02975
G1 X75.5 Y51.217 E0.00101
G1 X75.5 Y103.782 E0.02975
G1 X76.48 Y103.782 E0.00055
G1 X76.48 Y51.217 E0.02975
G1 X77.46 Y51.217 E0.00055
G1 X77.46 Y103.782 E0.02975
G1 X78.44 Y103.782 E0.00055
G1 X78.44 Y51.217 E0.02975
G1 X79.42 Y51.217 E0.00055
G1 X79.42 Y56.143 E0.00279
G1 X80.4 Y56.143 E0.00055
G1 X80.4 Y51.217 E0.00279
G1 X81.38 Y51.217 E0.00055
G1 X81.38 Y56.143 E0.00279
G1 X82.36 Y56.143 E0.00055
G1 X82.36 Y51.217 E0.00279
G1 X83.34 Y51.217 E0.00055
G1 X83.34 Y56.143 E0.00279
G1 X84.32 Y56.143 E0.00055
G1 X84.32 Y51.217 E0.00279
G1 X85.3 Y51.217 E0.00055
G1 X85.3 Y56.143 E0.00279
G1 X86.28 Y56.143 E0.00055
G1 X86.28 Y51.217 E0.00279
G1 X87.26 Y51.217 E0.00055
G1 X87.26 Y56.143 E0.00279
G1 X88.24 Y56.143 E0.00055
G1 X88.24 Y51.217 E0.00279
G1 X89.22 Y51.217 E0.00055
G1 X89.22 Y56.143 E0.00279
G1 X90.2 Y56.143 E0.00055
G1 X90.2 Y51.217 E0.00279
G1 X91.18 Y51.217 E0.00055
G1 X91.18 Y56.143 E0.00279
G1 X92.16 Y56.143 E0.00055
G1 X92.16 Y51.217 E0.00279
G1 X93.14 Y51.217 E0.00055
G1 X93.14 Y56.143 E0.00279
G1 X94.12 Y56.143 E0.00055
G1 X94.12 Y51.217 E0.00279
G1 X95.1 Y51.217 E0.00055
G1 X95.1 Y56.143 E0.00279
G1 X96.08 Y56.143 E0.00055
G1 X96.08 Y51.217 E0.00279
G1 X97.06 Y51.217 E0.00055
G1 X97.06 Y56.143 E0.00279
G1 X98.04 Y56.143 E0.00055
G1 X98.04 Y51.217 E0.00279
G1 X99.02 Y51.217 E0.00055
G1 X99.02 Y56.143 E0.00279
G1 X100 Y56.143 E0.00055
G1 X100 Y51.217 E0.00279
G1 X100.98 Y51.217 E0.00055
G1 X100.98 Y56.143 E0.00279
G1 X101.96 Y56.143 E0.00055
G1 X101.96 Y51.217 E0.00279
G1 X102.94 Y51.217 E0.00055
G1 X102.94 Y56.143 E0.00279
G1 X103.92 Y56.143 E0.00055
G1 X103.92 Y51.217 E0.00279
G1 X104.9 Y51.217 E0.00055
G1 X104.9 Y56.143 E0.00279
G1 X105.88 Y56.143 E0.00055
G1 X105.88 Y51.217 E0.00279
G1 X106.86 Y51.217 E0.00055
G1 X106.86 Y56.143 E0.00279
G1 X107.84 Y56.143 E0.00055
G1 X107.84 Y51.217 E0.00279
G1 X108.82 Y51.217 E0.00055
G1 X108.82 Y56.143 E0.00279
G1 X109.8 Y56.143 E0.00055
G1 X109.8 Y51.217 E0.00279
G1 X110.78 Y51.217 E0.00055
G1 X110.78 Y56.143 E0.00279
G1 X111.76 Y56.143 E0.00055
G1 X111.76 Y51.217 E0.00279
G1 X112.74 Y51.217 E0.00055
G1 X112.74 Y56.143 E0.00279
G1 X113.72 Y56.143 E0.00055
G1 X113.72 Y51.217 E0.00279
G1 X114.7 Y51.217 E0.00055
G1 X114.7 Y56.143 E0.00279
G1 X115.68 Y56.143 E0.00055
G1 X115.68 Y51.217 E0.00279
G1 X116.66 Y51.217 E0.00055
G1 X116.66 Y56.143 E0.00279
G1 X117.64 Y56.143 E0.00055
G1 X117.64 Y51.217 E0.00279
G1 X118.62 Y51.217 E0.00055
G1 X118.62 Y56.143 E0.00279
G1 X120.58 Y56.143 E0.00111
G1 X120.58 Y51.217 E0.00279
G1 X119.6 Y51.217 E0.00055
G1 X119.6 Y56.143 E0.00279
G1 X119.6 Y56.393
G0 X126.283 Y51.217
G1 X125.48 Y51.217 E0.00045
G1 X125.48 Y103.782 E0.02975
G1 X124.5 Y103.782 E0.00055
G1 X124.5 Y51.217 E0.02975
G1 X123.52 Y51.217 E0.00055
G1 X123.52 Y103.782 E0.02975
G1 X122.54 Y103.782 E0.00055
G1 X122.54 Y51.217 E0.02975
G1 X121.56 Y51.217 E0.00055
G1 X121.56 Y103.782 E0.02975
G1 X120.58 Y103.782 E0.00055
G1 X120.58 Y98.857 E0.00279
G1 X119.6 Y98.857 E0.00055
G1 X119.6 Y103.782 E0.00279
G1 X118.62 Y103.782 E0.00055
G1 X118.62 Y98.857 E0.00279
G1 X117.64 Y98.857 E0.00055
G1 X117.64 Y103.782 E0.00279
G1 X116.66 Y103.782 E0.00055
G1 X116.66 Y98.857 E0.00279
G1 X115.68 Y98.857 E0.00055
G1 X115.68 Y103.782 E0.00279
G1 X114.7 Y103.782 E0.00055
G1 X114.7 Y98.857 E0.00279
G1 X113.72 Y98.857 E0.00055
G1 X113.72 Y103.782 E0.00279
G1 X112.74 Y103.782 E0.00055
G1 X112.74 Y98.857 E0.00279
G1 X111.76 Y98.857 E0.00055
G1 X111.76 Y103.782 E0.00279
G1 X110.78 Y103.782 E0.00055
G1 X110.78 Y98.857 E0.00279
G1 X109.8 Y98.857 E0.00055
G1 X109.8 Y103.782 E0.00279
G1 X108.82 Y103.782 E0.00055
G1 X108.82 Y98.857 E0.00279
G1 X107.84 Y98.857 E0.00055
G1 X107.84 Y103.782 E0.00279
G1 X106.86 Y103.782 E0.00055
G1 X106.86 Y98.857 E0.00279
G1 X105.88 Y98.857 E0.00055
G1 X105.88 Y103.782 E0.00279
G1 X104.9 Y103.782 E0.00055
G1 X104.9 Y98.857 E0.00279
G1 X103.92 Y98.857 E0.00055
G1 X103.92 Y103.782 E0.00279
G1 X102.94 Y103.782 E0.00055
G1 X102.94 Y98.857 E0.00279
G1 X101.96 Y98.857 E0.00055
G1 X101.96 Y103.782 E0.00279
G1 X100.98 Y103.782 E0.00055
G1 X100.98 Y98.857 E0.00279
G1 X100 Y98.857 E0.00055
G1 X100 Y103.782 E0.00279
G1 X99.02 Y103.782 E0.00055
G1 X99.02 Y98.857 E0.00279
G1 X98.04 Y98.857 E0.00055
G1 X98.04 Y103.782 E0.00279
G1 X97.06 Y103.782 E0.00055
G1 X97.06 Y98.857 E0.00279
G1 X96.08 Y98.857 E0.00055
G1 X96.08 Y103.782 E0.00279
G1 X95.1 Y103.782 E0.00055
G1 X95.1 Y98.857 E0.00279
G1 X94.12 Y98.857 E0.00055
G1 X94.12 Y103.782 E0.00279
G1 X93.14 Y103.782 E0.00055
G1 X93.14 Y98.857 E0.00279
G1 X92.16 Y98.857 E0.00055
G1 X92.16 Y103.782 E0.00279
G1 X91.18 Y103.782 E0.00055
G1 X91.18 Y98.857 E0.00279
G1 X90.2 Y98.857 E0.00055
G1 X90.2 Y103.782 E0.00279
G1 X89.22 Y103.782 E0.00055
G1 X89.22 Y98.857 E0.00279
G1 X88.24 Y98.857 E0.00055
G1 X88.24 Y103.782 E0.00279
G1 X87.26 Y103.782 E0.00055
G1 X87.26 Y98.857 E0.00279
G1 X86.28 Y98.857 E0.00055
G1 X86.28 Y103.782 E0.00279
G1 X85.3 Y103.782 E0.00055
G1 X85.3 Y98.857 E0.00279
G1 X84.32 Y98.857 E0.00055
G1 X84.32 Y103.782 E0.00279
G1 X83.34 Y103.782 E0.00055
G1 X83.34 Y98.857 E0.00279
G1 X82.36 Y98.857 E0.00055
G1 X82.36 Y103.782 E0.00279
G1 X81.38 Y103.782 E0.00055
G1 X81.38 Y98.857 E0.00279
G1 X79.42 Y98.857 E0.00111
G1 X79.42 Y103.782 E0.00279
G1 X80.4 Y103.782 E0.00055
G1 X80.4 Y98.857 E0.00279
G1 X80.4 Y98.607
G1 F480 E-0.05
G1 F600 Z2.8
G0 X120.358 Y97.857 Z2.8
;TYPE:WALL-OUTER
G1 F600 Z0.8
G1 F480 E0.05
G1 F600 X120.358 Y57.143 E0.02304
G1 X79.643 Y57.143 E0.02304
G1 X79.643 Y97.857 E0.02304
G1 X120.358 Y97.857 E0.02304
G0 X120.358 Y97.357
G0 X121.458 Y97.357
G0 X127.283 Y104.782
G1 X72.718 Y104.782 E0.03088
G1 X72.718 Y50.217 E0.03088
G1 X127.283 Y50.217 E0.03088
G1 X127.283 Y104.782 E0.03088
G0 X126.783 Y104.782
G0 X126.183 Y103.682
G1 F480 E-0.05
G1 F600 Z2.8
;MESH:NONMESH
G0 X75.002 Y51.217 Z2.8
;TIME_ELAPSED:344.966528
;LAYER:2
;MESH:Monopoly_House.stl
G0 X75.002 Y51.217 Z3.2
;TYPE:FILL
G1 F600 Z1.2
G1 F480 E0.05
G1 F600 X73.718 Y52.501 E0.00103
G1 X73.718 Y51.217 E0.00073
G1 X76.388 Y51.217 E0.00151
G1 X73.718 Y53.887 E0.00214
G1 X73.718 Y55.273 E0.00078
G1 X77.774 Y51.217 E0.00325
G1 X79.16 Y51.217 E0.00078
G1 X73.718 Y56.659 E0.00436
G1 X73.718 Y58.045 E0.00078
G1 X80.546 Y51.217 E0.00546
G1 X81.932 Y51.217 E0.00078
G1 X73.718 Y59.431 E0.00657
G1 X73.718 Y60.817 E0.00078
G1 X83.318 Y51.217 E0.00768
G1 X84.704 Y51.217 E0.00078
G1 X79.777 Y56.143 E0.00394
G1 X81.163 Y56.143 E0.00078
G1 X86.09 Y51.217 E0.00394
G1 X87.476 Y51.217 E0.00078
G1 X82.549 Y56.143 E0.00394
G1 X83.935 Y56.143 E0.00078
G1 X88.862 Y51.217 E0.00394
G1 X90.248 Y51.217 E0.00078
