;FLAVOR:RepRap
;TIME:6099
;Filament used: 0.0782896m
;Layer height: 0.64
;MINX:66.32
;MINY:54.164
;MINZ:0.64
;MAXX:133.68
;MAXY:100.836
;MAXZ:77.32
;Generated with Cura_SteamEngine 4.10.0
T0
M104 S34
M109 S34
M82 ;absolute extrusion mode
;Pressure advances
M400 ; Finish all current moves and for pressure advances.
M572 D0 S0.00                      ;Pressure advance enabled
;Wipe
G1 Z1 F900			;Wipe height
M83			;Extruder to relative mode
M400
G1 Y140 E0.2 F900		;Draw first thin line
G1 X1 F900
G1 Y5 E0.2 F900		;Draw second thin line
G1 X2 F900
G1 Y50 F900			;Coast in case of leakage
;M82			;Extruder to absolute mode (default)
M400			; wait for moves to finish
G92 E0			; zero extruder
;MHI3D CODE END
M83 ;relative extrusion mode
G1 F480 E-0.05
;LAYER_COUNT:113
;LAYER:0
M106 S25.5
G1 F600 Z5.64
;MESH:60_card_deck_box_base.stl
G0 F4800 X133.68 Y54.164 Z5.64
;TYPE:WALL-OUTER
G1 F600 Z0.64
G1 F480 E0.05
G1 F600 X133.68 Y100.836 E0.06761
G1 X66.32 Y100.836 E0.09758
G1 X66.32 Y54.164 E0.06761
G1 X133.68 Y54.164 E0.09758
G0 F4800 X133.68 Y54.664
G0 X132.09 Y55.754
;TYPE:SKIN
G1 F600 X132.09 Y99.246 E0.06301
G1 X67.91 Y99.246 E0.09298
G1 X67.91 Y55.754 E0.06301
G1 X132.09 Y55.754 E0.09298
G0 F4800 X131.369 Y58.962
G1 F600 X128.881 Y56.473 E0.0051
G0 F4800 X126.618 Y56.473
G1 F600 X131.369 Y61.224 E0.00973
G0 F4800 X131.369 Y63.487
G1 F600 X124.356 Y56.473 E0.01437
G0 F4800 X122.093 Y56.473
G1 F600 X131.369 Y65.75 E0.019
G0 F4800 X131.369 Y68.013
G1 F600 X119.83 Y56.473 E0.02364
G0 F4800 X117.567 Y56.473
G1 F600 X131.369 Y70.275 E0.02828
G0 F4800 X131.369 Y72.538
G1 F600 X115.305 Y56.473 E0.03291
G0 F4800 X113.042 Y56.473
G1 F600 X131.369 Y74.801 E0.03755
G0 F4800 X131.369 Y77.064
G1 F600 X110.779 Y56.473 E0.04218
G0 F4800 X108.516 Y56.473
G1 F600 X131.369 Y79.326 E0.04682
G0 F4800 X131.369 Y81.589
G1 F600 X106.254 Y56.473 E0.05145
G0 F4800 X103.991 Y56.473
G1 F600 X131.369 Y83.852 E0.05609
G0 F4800 X131.369 Y86.114
G1 F600 X101.728 Y56.473 E0.06073
G0 F4800 X99.465 Y56.473
G1 F600 X131.369 Y88.377 E0.06536
G0 F4800 X131.369 Y90.64
G1 F600 X97.203 Y56.473 E0.07
G0 F4800 X94.94 Y56.473
G1 F600 X131.369 Y92.903 E0.07463
G0 F4800 X131.369 Y95.165
G1 F600 X92.677 Y56.473 E0.07927
G0 F4800 X90.414 Y56.473
G1 F600 X131.369 Y97.428 E0.08391
G0 F4800 X130.203 Y98.525
G1 F600 X88.152 Y56.473 E0.08615
G0 F4800 X85.889 Y56.473
G1 F600 X127.941 Y98.525 E0.08615
G0 F4800 X125.678 Y98.525
G1 F600 X83.626 Y56.473 E0.08615
G0 F4800 X81.363 Y56.473
G1 F600 X123.415 Y98.525 E0.08615
G0 F4800 X121.152 Y98.525
G1 F600 X79.101 Y56.473 E0.08615
G0 F4800 X76.838 Y56.473
G1 F600 X118.89 Y98.525 E0.08615
G0 F4800 X116.627 Y98.525
G1 F600 X74.575 Y56.473 E0.08615
G0 F4800 X72.312 Y56.473
G1 F600 X114.364 Y98.525 E0.08615
G0 F4800 X112.101 Y98.525
G1 F600 X70.05 Y56.473 E0.08615
G0 F4800 X68.628 Y57.315
G1 F600 X109.839 Y98.525 E0.08443
G0 F4800 X107.576 Y98.525
G1 F600 X68.628 Y59.577 E0.07979
G0 F4800 X68.628 Y61.84
G1 F600 X105.313 Y98.525 E0.07516
G0 F4800 X103.05 Y98.525
G1 F600 X68.628 Y64.103 E0.07052
G0 F4800 X68.628 Y66.366
G1 F600 X100.788 Y98.525 E0.06589
G0 F4800 X98.525 Y98.525
G1 F600 X68.628 Y68.628 E0.06125
G0 F4800 X68.628 Y70.891
G1 F600 X96.262 Y98.525 E0.05661
G0 F4800 X93.999 Y98.525
G1 F600 X68.628 Y73.154 E0.05198
G0 F4800 X68.628 Y75.417
G1 F600 X91.737 Y98.525 E0.04734
G0 F4800 X89.474 Y98.525
G1 F600 X68.629 Y77.68 E0.04271
G0 F4800 X68.629 Y79.943
G1 F600 X87.211 Y98.525 E0.03807
G0 F4800 X84.948 Y98.525
G1 F600 X68.629 Y82.206 E0.03343
G0 F4800 X68.629 Y84.468
G1 F600 X82.686 Y98.525 E0.0288
G0 F4800 X80.423 Y98.525
G1 F600 X68.629 Y86.731 E0.02416
G0 F4800 X68.629 Y88.994
G1 F600 X78.16 Y98.525 E0.01953
G0 F4800 X75.898 Y98.525
G1 F600 X68.629 Y91.257 E0.01489
G0 F4800 X68.629 Y93.519
G1 F600 X73.635 Y98.525 E0.01026
G0 F4800 X71.372 Y98.525
G1 F600 X68.629 Y95.782 E0.00562
G0 F4800 X68.629 Y98.045
G1 F600 X69.109 Y98.525 E0.00098
G1 F480 E-0.05
G1 F600 Z5.64
;MESH:NONMESH
G0 F4800 X68 Y55.764 Z5.64
;TIME_ELAPSED:218.441262
;LAYER:1
;MESH:60_card_deck_box_base.stl
G0 X68 Y55.764 Z6.28
;TYPE:FILL
G1 F600 Z1.28
G1 F480 E0.05
G1 F600 X68 Y99.236 E0.06298
G1 X67.92 Y99.236 E0.00012
G1 X67.92 Y55.764 E0.06298
G1 X69.6 Y55.764 E0.00243
G1 X69.6 Y99.236 E0.06298
G1 X71.2 Y99.236 E0.00232
G1 X71.2 Y55.764 E0.06298
G1 X72.8 Y55.764 E0.00232
G1 X72.8 Y99.236 E0.06298
G1 X74.4 Y99.236 E0.00232
G1 X74.4 Y55.764 E0.06298
G1 X76 Y55.764 E0.00232
G1 X76 Y99.236 E0.06298
G1 X77.6 Y99.236 E0.00232
G1 X77.6 Y55.764 E0.06298
G1 X79.2 Y55.764 E0.00232
G1 X79.2 Y99.236 E0.06298
G1 X80.8 Y99.236 E0.00232
G1 X80.8 Y55.764 E0.06298
G1 X82.4 Y55.764 E0.00232
G1 X82.4 Y99.236 E0.06298
G1 X84 Y99.236 E0.00232
G1 X84 Y55.764 E0.06298
G1 X85.6 Y55.764 E0.00232
G1 X85.6 Y99.236 E0.06298
G1 X87.2 Y99.236 E0.00232
G1 X87.2 Y55.764 E0.06298
G1 X88.8 Y55.764 E0.00232
G1 X88.8 Y99.236 E0.06298
G1 X90.4 Y99.236 E0.00232
G1 X90.4 Y55.764 E0.06298
G1 X92 Y55.764 E0.00232
G1 X92 Y99.236 E0.06298
G1 X93.6 Y99.236 E0.00232
G1 X93.6 Y55.764 E0.06298
G1 X95.2 Y55.764 E0.00232
G1 X95.2 Y99.236 E0.06298
G1 X96.8 Y99.236 E0.00232
G1 X96.8 Y55.764 E0.06298
G1 X98.4 Y55.764 E0.00232
G1 X98.4 Y99.236 E0.06298
G1 X100 Y99.236 E0.00232
G1 X100 Y55.764 E0.06298
G1 X101.6 Y55.764 E0.00232
G1 X101.6 Y99.236 E0.06298
G1 X103.2 Y99.236 E0.00232
G1 X103.2 Y55.764 E0.06298
G1 X104.8 Y55.764 E0.00232
G1 X104.8 Y99.236 E0.06298
G1 X106.4 Y99.236 E0.00232
G1 X106.4 Y55.764 E0.06298
G1 X108 Y55.764 E0.00232
G1 X108 Y99.236 E0.06298
G1 X109.6 Y99.236 E0.00232
G1 X109.6 Y55.764 E0.06298
G1 X111.2 Y55.764 E0.00232
G1 X111.2 Y99.236 E0.06298
G1 X112.8 Y99.236 E0.00232
G1 X112.8 Y55.764 E0.06298
G1 X114.4 Y55.764 E0.00232
G1 X114.4 Y99.236 E0.06298
G1 X116 Y99.236 E0.00232
G1 X116 Y55.764 E0.06298
G1 X117.6 Y55.764 E0.00232
G1 X117.6 Y99.236 E0.06298
G1 X119.2 Y99.236 E0.00232
G1 X119.2 Y55.764 E0.06298
G1 X120.8 Y55.764 E0.00232
G1 X120.8 Y99.236 E0.06298
G1 X122.4 Y99.236 E0.00232
G1 X122.4 Y55.764 E0.06298
G1 X124 Y55.764 E0.00232
G1 X124 Y99.236 E0.06298
G1 X125.6 Y99.236 E0.00232
G1 X125.6 Y55.764 E0.06298
G1 X127.2 Y55.764 E0.00232
G1 X127.2 Y99.236 E0.06298
G1 X128.8 Y99.236 E0.00232
G1 X128.8 Y55.764 E0.06298
G1 X130.4 Y55.764 E0.00232
G1 X130.4 Y99.236 E0.06298
G1 X132 Y99.236 E0.00232
G1 X132 Y55.764 E0.06298
G1 X132.08 Y55.764 E0.00012
G0 F4800 X133.68 Y54.164
;TYPE:WALL-OUTER
G1 F600 X133.68 Y100.836 E0.06761
G1 X66.32 Y100.836 E0.09758
G1 X66.32 Y54.164 E0.06761
G1 X133.68 Y54.164 E0.09758
G0 F4800 X133.68 Y54.664
G1 F480 E-0.05
G1 F600 Z6.28
;MESH:NONMESH
G0 F4800 X69.692 Y55.763 Z6.28
;TIME_ELAPSED:432.737557
;LAYER:2
;MESH:60_card_deck_box_base.stl
G0 X69.692 Y55.763 Z6.92
;TYPE:FILL
G1 F600 Z1.92
G1 F480 E0.05
G1 F600 X67.919 Y57.536 E0.00363
G1 X67.92 Y55.764 E0.00257
G1 X71.955 Y55.763 E0.00585
G1 X67.919 Y59.799 E0.00827
G1 X67.919 Y62.062 E0.00328
G1 X74.217 Y55.763 E0.0129
G1 X76.48 Y55.763 E0.00328
G1 X67.919 Y64.324 E0.01754
G1 X67.919 Y66.587 E0.00328
G1 X78.743 Y55.763 E0.02218
G1 X81.006 Y55.763 E0.00328
G1 X67.919 Y68.85 E0.02681
G1 X67.919 Y71.113 E0.00328
G1 X83.268 Y55.763 E0.03145
G1 X85.531 Y55.763 E0.00328
G1 X67.919 Y73.375 E0.03608
G1 X67.919 Y75.638 E0.00328
G1 X87.794 Y55.763 E0.04072
G1 X90.057 Y55.763 E0.00328
G1 X67.92 Y77.9 E0.04535
G1 X67.92 Y80.163 E0.00328
G1 X92.319 Y55.763 E0.04999
G1 X94.582 Y55.763 E0.00328
G1 X67.92 Y82.426 E0.05462
G1 X67.92 Y84.688 E0.00328
G1 X96.845 Y55.763 E0.05926
G1 X99.108 Y55.763 E0.00328
G1 X67.92 Y86.951 E0.0639
G1 X67.92 Y89.214 E0.00328
G1 X101.37 Y55.763 E0.06853
G1 X103.633 Y55.763 E0.00328
G1 X67.92 Y91.476 E0.07317
G1 X67.92 Y93.739 E0.00328
G1 X105.896 Y55.763 E0.0778
G1 X108.159 Y55.763 E0.00328
G1 X67.92 Y96.002 E0.08244
G1 X67.92 Y98.265 E0.00328
G1 X110.421 Y55.763 E0.08707
G1 X112.684 Y55.763 E0.00328
G1 X69.212 Y99.236 E0.08906
G1 X71.475 Y99.236 E0.00328
G1 X114.947 Y55.763 E0.08906
G1 X117.21 Y55.763 E0.00328
G1 X73.737 Y99.236 E0.08906
G1 X76 Y99.236 E0.00328
G1 X119.472 Y55.763 E0.08906
G1 X121.735 Y55.763 E0.00328
G1 X78.263 Y99.236 E0.08906
G1 X80.526 Y99.236 E0.00328
G1 X123.998 Y55.763 E0.08906
G1 X126.26 Y55.763 E0.00328
G1 X82.788 Y99.236 E0.08906
G1 X85.051 Y99.236 E0.00328
G1 X128.523 Y55.763 E0.08906
G1 X130.786 Y55.763 E0.00328
G1 X87.314 Y99.236 E0.08906
G1 X89.576 Y99.236 E0.00328
G1 X132.079 Y56.734 E0.08708
G1 X132.079 Y58.996 E0.00328
G1 X91.839 Y99.236 E0.08244
G1 X94.102 Y99.236 E0.00328
G1 X132.079 Y61.259 E0.0778
G1 X132.079 Y63.522 E0.00328
G1 X96.365 Y99.236 E0.07317
G1 X98.627 Y99.236 E0.00328
G1 X132.079 Y65.784 E0.06853
G1 X132.079 Y68.047 E0.00328
G1 X100.89 Y99.236 E0.0639
G1 X103.153 Y99.236 E0.00328
G1 X132.079 Y70.31 E0.05926
G1 X132.079 Y72.573 E0.00328
G1 X105.416 Y99.236 E0.05463
G1 X107.678 Y99.236 E0.00328
G1 X132.079 Y74.835 E0.04999
G1 X132.079 Y77.098 E0.00328
G1 X109.941 Y99.236 E0.04535
G1 X112.204 Y99.236 E0.00328
G1 X132.079 Y79.361 E0.04072
G1 X132.079 Y81.624 E0.00328
G1 X114.467 Y99.236 E0.03608
G1 X116.729 Y99.236 E0.00328
G1 X132.079 Y83.886 E0.03145
G1 X132.079 Y86.149 E0.00328
G1 X118.992 Y99.236 E0.02681
G1 X121.255 Y99.236 E0.00328
G1 X132.079 Y88.412 E0.02218
G1 X132.079 Y90.675 E0.00328
G1 X123.518 Y99.236 E0.01754
G1 X125.78 Y99.236 E0.00328
G1 X132.079 Y92.937 E0.0129
G1 X132.079 Y95.2 E0.00328
G1 X128.043 Y99.236 E0.00827
G1 X132.08 Y99.236 E0.00585
G1 X132.079 Y97.463 E0.00257
G1 X130.306 Y99.236 E0.00363
G1 F480 E-0.05
G1 F600 Z6.92
G0 F4800 X133.68 Y54.164 Z6.92
;TYPE:WALL-OUTER
G1 F600 Z1.92
G1 F480 E0.05
G1 F600 X133.68 Y100.836 E0.06761
G1 X66.32 Y100.836 E0.09758
G1 X66.32 Y54.164 E0.06761
G1 X133.68 Y54.164 E0.09758
G0 F4800 X133.68 Y54.664
G1 F480 E-0.05
G1 F600 Z6.92
;MESH:NONMESH
G0 F4800 X67.92 Y98.3 Z6.92
;TIME_ELAPSED:645.591225
;LAYER:3
;MESH:60_card_deck_box_base.stl
G0 X67.92 Y98.3 Z7.56
;TYPE:FILL
G1 F600 Z2.56
G1 F480 E0.05
G1 F600 X132.08 Y98.3 E0.09295
G1 X132.08 Y99.236 E0.00136
G1 X67.92 Y99.236 E0.09295
G1 X67.92 Y96.7 E0.00367
G1 X132.08 Y96.7 E0.09295
G1 X132.08 Y95.1 E0.00232
G1 X67.92 Y95.1 E0.09295
G1 X67.92 Y93.5 E0.00232
G1 X132.08 Y93.5 E0.09295
G1 X132.08 Y91.9 E0.00232
G1 X67.92 Y91.9 E0.09295
G1 X67.92 Y90.3 E0.00232
G1 X132.08 Y90.3 E0.09295
G1 X132.08 Y88.7 E0.00232
G1 X67.92 Y88.7 E0.09295
G1 X67.92 Y87.1 E0.00232
G1 X132.08 Y87.1 E0.09295
G1 X132.08 Y85.5 E0.00232
G1 X67.92 Y85.5 E0.09295
G1 X67.92 Y83.9 E0.00232
G1 X132.08 Y83.9 E0.09295
G1 X132.08 Y82.3 E0.00232
G1 X67.92 Y82.3 E0.09295
G1 X67.92 Y80.7 E0.00232
G1 X132.08 Y80.7 E0.09295
G1 X132.08 Y79.1 E0.00232
G1 X67.92 Y79.1 E0.09295
G1 X67.92 Y77.5 E0.00232
G1 X132.08 Y77.5 E0.09295
G1 X132.08 Y75.9 E0.00232
G1 X67.92 Y75.9 E0.09295
G1 X67.92 Y74.3 E0.00232
G1 X132.08 Y74.3 E0.09295
G1 X132.08 Y72.7 E0.00232
G1 X67.92 Y72.7 E0.09295
G1 X67.92 Y71.1 E0.00232
G1 X132.08 Y71.1 E0.09295
G1 X132.08 Y69.5 E0.00232
G1 X67.92 Y69.5 E0.09295
G1 X67.92 Y67.9 E0.00232
G1 X132.08 Y67.9 E0.09295
G1 X132.08 Y66.3 E0.00232
G1 X67.92 Y66.3 E0.09295
G1 X67.92 Y64.7 E0.00232
G1 X132.08 Y64.7 E0.09295
G1 X132.08 Y63.1 E0.00232
G1 X67.92 Y63.1 E0.09295
G1 X67.92 Y61.5 E0.00232
G1 X132.08 Y61.5 E0.09295
G1 X132.08 Y59.9 E0.00232
G1 X67.92 Y59.9 E0.09295
G1 X67.92 Y58.3 E0.00232
G1 X132.08 Y58.3 E0.09295
G1 X132.08 Y56.7 E0.00232
G1 X67.92 Y56.7 E0.09295
G1 X67.92 Y55.764 E0.00136
G1 X132.08 Y55.764 E0.09295
G1 X132.48 Y55.764
G0 F4800 X133.68 Y54.164
;TYPE:WALL-OUTER
G1 F600 X133.68 Y100.836 E0.06761
G1 X66.32 Y100.836 E0.09758
G1 X66.32 Y54.164 E0.06761
G1 X133.68 Y54.164 E0.09758
G0 F4800 X133.68 Y54.664
G1 F480 E-0.05
;MESH:NONMESH
G0 F600 X133.68 Y54.664 Z3.2
G0 F4800 X133.68 Y54.164
;TIME_ELAPSED:860.023157
;LAYER:4
;TYPE:WALL-OUTER
;MESH:60_card_deck_box_base.stl
G1 F480 E0.05
G1 F600 X133.68 Y100.836 E0.06761
G1 X66.32 Y100.836 E0.09758
G1 X66.32 Y54.164 E0.06761
G1 X133.68 Y54.164 E0.09758
G0 F4800 X133.68 Y54.664
G0 X131.842 Y56.002
;TYPE:SKIN
G1 F600 X131.842 Y98.998 E0.06229
G1 X68.158 Y98.998 E0.09226
G1 X68.158 Y56.002 E0.06229
G1 X131.842 Y56.002 E0.09226
G0 F4800 X131.121 Y58.713
G1 F600 X129.129 Y56.721 E0.00408
G0 F4800 X126.866 Y56.721
G1 F600 X131.121 Y60.976 E0.00872
G0 F4800 X131.121 Y63.239
G1 F600 X124.604 Y56.721 E0.01335
G0 F4800 X122.341 Y56.721
G1 F600 X131.121 Y65.502 E0.01799
G0 F4800 X131.121 Y67.764
G1 F600 X120.078 Y56.721 E0.02262
G0 F4800 X117.816 Y56.721
G1 F600 X131.121 Y70.027 E0.02726
G0 F4800 X131.121 Y72.29
G1 F600 X115.553 Y56.721 E0.0319
G0 F4800 X113.29 Y56.721
G1 F600 X131.121 Y74.553 E0.03653
G0 F4800 X131.121 Y76.815
G1 F600 X111.027 Y56.721 E0.04117
G0 F4800 X108.765 Y56.721
G1 F600 X131.121 Y79.078 E0.0458
G0 F4800 X131.121 Y81.341
G1 F600 X106.502 Y56.721 E0.05044
G0 F4800 X104.239 Y56.721
G1 F600 X131.121 Y83.604 E0.05507
G0 F4800 X131.121 Y85.866
G1 F600 X101.976 Y56.721 E0.05971
G0 F4800 X99.714 Y56.721
G1 F600 X131.121 Y88.129 E0.06435
G0 F4800 X131.121 Y90.392
G1 F600 X97.451 Y56.721 E0.06898
G0 F4800 X95.188 Y56.721
G1 F600 X131.121 Y92.655 E0.07362
G0 F4800 X131.121 Y94.917
G1 F600 X92.925 Y56.721 E0.07825
G0 F4800 X90.663 Y56.721
G1 F600 X131.121 Y97.18 E0.08289
G0 F4800 X129.955 Y98.277
G1 F600 X88.4 Y56.721 E0.08514
G0 F4800 X86.137 Y56.721
G1 F600 X127.692 Y98.277 E0.08514
G0 F4800 X125.43 Y98.277
G1 F600 X83.874 Y56.721 E0.08514
G0 F4800 X81.612 Y56.721
G1 F600 X123.167 Y98.277 E0.08514
G0 F4800 X120.904 Y98.277
G1 F600 X79.349 Y56.721 E0.08514
G0 F4800 X77.086 Y56.721
G1 F600 X118.641 Y98.277 E0.08514
G0 F4800 X116.379 Y98.277
G1 F600 X74.823 Y56.721 E0.08514
G0 F4800 X72.561 Y56.721
G1 F600 X114.116 Y98.277 E0.08514
G0 F4800 X111.853 Y98.277
G1 F600 X70.298 Y56.721 E0.08514
G0 F4800 X68.877 Y57.563
G1 F600 X109.59 Y98.277 E0.08341
G0 F4800 X107.328 Y98.277
G1 F600 X68.877 Y59.826 E0.07878
G0 F4800 X68.877 Y62.088
G1 F600 X105.065 Y98.277 E0.07414
G0 F4800 X102.802 Y98.277
G1 F600 X68.877 Y64.351 E0.0695
G0 F4800 X68.877 Y66.614
G1 F600 X100.539 Y98.277 E0.06487
G0 F4800 X98.277 Y98.277
G1 F600 X68.877 Y68.877 E0.06023
G0 F4800 X68.877 Y71.139
G1 F600 X96.014 Y98.277 E0.0556
G0 F4800 X93.751 Y98.277
G1 F600 X68.877 Y73.402 E0.05096
G0 F4800 X68.877 Y75.665
G1 F600 X91.489 Y98.277 E0.04633
G0 F4800 X89.226 Y98.277
G1 F600 X68.877 Y77.928 E0.04169
G0 F4800 X68.877 Y80.191
G1 F600 X86.963 Y98.277 E0.03705
G0 F4800 X84.7 Y98.277
G1 F600 X68.877 Y82.454 E0.03242
G0 F4800 X68.877 Y84.717
G1 F600 X82.438 Y98.277 E0.02778
G0 F4800 X80.175 Y98.277
G1 F600 X68.877 Y86.979 E0.02315
G0 F4800 X68.877 Y89.242
G1 F600 X77.912 Y98.277 E0.01851
G0 F4800 X75.649 Y98.277
G1 F600 X68.877 Y91.505 E0.01387
G0 F4800 X68.877 Y93.768
G1 F600 X73.387 Y98.277 E0.00924
G0 F4800 X71.124 Y98.277
G1 F600 X68.877 Y96.03 E0.0046
G1 F480 E-0.05
G1 F600 Z8.2
;MESH:NONMESH
G0 F4800 X131.832 Y98.988 Z8.2
;TIME_ELAPSED:1069.444322
;LAYER:5
;MESH:60_card_deck_box_base.stl
G0 X131.832 Y98.988 Z8.84
;TYPE:WALL-OUTER
G1 F600 Z3.84
G1 F480 E0.05
G1 F600 X131.832 Y56.012 E0.06226
G1 X68.168 Y56.012 E0.09223
G1 X68.168 Y98.988 E0.06226
G1 X131.832 Y98.988 E0.09223
G0 F4800 X131.832 Y98.488
G0 X133.68 Y100.836
G1 F600 X66.32 Y100.836 E0.09758
G1 X66.32 Y54.164 E0.06761
G1 X133.68 Y54.164 E0.09758
G1 X133.68 Y100.836 E0.06761
G0 F4800 X133.18 Y100.836
G1 F480 E-0.05
;MESH:NONMESH
G0 F600 X133.18 Y100.836 Z4.48
G0 F4800 X131.832 Y98.988
;TIME_ELAPSED:1114.715688
;LAYER:6
;TYPE:WALL-OUTER
;MESH:60_card_deck_box_base.stl
G1 F480 E0.05
G1 F600 X131.832 Y56.012 E0.06226
G1 X68.168 Y56.012 E0.09223
G1 X68.168 Y98.988 E0.06226
G1 X131.832 Y98.988 E0.09223
G0 F4800 X131.832 Y98.488
G0 X133.68 Y100.836
G1 F600 X66.32 Y100.836 E0.09758
G1 X66.32 Y54.164 E0.06761
G1 X133.68 Y54.164 E0.09758
G1 X133.68 Y100.836 E0.06761
G0 F4800 X133.18 Y100.836
G1 F480 E-0.05
;MESH:NONMESH
G0 F600 X133.18 Y100.836 Z5.12
G0 F4800 X131.832 Y98.988
;TIME_ELAPSED:1159.135416
;LAYER:7
;TYPE:WALL-OUTER
;MESH:60_card_deck_box_base.stl
G1 F480 E0.05
G1 F600 X131.832 Y56.012 E0.06226
G1 X68.168 Y56.012 E0.09223
G1 X68.168 Y98.988 E0.06226
G1 X131.832 Y98.988 E0.09223
G0 F4800 X131.832 Y98.488
G0 X133.68 Y100.836
G1 F600 X66.32 Y100.836 E0.09758
