;FLAVOR:RepRap
;TIME:6862
;Filament used: 0.0292294m
;Layer height: 0.4
;MINX:57.3
;MINY:34.8
;MINZ:0.4
;MAXX:142.7
;MAXY:120.2
;MAXZ:18
;Generated with Cura_SteamEngine 4.10.0
T0
M104 S35
M109 S35
M82 ;absolute extrusion mode
;Pressure advances
M400 ; Finish all current moves and for pressure advances.
M572 D0 S0.00                      ;Pressure advance enabled
;Wipe
G1 Z1 F900			;Wipe height
M83			;Extruder to relative mode
M400
G1 Y140 E0.2 F900		;Draw first thin line
G1 X1 F900
G1 Y5 E0.2 F900		;Draw second thin line
G1 X2 F900
G1 Y50 F900			;Coast in case of leakage
;M82			;Extruder to absolute mode (default)
M400			; wait for moves to finish
G92 E0			; zero extruder
;MHI3D CODE END
M83 ;relative extrusion mode
G1 F480 E-0.05
;LAYER_COUNT:40
;LAYER:0
M107
G1 F600 Z2.4
;MESH:bottom_20mm_height.stl
G0 X67.311 Y116.968 Z2.4
;TYPE:WALL-OUTER
G1 F600 Z0.4
G1 F480 E0.05
G1 F600 X66.608 Y116.87 E0.0004
G1 X65.943 Y116.713 E0.00039
G1 X65.287 Y116.492 E0.00039
G1 X64.661 Y116.216 E0.00039
G1 X64.059 Y115.881 E0.00039
G1 X63.483 Y115.487 E0.00039
G1 X62.95 Y115.045 E0.00039
G1 X62.453 Y114.548 E0.0004
G1 X62.01 Y114.013 E0.00039
G1 X61.619 Y113.441 E0.00039
G1 X61.284 Y112.836 E0.00039
G1 X61.005 Y112.205 E0.00039
G1 X60.786 Y111.554 E0.00039
G1 X60.629 Y110.883 E0.00039
G1 X60.531 Y110.173 E0.00041
G1 X60.5 Y109.5 E0.00038
G1 X60.5 Y85 E0.01386
G1 X57.3 Y85 E0.00181
G1 X57.3 Y70 E0.00849
G1 X60.5 Y70 E0.00181
G1 X60.5 Y45.511 E0.01386
G1 X60.531 Y44.819 E0.00039
G1 X60.63 Y44.108 E0.00041
G1 X60.787 Y43.443 E0.00039
G1 X61.009 Y42.785 E0.00039
G1 X61.283 Y42.164 E0.00038
G1 X61.619 Y41.559 E0.00039
G1 X62.01 Y40.987 E0.00039
G1 X62.453 Y40.452 E0.00039
G1 X62.941 Y39.963 E0.00039
G1 X63.475 Y39.519 E0.00039
G1 X64.053 Y39.123 E0.0004
G1 X64.659 Y38.786 E0.00039
G1 X65.295 Y38.505 E0.00039
G1 X65.943 Y38.287 E0.00039
G1 X66.617 Y38.129 E0.00039
G1 X67.317 Y38.032 E0.0004
G1 X68.011 Y38 E0.00039
G1 X92.5 Y38 E0.01386
G1 X92.5 Y34.8 E0.00181
G1 X107.5 Y34.8 E0.00849
G1 X107.5 Y38 E0.00181
G1 X131.989 Y38 E0.01386
G1 X132.347 Y38.009 E0.0002
G1 X133.037 Y38.073 E0.00039
G1 X133.711 Y38.197 E0.00039
G1 X134.375 Y38.387 E0.00039
G1 X135.035 Y38.642 E0.0004
G1 X135.663 Y38.955 E0.0004
G1 X136.241 Y39.315 E0.00039
G1 X136.803 Y39.74 E0.0004
G1 X137.306 Y40.2 E0.00039
G1 X137.78 Y40.721 E0.0004
G1 X138.197 Y41.275 E0.00039
G1 X138.549 Y41.844 E0.00038
G1 X138.858 Y42.467 E0.00039
G1 X139.116 Y43.133 E0.0004
G1 X139.305 Y43.8 E0.00039
G1 X139.43 Y44.482 E0.00039
G1 X139.491 Y45.151 E0.00038
G1 X139.5 Y45.5 E0.0002
G1 X139.5 Y70 E0.01386
G1 X142.7 Y70 E0.00181
G1 X142.7 Y85 E0.00849
G1 X139.5 Y85 E0.00181
G1 X139.5 Y109.489 E0.01386
G1 X139.469 Y110.181 E0.00039
G1 X139.37 Y110.892 E0.00041
G1 X139.214 Y111.555 E0.00039
G1 X138.992 Y112.213 E0.00039
G1 X138.717 Y112.836 E0.00039
G1 X138.381 Y113.441 E0.00039
G1 X137.99 Y114.013 E0.00039
G1 X137.547 Y114.548 E0.00039
G1 X137.059 Y115.037 E0.00039
G1 X136.525 Y115.481 E0.00039
G1 X135.947 Y115.877 E0.0004
G1 X135.341 Y116.214 E0.00039
G1 X134.705 Y116.495 E0.00039
G1 X134.057 Y116.713 E0.00039
G1 X133.383 Y116.871 E0.00039
G1 X132.683 Y116.968 E0.0004
G1 X131.988 Y117 E0.00039
G1 X107.5 Y117 E0.01386
G1 X107.5 Y120.2 E0.00181
G1 X92.5 Y120.2 E0.00849
G1 X92.5 Y117 E0.00181
G1 X68.011 Y117 E0.01386
G1 X67.311 Y116.968 E0.0004
G0 X66.816 Y116.899
G0 X66.8 Y115.897
;TYPE:SKIN
G1 X66.212 Y115.759 E0.00034
G1 X65.648 Y115.569 E0.00034
G1 X65.096 Y115.326 E0.00034
G1 X64.584 Y115.041 E0.00033
G1 X64.078 Y114.695 E0.00035
G1 X63.617 Y114.312 E0.00034
G1 X63.182 Y113.877 E0.00035
G1 X62.808 Y113.425 E0.00033
G1 X62.457 Y112.912 E0.00035
G1 X62.171 Y112.398 E0.00033
G1 X61.93 Y111.85 E0.00034
G1 X61.74 Y111.286 E0.00034
G1 X61.601 Y110.693 E0.00034
G1 X61.517 Y110.08 E0.00035
G1 X61.49 Y109.5 E0.00033
G1 X61.49 Y84.01 E0.01442
G1 X58.29 Y84.01 E0.00181
G1 X58.29 Y70.99 E0.00737
G1 X61.49 Y70.99 E0.00181
G1 X61.49 Y45.533 E0.01441
G1 X61.518 Y44.905 E0.00036
G1 X61.602 Y44.302 E0.00034
G1 X61.742 Y43.711 E0.00034
G1 X61.937 Y43.133 E0.00035
G1 X62.166 Y42.611 E0.00032
G1 X62.46 Y42.082 E0.00034
G1 X62.806 Y41.578 E0.00035
G1 X63.182 Y41.123 E0.00033
G1 X63.61 Y40.694 E0.00034
G1 X64.074 Y40.308 E0.00034
G1 X64.574 Y39.966 E0.00034
G1 X65.104 Y39.671 E0.00034
G1 X65.65 Y39.43 E0.00034
G1 X66.211 Y39.241 E0.00033
G1 X66.806 Y39.101 E0.00035
G1 X67.412 Y39.018 E0.00035
G1 X68.013 Y38.99 E0.00034
G1 X93.49 Y38.99 E0.01442
G1 X93.49 Y35.79 E0.00181
G1 X106.51 Y35.79 E0.00737
G1 X106.51 Y38.99 E0.00181
G1 X131.963 Y38.99 E0.0144
G1 X132.291 Y38.999 E0.00019
G1 X132.9 Y39.055 E0.00035
G1 X133.487 Y39.163 E0.00034
G1 X134.065 Y39.328 E0.00034
G1 X134.634 Y39.548 E0.00035
G1 X135.182 Y39.821 E0.00035
G1 X135.673 Y40.128 E0.00033
G1 X136.175 Y40.506 E0.00036
G1 X136.603 Y40.899 E0.00033
G1 X137.012 Y41.347 E0.00034
G1 X137.38 Y41.836 E0.00035
G1 X137.685 Y42.329 E0.00033
G1 X137.948 Y42.86 E0.00034
G1 X138.179 Y43.455 E0.00036
G1 X138.339 Y44.018 E0.00033
G1 X138.448 Y44.617 E0.00034
G1 X138.501 Y45.204 E0.00033
G1 X138.51 Y45.5 E0.00017
G1 X138.51 Y70.99 E0.01442
G1 X141.71 Y70.99 E0.00181
G1 X141.71 Y84.01 E0.00737
G1 X138.51 Y84.01 E0.00181
G1 X138.51 Y109.467 E0.01441
G1 X138.482 Y110.097 E0.00036
G1 X138.398 Y110.7 E0.00034
G1 X138.26 Y111.286 E0.00034
G1 X138.066 Y111.861 E0.00034
G1 X137.832 Y112.393 E0.00033
G1 X137.54 Y112.918 E0.00034
G1 X137.194 Y113.422 E0.00035
G1 X136.818 Y113.877 E0.00033
G1 X136.39 Y114.306 E0.00034
G1 X135.926 Y114.692 E0.00034
G1 X135.426 Y115.034 E0.00034
G1 X134.896 Y115.329 E0.00034
G1 X134.35 Y115.57 E0.00034
G1 X133.789 Y115.759 E0.00033
G1 X133.194 Y115.899 E0.00035
G1 X132.588 Y115.982 E0.00035
G1 X131.986 Y116.01 E0.00034
G1 X106.51 Y116.01 E0.01442
G1 X106.51 Y119.21 E0.00181
G1 X93.49 Y119.21 E0.00737
G1 X93.49 Y116.01 E0.00181
G1 X68.013 Y116.01 E0.01442
G1 X67.407 Y115.982 E0.00034
G1 X66.8 Y115.897 E0.00035
G0 X65.524 Y115.022
G1 X62.475 Y111.972 E0.00244
G0 X61.966 Y110.049
G1 X67.448 Y115.532 E0.00439
G0 X68.889 Y115.558
G1 X61.94 Y108.609 E0.00556
G0 X61.94 Y107.195
G1 X70.304 Y115.558 E0.00669
G0 X71.718 Y115.558
G1 X61.94 Y105.781 E0.00782
G0 X61.94 Y104.366
G1 X73.132 Y115.558 E0.00896
G0 X74.546 Y115.558
G1 X61.94 Y102.952 E0.01009
G0 X61.94 Y101.538
G1 X75.96 Y115.558 E0.01122
G0 X77.375 Y115.558
G1 X61.94 Y100.124 E0.01235
G0 X61.94 Y98.709
G1 X78.789 Y115.558 E0.01348
G0 X80.203 Y115.558
G1 X61.94 Y97.295 E0.01462
G0 X61.94 Y95.881
G1 X81.617 Y115.558 E0.01575
G0 X83.032 Y115.558
G1 X61.94 Y94.467 E0.01688
G0 X61.94 Y93.053
G1 X84.446 Y115.558 E0.01801
G0 X85.86 Y115.558
G1 X61.94 Y91.638 E0.01914
G0 X61.94 Y90.224
G1 X87.274 Y115.558 E0.02027
G0 X88.688 Y115.558
G1 X61.94 Y88.81 E0.02141
G0 X61.94 Y87.396
G1 X90.103 Y115.558 E0.02254
G0 X91.517 Y115.558
G1 X61.94 Y85.982 E0.02367
G0 X61.94 Y84.567
G1 X92.931 Y115.558 E0.0248
G0 X93.939 Y116.567
G1 X96.131 Y118.759 E0.00175
G0 X94.717 Y118.759
G1 X93.939 Y117.981 E0.00062
G0 X97.546 Y118.759
G1 X58.74 Y79.953 E0.03106
G0 X58.74 Y78.539
G1 X98.96 Y118.759 E0.03219
G0 X100.374 Y118.759
G1 X58.74 Y77.124 E0.03332
G0 X58.74 Y75.71
G1 X101.788 Y118.759 E0.03445
G0 X103.202 Y118.759
G1 X58.74 Y74.296 E0.03558
G0 X58.74 Y72.882
G1 X104.617 Y118.759 E0.03671
G0 X106.031 Y118.759
G1 X58.74 Y71.467 E0.03785
G0 X60.125 Y71.439
G1 X106.06 Y117.374 E0.03676
G0 X106.06 Y115.959
G1 X61.54 Y71.439 E0.03563
G0 X61.939 Y70.424
G1 X107.074 Y115.559 E0.03612
G0 X108.488 Y115.559
G1 X61.939 Y69.01 E0.03725
G0 X61.939 Y67.595
G1 X109.902 Y115.559 E0.03838
G0 X111.316 Y115.559
G1 X61.939 Y66.181 E0.03952
G0 X61.939 Y64.767
G1 X112.731 Y115.559 E0.04065
G0 X114.145 Y115.559
G1 X61.939 Y63.353 E0.04178
G0 X61.939 Y61.939
G1 X115.559 Y115.559 E0.04291
G0 X116.973 Y115.559
G1 X61.939 Y60.524 E0.04404
G0 X61.939 Y59.11
G1 X118.388 Y115.559 E0.04518
G0 X119.802 Y115.559
G1 X61.939 Y57.696 E0.04631
G0 X61.939 Y56.282
G1 X121.216 Y115.559 E0.04744
G0 X122.63 Y115.559
G1 X61.939 Y54.867 E0.04857
G0 X61.939 Y53.453
G1 X124.044 Y115.559 E0.0497
G0 X125.459 Y115.559
G1 X61.939 Y52.039 E0.05083
G0 X61.939 Y50.625
G1 X126.873 Y115.559 E0.05197
G0 X128.287 Y115.559
G1 X61.939 Y49.211 E0.0531
G0 X61.939 Y47.796
G1 X129.701 Y115.559 E0.05423
G0 X131.115 Y115.559
G1 X61.939 Y46.382 E0.05536
G0 X61.963 Y44.993
G1 X132.506 Y115.535 E0.05645
G0 X133.698 Y115.313
G1 X62.185 Y43.801 E0.05723
G0 X62.583 Y42.784
G1 X134.713 Y114.914 E0.05772
G0 X135.589 Y114.375
G1 X63.123 Y41.91 E0.05799
G0 X63.783 Y41.155
G1 X136.343 Y113.716 E0.05807
G0 X136.98 Y112.938
G1 X64.561 Y40.52 E0.05796
G0 X65.46 Y40.004
G1 X137.495 Y112.039 E0.05765
G0 X137.865 Y110.995
G1 X66.504 Y39.634 E0.05711
G0 X67.737 Y39.453
G1 X138.046 Y109.762 E0.05627
G0 X138.059 Y108.361
G1 X69.138 Y39.44 E0.05516
G0 X70.552 Y39.44
G1 X138.059 Y106.947 E0.05402
G0 X138.059 Y105.532
G1 X71.967 Y39.44 E0.05289
G0 X73.381 Y39.44
G1 X138.059 Y104.118 E0.05176
G0 X138.059 Y102.704
G1 X74.795 Y39.44 E0.05063
G0 X76.209 Y39.44
G1 X138.059 Y101.29 E0.0495
G0 X138.059 Y99.876
G1 X77.624 Y39.44 E0.04837
G0 X79.038 Y39.44
G1 X138.059 Y98.461 E0.04723
G0 X138.059 Y97.047
G1 X80.452 Y39.44 E0.0461
G0 X81.866 Y39.44
G1 X138.059 Y95.633 E0.04497
G0 X138.059 Y94.219
G1 X83.28 Y39.44 E0.04384
G0 X84.695 Y39.44
G1 X138.059 Y92.804 E0.04271
G0 X138.059 Y91.39
G1 X86.109 Y39.44 E0.04157
G0 X87.523 Y39.44
G1 X138.059 Y89.976 E0.04044
G0 X138.059 Y88.562
G1 X88.937 Y39.44 E0.03931
G0 X90.351 Y39.44
G1 X138.059 Y87.148 E0.03818
G0 X138.059 Y85.733
G1 X91.766 Y39.44 E0.03705
G0 X93.18 Y39.44
G1 X138.059 Y84.319 E0.03592
G0 X138.713 Y83.559
G1 X93.939 Y38.784 E0.03583
G0 X93.939 Y37.37
G1 X140.128 Y83.559 E0.03696
G0 X141.259 Y83.276
G1 X94.222 Y36.239 E0.03764
G0 X95.636 Y36.239
G1 X141.259 Y81.862 E0.03651
G0 X141.259 Y80.448
G1 X97.051 Y36.239 E0.03538
G0 X98.465 Y36.239
G1 X141.259 Y79.034 E0.03425
G0 X141.259 Y77.619
G1 X99.879 Y36.239 E0.03312
G0 X101.293 Y36.239
G1 X141.259 Y76.205 E0.03198
G0 X141.259 Y74.791
G1 X102.707 Y36.239 E0.03085
G0 X104.122 Y36.239
G1 X106.059 Y38.177 E0.00155
G0 X106.059 Y36.763
G1 X105.536 Y36.239 E0.00042
G0 X107.322 Y39.44
G1 X138.059 Y70.176 E0.0246
G0 X138.059 Y68.762
G1 X108.736 Y39.44 E0.02347
G0 X110.15 Y39.44
G1 X138.059 Y67.348 E0.02233
G0 X138.059 Y65.934
G1 X111.565 Y39.44 E0.0212
G0 X112.979 Y39.44
G1 X138.059 Y64.519 E0.02007
G0 X138.059 Y63.105
G1 X114.393 Y39.44 E0.01894
G0 X115.807 Y39.44
G1 X138.059 Y61.691 E0.01781
G0 X138.059 Y60.277
G1 X117.222 Y39.44 E0.01668
G0 X118.636 Y39.44
G1 X138.059 Y58.863 E0.01554
G0 X138.059 Y57.448
G1 X120.05 Y39.44 E0.01441
G0 X121.464 Y39.44
G1 X138.059 Y56.034 E0.01328
G0 X138.059 Y54.62
G1 X122.878 Y39.44 E0.01215
G0 X124.293 Y39.44
G1 X138.059 Y53.206 E0.01102
G0 X138.059 Y51.792
G1 X125.707 Y39.44 E0.00989
G0 X127.121 Y39.44
G1 X138.059 Y50.377 E0.00875
G0 X138.059 Y48.963
G1 X128.535 Y39.44 E0.00762
G0 X129.949 Y39.44
G1 X138.059 Y47.549 E0.00649
G0 X138.059 Y46.135
G1 X131.364 Y39.44 E0.00536
G0 X132.839 Y39.501
G1 X137.998 Y44.66 E0.00413
G1 X138.174 Y44.836
G0 X137.276 Y42.523
G1 X134.976 Y40.223 E0.00184
G1 X134.8 Y40.047
G1 F480 E-0.05
G1 F600 Z2.4
G0 X139.321 Y71.439 Z2.4
G1 F600 Z0.4
G1 F480 E0.05
G1 F600 X141.259 Y73.377 E0.00155
G0 X141.259 Y71.962
G1 X140.736 Y71.439 E0.00042
G1 F480 E-0.05
G1 F600 Z2.4
G0 X60.932 Y83.559 Z2.4
G1 F600 Z0.4
G1 F480 E0.05
G1 F600 X58.74 Y81.367 E0.00175
G0 X58.74 Y82.781
G1 X59.517 Y83.559 E0.00062
G1 F480 E-0.05
G1 F600 Z2.4
;MESH:NONMESH
G0 X59.82 Y71 Z2.4
;TIME_ELAPSED:702.898742
;LAYER:1
;MESH:bottom_20mm_height.stl
G0 X59.82 Y71 Z2.8
;TYPE:FILL
G1 F600 Z0.8
G1 F480 E0.05
G1 F600 X59.82 Y84 E0.00736
G1 X58.84 Y84 E0.00055
G1 X58.84 Y71 E0.00736
G1 X60.8 Y71 E0.00111
G1 X60.8 Y84 E0.00736
G1 X61.5 Y84 E0.0004
G1 X61.5 Y109.5 E0.01443
G1 X61.527 Y110.076 E0.00033
G1 X61.61 Y110.681 E0.00035
G1 X61.738 Y111.24 E0.00032
G1 X61.78 Y111.367 E0.00008
G1 X61.78 Y43.627 E0.03833
G1 X61.941 Y43.15 E0.00028
G1 X62.194 Y42.583 E0.00035
G1 X62.474 Y42.081 E0.00033
G1 X62.76 Y41.661 E0.00029
G1 X62.76 Y113.338 E0.04056
G1 X62.809 Y113.411 E0.00005
G1 X63.195 Y113.875 E0.00034
G1 X63.614 Y114.296 E0.00034
G1 X63.74 Y114.4 E0.00009
G1 X63.74 Y40.599 E0.04176
G1 X64.09 Y40.311 E0.00026
G1 X64.584 Y39.972 E0.00034
G1 X64.72 Y39.896 E0.00009
G1 X64.72 Y115.103 E0.04256
G1 X65.083 Y115.306 E0.00024
G1 X65.65 Y115.559 E0.00035
G1 X65.7 Y115.575 E0.00003
G1 X65.7 Y39.423 E0.04309
G1 X66.26 Y39.238 E0.00033
G1 X66.68 Y39.141 E0.00024
G1 X66.68 Y115.86 E0.04341
G1 X66.784 Y115.885 E0.00006
G1 X67.407 Y115.972 E0.00036
G1 X67.66 Y115.983 E0.00014
G1 X67.66 Y39.016 E0.04355
G1 X68.011 Y39 E0.0002
G1 X68.64 Y39 E0.00036
G1 X68.64 Y116 E0.04357
G1 X69.62 Y116 E0.00055
G1 X69.62 Y39 E0.04357
G1 X70.6 Y39 E0.00055
G1 X70.6 Y116 E0.04357
G1 X71.58 Y116 E0.00055
G1 X71.58 Y39 E0.04357
G1 X72.56 Y39 E0.00055
G1 X72.56 Y116 E0.04357
G1 X73.54 Y116 E0.00055
G1 X73.54 Y39 E0.04357
G1 X74.52 Y39 E0.00055
G1 X74.52 Y116 E0.04357
G1 X75.5 Y116 E0.00055
G1 X75.5 Y39 E0.04357
G1 X76.48 Y39 E0.00055
G1 X76.48 Y116 E0.04357
G1 X77.46 Y116 E0.00055
G1 X77.46 Y39 E0.04357
G1 X78.44 Y39 E0.00055
G1 X78.44 Y116 E0.04357
G1 X79.42 Y116 E0.00055
G1 X79.42 Y39 E0.04357
G1 X80.4 Y39 E0.00055
G1 X80.4 Y116 E0.04357
G1 X81.38 Y116 E0.00055
G1 X81.38 Y39 E0.04357
G1 X82.36 Y39 E0.00055
G1 X82.36 Y116 E0.04357
G1 X83.34 Y116 E0.00055
G1 X83.34 Y39 E0.04357
G1 X84.32 Y39 E0.00055
G1 X84.32 Y116 E0.04357
G1 X85.3 Y116 E0.00055
G1 X85.3 Y39 E0.04357
G1 X86.28 Y39 E0.00055
G1 X86.28 Y116 E0.04357
G1 X87.26 Y116 E0.00055
G1 X87.26 Y39 E0.04357
G1 X88.24 Y39 E0.00055
G1 X88.24 Y116 E0.04357
G1 X89.22 Y116 E0.00055
G1 X89.22 Y39 E0.04357
G1 X90.2 Y39 E0.00055
G1 X90.2 Y116 E0.04357
G1 X91.18 Y116 E0.00055
G1 X91.18 Y39 E0.04357
G1 X92.16 Y39 E0.00055
G1 X92.16 Y116 E0.04357
G1 X93.14 Y116 E0.00055
G1 X93.14 Y39 E0.04357
G1 X93.5 Y39 E0.0002
G1 X93.5 Y35.8 E0.00181
G1 X94.12 Y35.8 E0.00035
G1 X94.12 Y119.2 E0.04719
G1 X95.1 Y119.2 E0.00055
G1 X95.1 Y35.8 E0.04719
G1 X96.08 Y35.8 E0.00055
G1 X96.08 Y119.2 E0.04719
G1 X97.06 Y119.2 E0.00055
G1 X97.06 Y35.8 E0.04719
G1 X98.04 Y35.8 E0.00055
G1 X98.04 Y119.2 E0.04719
G1 X99.02 Y119.2 E0.00055
G1 X99.02 Y35.8 E0.04719
G1 X100 Y35.8 E0.00055
G1 X100 Y119.2 E0.04719
G1 X100.98 Y119.2 E0.00055
G1 X100.98 Y35.8 E0.04719
G1 X101.96 Y35.8 E0.00055
G1 X101.96 Y119.2 E0.04719
G1 X102.94 Y119.2 E0.00055
G1 X102.94 Y35.8 E0.04719
G1 X103.92 Y35.8 E0.00055
G1 X103.92 Y119.2 E0.04719
G1 X104.9 Y119.2 E0.00055
G1 X104.9 Y35.8 E0.04719
G1 X105.88 Y35.8 E0.00055
G1 X105.88 Y119.2 E0.04719
G1 X106.5 Y119.2 E0.00035
G1 X106.5 Y116 E0.00181
G1 X106.86 Y116 E0.0002
G1 X106.86 Y39 E0.04357
G1 X107.84 Y39 E0.00055
G1 X107.84 Y116 E0.04357
G1 X108.82 Y116 E0.00055
G1 X108.82 Y39 E0.04357
G1 X109.8 Y39 E0.00055
G1 X109.8 Y116 E0.04357
G1 X110.78 Y116 E0.00055
G1 X110.78 Y39 E0.04357
G1 X111.76 Y39 E0.00055
G1 X111.76 Y116 E0.04357
G1 X112.74 Y116 E0.00055
G1 X112.74 Y39 E0.04357
G1 X113.72 Y39 E0.00055
G1 X113.72 Y116 E0.04357
G1 X114.7 Y116 E0.00055
G1 X114.7 Y39 E0.04357
G1 X115.68 Y39 E0.00055
G1 X115.68 Y116 E0.04357
G1 X116.66 Y116 E0.00055
G1 X116.66 Y39 E0.04357
G1 X117.64 Y39 E0.00055
G1 X117.64 Y116 E0.04357
G1 X118.62 Y116 E0.00055
G1 X118.62 Y39 E0.04357
G1 X119.6 Y39 E0.00055
G1 X119.6 Y116 E0.04357
G1 X120.58 Y116 E0.00055
G1 X120.58 Y39 E0.04357
G1 X121.56 Y39 E0.00055
G1 X121.56 Y116 E0.04357
G1 X122.54 Y116 E0.00055
G1 X122.54 Y39 E0.04357
G1 X123.52 Y39 E0.00055
G1 X123.52 Y116 E0.04357
G1 X124.5 Y116 E0.00055
G1 X124.5 Y39 E0.04357
G1 X125.48 Y39 E0.00055
G1 X125.48 Y116 E0.04357
G1 X126.46 Y116 E0.00055
G1 X126.46 Y39 E0.04357
G1 X127.44 Y39 E0.00055
G1 X127.44 Y116 E0.04357
G1 X128.42 Y116 E0.00055
G1 X128.42 Y39 E0.04357
G1 X129.4 Y39 E0.00055
G1 X129.4 Y116 E0.04357
G1 X130.38 Y116 E0.00055
G1 X130.38 Y39 E0.04357
G1 X131.36 Y39 E0.00055
G1 X131.36 Y116 E0.04357
G1 X131.985 Y116 E0.00035
G1 X132.34 Y115.984 E0.0002
G1 X132.34 Y39.013 E0.04356
G1 X132.868 Y39.06 E0.0003
G1 X133.32 Y39.143 E0.00026
G1 X133.32 Y115.858 E0.04341
G1 X133.743 Y115.761 E0.00025
