;FLAVOR:RepRap
;TIME:9335
;Filament used: 0.0476915m
;Layer height: 0.4
;MINX:78.274
;MINY:53.302
;MINZ:0.4
;MAXX:121.726
;MAXY:101.698
;MAXZ:40
;Generated with Cura_SteamEngine 4.10.0
T0
M104 S35
M109 S35
M82 ;absolute extrusion mode
;Pressure advances
M400 ; Finish all current moves and for pressure advances.
M572 D0 S0.00                      ;Pressure advance enabled
;Wipe
G1 Z1 F900			;Wipe height
M83			;Extruder to relative mode
M400
G1 Y140 E0.2 F900		;Draw first thin line
G1 X1 F900
G1 Y5 E0.2 F900		;Draw second thin line
G1 X2 F900
G1 Y50 F900			;Coast in case of leakage
;M82			;Extruder to absolute mode (default)
M400			; wait for moves to finish
G92 E0			; zero extruder
;MHI3D CODE END
M83 ;relative extrusion mode
G1 F480 E-0.05
;LAYER_COUNT:95
;LAYER:0
M106 S25.5
G1 F600 Z2.4
;MESH:Monopoly_House.stl
G0 X82.612 Y60.113 Z2.4
;TYPE:FILL
G1 F600 Z0.4
G1 F480 E0.05
G1 F600 X79.273 Y56.774 E0.00267
G1 X79.273 Y58.16 E0.00078
G1 X82.613 Y61.5 E0.00267
G1 X82.613 Y62.886 E0.00078
G1 X79.273 Y59.546 E0.00267
G1 X79.273 Y60.932 E0.00078
G1 X82.613 Y64.272 E0.00267
G1 X82.613 Y65.658 E0.00078
G1 X79.273 Y62.318 E0.00267
G1 X79.273 Y63.703 E0.00078
G1 X82.613 Y67.044 E0.00267
G1 X82.613 Y68.43 E0.00078
G1 X79.273 Y65.089 E0.00267
G1 X79.273 Y66.475 E0.00078
G1 X82.613 Y69.816 E0.00267
G1 X82.613 Y71.202 E0.00078
G1 X79.273 Y67.861 E0.00267
G1 X79.273 Y69.247 E0.00078
G1 X82.613 Y72.588 E0.00267
G1 X82.613 Y73.973 E0.00078
G1 X79.273 Y70.633 E0.00267
G1 X79.273 Y72.019 E0.00078
G1 X82.613 Y75.359 E0.00267
G1 X82.613 Y76.745 E0.00078
G1 X79.273 Y73.405 E0.00267
G1 X79.273 Y74.791 E0.00078
G1 X82.614 Y78.132 E0.00267
G1 X82.614 Y79.518 E0.00078
G1 X79.273 Y76.177 E0.00267
G1 X79.273 Y77.563 E0.00078
G1 X82.614 Y80.904 E0.00267
G1 X82.614 Y82.29 E0.00078
G1 X79.273 Y78.949 E0.00267
G1 X79.273 Y80.335 E0.00078
G1 X82.614 Y83.676 E0.00267
G1 X82.614 Y85.062 E0.00078
G1 X79.273 Y81.721 E0.00267
G1 X79.273 Y83.106 E0.00078
G1 X82.614 Y86.448 E0.00267
G1 X82.614 Y87.833 E0.00078
G1 X79.273 Y84.492 E0.00267
G1 X79.273 Y85.878 E0.00078
G1 X82.614 Y89.219 E0.00267
G1 X82.614 Y90.605 E0.00078
G1 X79.273 Y87.264 E0.00267
G1 X79.273 Y88.65 E0.00078
G1 X82.614 Y91.991 E0.00267
G1 X82.614 Y93.377 E0.00078
G1 X79.273 Y90.036 E0.00267
G1 X79.273 Y91.422 E0.00078
G1 X82.614 Y94.763 E0.00267
G1 X82.614 Y94.886 E0.00007
G1 X82.736 Y94.885 E0.00007
G1 X86.076 Y98.225 E0.00267
G1 X84.69 Y98.225 E0.00078
G1 X79.273 Y92.808 E0.00434
G1 X79.273 Y94.194 E0.00078
G1 X83.304 Y98.225 E0.00323
G1 X81.918 Y98.225 E0.00078
G1 X79.273 Y95.58 E0.00212
G1 X79.274 Y98.226 E0.0015
G1 X80.532 Y98.225 E0.00071
G1 X79.273 Y96.966 E0.00101
G0 X85.508 Y94.885
G1 X88.847 Y98.225 E0.00267
G1 X87.462 Y98.225 E0.00078
G1 X84.122 Y94.885 E0.00267
G1 X86.894 Y94.885 E0.00157
G1 X90.233 Y98.225 E0.00267
G1 X91.619 Y98.225 E0.00078
G1 X88.28 Y94.885 E0.00267
G1 X89.666 Y94.885 E0.00078
G1 X93.005 Y98.225 E0.00267
G1 X94.391 Y98.225 E0.00078
G1 X91.052 Y94.885 E0.00267
G1 X92.437 Y94.885 E0.00078
G1 X95.777 Y98.225 E0.00267
G1 X97.163 Y98.225 E0.00078
G1 X93.823 Y94.885 E0.00267
G1 X95.209 Y94.885 E0.00078
G1 X98.549 Y98.225 E0.00267
G1 X99.935 Y98.225 E0.00078
G1 X96.595 Y94.885 E0.00267
G1 X97.981 Y94.885 E0.00078
G1 X101.321 Y98.225 E0.00267
G1 X102.707 Y98.225 E0.00078
G1 X99.367 Y94.885 E0.00267
G1 X100.753 Y94.885 E0.00078
G1 X104.093 Y98.225 E0.00267
G1 X105.479 Y98.225 E0.00078
G1 X102.139 Y94.885 E0.00267
G1 X103.525 Y94.885 E0.00078
G1 X106.865 Y98.225 E0.00267
G1 X108.25 Y98.225 E0.00078
G1 X104.911 Y94.885 E0.00267
G1 X106.297 Y94.885 E0.00078
G1 X109.636 Y98.225 E0.00267
G1 X111.022 Y98.225 E0.00078
G1 X107.683 Y94.885 E0.00267
G1 X109.069 Y94.885 E0.00078
G1 X112.408 Y98.225 E0.00267
G1 X113.794 Y98.225 E0.00078
G1 X110.455 Y94.885 E0.00267
G1 X111.84 Y94.885 E0.00078
G1 X115.18 Y98.225 E0.00267
G1 X116.566 Y98.225 E0.00078
G1 X113.226 Y94.885 E0.00267
G1 X114.612 Y94.885 E0.00078
G1 X117.952 Y98.225 E0.00267
G1 X119.338 Y98.225 E0.00078
G1 X115.998 Y94.885 E0.00267
G1 X117.384 Y94.885 E0.00078
G1 X120.725 Y98.226 E0.00267
G0 X120.726 Y98.226
G1 X120.725 Y96.84 E0.00078
G1 X117.384 Y93.5 E0.00267
G1 X117.384 Y92.114 E0.00078
G1 X120.725 Y95.454 E0.00267
G1 X120.725 Y94.068 E0.00078
G1 X117.384 Y90.728 E0.00267
G1 X117.384 Y89.342 E0.00078
G1 X120.725 Y92.682 E0.00267
G1 X120.725 Y91.296 E0.00078
G1 X117.384 Y87.956 E0.00267
G1 X117.384 Y86.57 E0.00078
G1 X120.725 Y89.91 E0.00267
G1 X120.725 Y88.524 E0.00078
G1 X117.384 Y85.184 E0.00267
G1 X117.384 Y83.798 E0.00078
G1 X120.725 Y87.138 E0.00267
G1 X120.725 Y85.752 E0.00078
G1 X117.384 Y82.412 E0.00267
G1 X117.384 Y81.026 E0.00078
G1 X120.725 Y84.367 E0.00267
G1 X120.725 Y82.981 E0.00078
G1 X117.384 Y79.64 E0.00267
G1 X117.384 Y78.254 E0.00078
G1 X120.725 Y81.595 E0.00267
G1 X120.725 Y80.209 E0.00078
G1 X117.384 Y76.868 E0.00267
G1 X117.384 Y75.482 E0.00078
G1 X120.725 Y78.823 E0.00267
G1 X120.725 Y77.437 E0.00078
G1 X117.384 Y74.097 E0.00267
G1 X117.384 Y72.711 E0.00078
G1 X120.725 Y76.051 E0.00267
G1 X120.725 Y74.665 E0.00078
G1 X117.384 Y71.325 E0.00267
G1 X117.384 Y69.939 E0.00078
G1 X120.725 Y73.279 E0.00267
G1 X120.725 Y71.893 E0.00078
G1 X117.384 Y68.553 E0.00267
G1 X117.384 Y67.167 E0.00078
G1 X120.725 Y70.507 E0.00267
G1 X120.725 Y69.121 E0.00078
G1 X117.384 Y65.781 E0.00267
G1 X117.384 Y64.395 E0.00078
G1 X120.725 Y67.735 E0.00267
G1 X120.725 Y66.349 E0.00078
G1 X117.384 Y63.009 E0.00267
G1 X117.384 Y61.623 E0.00078
G1 X120.725 Y64.964 E0.00267
G1 X120.725 Y63.578 E0.00078
G1 X117.384 Y60.237 E0.00267
G1 X117.386 Y60.114 E0.00007
G0 X120.726 Y56.774
G1 X119.464 Y56.774 E0.00071
G1 X120.725 Y58.034 E0.00101
G1 X120.725 Y59.42 E0.00078
G1 X118.079 Y56.774 E0.00212
G1 X116.693 Y56.774 E0.00078
G1 X120.725 Y60.806 E0.00323
G1 X120.725 Y62.192 E0.00078
G1 X115.307 Y56.774 E0.00434
G1 X113.921 Y56.774 E0.00078
G1 X117.26 Y60.113 E0.00267
G1 X115.875 Y60.113 E0.00078
G1 X112.535 Y56.774 E0.00267
G1 X111.149 Y56.774 E0.00078
G1 X114.489 Y60.113 E0.00267
G1 X113.103 Y60.113 E0.00078
G1 X109.763 Y56.774 E0.00267
G1 X108.377 Y56.774 E0.00078
G1 X111.717 Y60.113 E0.00267
G1 X110.331 Y60.113 E0.00078
G1 X106.991 Y56.774 E0.00267
G1 X105.605 Y56.774 E0.00078
G1 X108.945 Y60.113 E0.00267
G1 X107.559 Y60.113 E0.00078
G1 X104.219 Y56.774 E0.00267
G1 X102.833 Y56.774 E0.00078
G1 X106.173 Y60.113 E0.00267
G1 X104.787 Y60.113 E0.00078
G1 X101.447 Y56.774 E0.00267
G1 X100.061 Y56.774 E0.00078
G1 X103.401 Y60.113 E0.00267
G1 X102.015 Y60.113 E0.00078
G1 X98.676 Y56.774 E0.00267
G1 X97.29 Y56.774 E0.00078
G1 X100.629 Y60.113 E0.00267
G1 X99.243 Y60.113 E0.00078
G1 X95.904 Y56.774 E0.00267
G1 X94.518 Y56.774 E0.00078
G1 X97.857 Y60.113 E0.00267
G1 X96.471 Y60.113 E0.00078
G1 X93.132 Y56.774 E0.00267
G1 X91.746 Y56.774 E0.00078
G1 X95.086 Y60.113 E0.00267
G1 X93.7 Y60.113 E0.00078
G1 X90.36 Y56.774 E0.00267
G1 X88.974 Y56.774 E0.00078
G1 X92.314 Y60.113 E0.00267
G1 X90.928 Y60.113 E0.00078
G1 X87.588 Y56.774 E0.00267
G1 X86.202 Y56.774 E0.00078
G1 X89.542 Y60.113 E0.00267
G1 X88.156 Y60.113 E0.00078
G1 X84.816 Y56.774 E0.00267
G1 X83.43 Y56.774 E0.00078
G1 X86.77 Y60.113 E0.00267
G1 X85.384 Y60.113 E0.00078
G1 X82.044 Y56.774 E0.00267
G1 X80.658 Y56.774 E0.00078
G1 X83.998 Y60.113 E0.00267
G1 X82.614 Y60.114 E0.00078
G1 F480 E-0.05
G1 F600 Z2.4
G0 X116.386 Y93.886 Z2.4
;TYPE:WALL-OUTER
G1 F600 Z0.4
G1 F480 E0.05
G1 F600 X116.386 Y61.114 E0.01855
G1 X83.614 Y61.114 E0.01855
G1 X83.614 Y93.886 E0.01855
G1 X116.386 Y93.886 E0.01855
G0 X116.386 Y93.386
G0 X117.486 Y93.386
G0 X121.726 Y99.226
G1 X78.274 Y99.226 E0.02459
G1 X78.274 Y55.774 E0.02459
G1 X121.726 Y55.774 E0.02459
G1 X121.726 Y99.226 E0.02459
G0 X121.226 Y99.226
G0 X120.626 Y98.126
G1 F480 E-0.05
G1 F600 Z2.4
;MESH:NONMESH
G0 X79.42 Y56.774 Z2.4
;TIME_ELAPSED:124.438219
;LAYER:1
;MESH:Monopoly_House.stl
G0 X79.42 Y56.774 Z2.8
;TYPE:FILL
G1 F600 Z0.8
G1 F480 E0.05
G1 F600 X79.42 Y98.226 E0.02346
G1 X79.274 Y98.226 E0.00008
G1 X79.274 Y56.774 E0.02346
G1 X80.4 Y56.774 E0.00064
G1 X80.4 Y98.226 E0.02346
G1 X81.38 Y98.226 E0.00055
G1 X81.38 Y56.774 E0.02346
G1 X82.36 Y56.774 E0.00055
G1 X82.36 Y98.226 E0.02346
G1 X83.34 Y98.226 E0.00055
G1 X83.34 Y94.886 E0.00189
G1 X82.614 Y94.886 E0.00041
G1 X82.614 Y60.114 E0.01968
G1 X83.34 Y60.114 E0.00041
G1 X83.34 Y56.774 E0.00189
G1 X84.32 Y56.774 E0.00055
G1 X84.32 Y60.114 E0.00189
G1 X85.3 Y60.114 E0.00055
G1 X85.3 Y56.774 E0.00189
G1 X86.28 Y56.774 E0.00055
G1 X86.28 Y60.114 E0.00189
G1 X87.26 Y60.114 E0.00055
G1 X87.26 Y56.774 E0.00189
G1 X88.24 Y56.774 E0.00055
G1 X88.24 Y60.114 E0.00189
G1 X89.22 Y60.114 E0.00055
G1 X89.22 Y56.774 E0.00189
G1 X90.2 Y56.774 E0.00055
G1 X90.2 Y60.114 E0.00189
G1 X91.18 Y60.114 E0.00055
G1 X91.18 Y56.774 E0.00189
G1 X92.16 Y56.774 E0.00055
G1 X92.16 Y60.114 E0.00189
G1 X93.14 Y60.114 E0.00055
G1 X93.14 Y56.774 E0.00189
G1 X94.12 Y56.774 E0.00055
G1 X94.12 Y60.114 E0.00189
G1 X95.1 Y60.114 E0.00055
G1 X95.1 Y56.774 E0.00189
G1 X96.08 Y56.774 E0.00055
G1 X96.08 Y60.114 E0.00189
G1 X97.06 Y60.114 E0.00055
G1 X97.06 Y56.774 E0.00189
G1 X98.04 Y56.774 E0.00055
G1 X98.04 Y60.114 E0.00189
G1 X99.02 Y60.114 E0.00055
G1 X99.02 Y56.774 E0.00189
G1 X100 Y56.774 E0.00055
G1 X100 Y60.114 E0.00189
G1 X100.98 Y60.114 E0.00055
G1 X100.98 Y56.774 E0.00189
G1 X101.96 Y56.774 E0.00055
G1 X101.96 Y60.114 E0.00189
G1 X102.94 Y60.114 E0.00055
G1 X102.94 Y56.774 E0.00189
G1 X103.92 Y56.774 E0.00055
G1 X103.92 Y60.114 E0.00189
G1 X104.9 Y60.114 E0.00055
G1 X104.9 Y56.774 E0.00189
G1 X105.88 Y56.774 E0.00055
G1 X105.88 Y60.114 E0.00189
G1 X106.86 Y60.114 E0.00055
G1 X106.86 Y56.774 E0.00189
G1 X107.84 Y56.774 E0.00055
G1 X107.84 Y60.114 E0.00189
G1 X108.82 Y60.114 E0.00055
G1 X108.82 Y56.774 E0.00189
G1 X109.8 Y56.774 E0.00055
G1 X109.8 Y60.114 E0.00189
G1 X110.78 Y60.114 E0.00055
G1 X110.78 Y56.774 E0.00189
G1 X111.76 Y56.774 E0.00055
G1 X111.76 Y60.114 E0.00189
G1 X112.74 Y60.114 E0.00055
G1 X112.74 Y56.774 E0.00189
G1 X113.72 Y56.774 E0.00055
G1 X113.72 Y60.114 E0.00189
G1 X114.7 Y60.114 E0.00055
G1 X114.7 Y56.774 E0.00189
G1 X115.68 Y56.774 E0.00055
G1 X115.68 Y60.114 E0.00189
G1 X116.66 Y60.114 E0.00055
G1 X116.66 Y56.774 E0.00189
G1 X117.64 Y56.774 E0.00055
G1 X117.64 Y98.226 E0.02346
G1 X118.62 Y98.226 E0.00055
G1 X118.62 Y56.774 E0.02346
G1 X119.6 Y56.774 E0.00055
G1 X119.6 Y98.226 E0.02346
G1 X120.58 Y98.226 E0.00055
G1 X120.58 Y56.774 E0.02346
G1 X120.726 Y56.774 E0.00008
G0 X117.386 Y60.114
G1 X117.386 Y94.886 E0.01968
G1 X116.66 Y94.886 E0.00041
G1 X116.66 Y98.226 E0.00189
G1 X115.68 Y98.226 E0.00055
G1 X115.68 Y94.886 E0.00189
G1 X114.7 Y94.886 E0.00055
G1 X114.7 Y98.226 E0.00189
G1 X113.72 Y98.226 E0.00055
G1 X113.72 Y94.886 E0.00189
G1 X112.74 Y94.886 E0.00055
G1 X112.74 Y98.226 E0.00189
G1 X111.76 Y98.226 E0.00055
G1 X111.76 Y94.886 E0.00189
G1 X110.78 Y94.886 E0.00055
G1 X110.78 Y98.226 E0.00189
G1 X109.8 Y98.226 E0.00055
G1 X109.8 Y94.886 E0.00189
G1 X108.82 Y94.886 E0.00055
G1 X108.82 Y98.226 E0.00189
G1 X107.84 Y98.226 E0.00055
G1 X107.84 Y94.886 E0.00189
G1 X106.86 Y94.886 E0.00055
G1 X106.86 Y98.226 E0.00189
G1 X105.88 Y98.226 E0.00055
G1 X105.88 Y94.886 E0.00189
G1 X104.9 Y94.886 E0.00055
G1 X104.9 Y98.226 E0.00189
G1 X103.92 Y98.226 E0.00055
G1 X103.92 Y94.886 E0.00189
G1 X102.94 Y94.886 E0.00055
G1 X102.94 Y98.226 E0.00189
G1 X101.96 Y98.226 E0.00055
G1 X101.96 Y94.886 E0.00189
G1 X100.98 Y94.886 E0.00055
G1 X100.98 Y98.226 E0.00189
G1 X100 Y98.226 E0.00055
G1 X100 Y94.886 E0.00189
G1 X99.02 Y94.886 E0.00055
G1 X99.02 Y98.226 E0.00189
G1 X98.04 Y98.226 E0.00055
G1 X98.04 Y94.886 E0.00189
G1 X97.06 Y94.886 E0.00055
G1 X97.06 Y98.226 E0.00189
G1 X96.08 Y98.226 E0.00055
G1 X96.08 Y94.886 E0.00189
G1 X95.1 Y94.886 E0.00055
G1 X95.1 Y98.226 E0.00189
G1 X94.12 Y98.226 E0.00055
G1 X94.12 Y94.886 E0.00189
G1 X93.14 Y94.886 E0.00055
G1 X93.14 Y98.226 E0.00189
G1 X92.16 Y98.226 E0.00055
G1 X92.16 Y94.886 E0.00189
G1 X91.18 Y94.886 E0.00055
G1 X91.18 Y98.226 E0.00189
G1 X90.2 Y98.226 E0.00055
G1 X90.2 Y94.886 E0.00189
G1 X89.22 Y94.886 E0.00055
G1 X89.22 Y98.226 E0.00189
G1 X88.24 Y98.226 E0.00055
G1 X88.24 Y94.886 E0.00189
G1 X87.26 Y94.886 E0.00055
G1 X87.26 Y98.226 E0.00189
G1 X86.28 Y98.226 E0.00055
G1 X86.28 Y94.886 E0.00189
G1 X84.32 Y94.886 E0.00111
G1 X84.32 Y98.226 E0.00189
G1 X85.3 Y98.226 E0.00055
G1 X85.3 Y94.886 E0.00189
G1 X85.3 Y94.636
G1 F480 E-0.05
G1 F600 Z2.8
G0 X116.386 Y93.886 Z2.8
;TYPE:WALL-OUTER
G1 F600 Z0.8
G1 F480 E0.05
G1 F600 X116.386 Y61.114 E0.01855
G1 X83.614 Y61.114 E0.01855
G1 X83.614 Y93.886 E0.01855
G1 X116.386 Y93.886 E0.01855
G0 X116.386 Y93.386
G0 X117.486 Y93.386
G0 X121.726 Y99.226
G1 X78.274 Y99.226 E0.02459
G1 X78.274 Y55.774 E0.02459
G1 X121.726 Y55.774 E0.02459
G1 X121.726 Y99.226 E0.02459
G0 X121.226 Y99.226
G0 X120.626 Y98.126
G1 F480 E-0.05
G1 F600 Z2.8
;MESH:NONMESH
G0 X80.533 Y56.774 Z2.8
;TIME_ELAPSED:241.605536
;LAYER:2
;MESH:Monopoly_House.stl
G0 X80.533 Y56.774 Z3.2
;TYPE:FILL
G1 F600 Z1.2
G1 F480 E0.05
G1 F600 X79.273 Y58.033 E0.00101
G1 X79.274 Y56.774 E0.00071
G1 X81.919 Y56.774 E0.0015
G1 X79.273 Y59.419 E0.00212
G1 X79.273 Y60.805 E0.00078
G1 X83.304 Y56.774 E0.00323
G1 X84.69 Y56.774 E0.00078
G1 X79.273 Y62.191 E0.00434
G1 X79.273 Y63.577 E0.00078
G1 X82.612 Y60.238 E0.00267
G1 X82.614 Y60.114 E0.00007
G1 X82.737 Y60.113 E0.00007
G1 X86.076 Y56.774 E0.00267
G1 X87.462 Y56.774 E0.00078
G1 X84.123 Y60.113 E0.00267
G1 X85.509 Y60.113 E0.00078
G1 X88.848 Y56.774 E0.00267
G1 X90.234 Y56.774 E0.00078
G1 X86.894 Y60.113 E0.00267
G1 X88.28 Y60.113 E0.00078
G1 X91.62 Y56.774 E0.00267
G1 X93.006 Y56.774 E0.00078
G1 X89.666 Y60.113 E0.00267
G1 X91.052 Y60.113 E0.00078
G1 X94.392 Y56.774 E0.00267
G1 X95.778 Y56.774 E0.00078
G1 X92.438 Y60.113 E0.00267
G1 X93.824 Y60.113 E0.00078
G1 X97.164 Y56.774 E0.00267
G1 X98.55 Y56.774 E0.00078
G1 X95.21 Y60.113 E0.00267
G1 X96.596 Y60.113 E0.00078
G1 X99.936 Y56.774 E0.00267
G1 X101.322 Y56.774 E0.00078
G1 X97.982 Y60.113 E0.00267
G1 X99.368 Y60.113 E0.00078
G1 X102.707 Y56.774 E0.00267
G1 X104.093 Y56.774 E0.00078
G1 X100.754 Y60.113 E0.00267
G1 X102.14 Y60.113 E0.00078
G1 X105.479 Y56.774 E0.00267
G1 X106.865 Y56.774 E0.00078
G1 X103.526 Y60.113 E0.00267
G1 X104.912 Y60.113 E0.00078
G1 X108.251 Y56.774 E0.00267
G1 X109.637 Y56.774 E0.00078
G1 X106.297 Y60.113 E0.00267
G1 X107.683 Y60.113 E0.00078
G1 X111.023 Y56.774 E0.00267
G1 X112.409 Y56.774 E0.00078
G1 X109.069 Y60.113 E0.00267
G1 X110.455 Y60.113 E0.00078
G1 X113.795 Y56.774 E0.00267
G1 X115.181 Y56.774 E0.00078
G1 X111.841 Y60.113 E0.00267
G1 X113.227 Y60.113 E0.00078
G1 X116.567 Y56.774 E0.00267
G1 X117.953 Y56.774 E0.00078
G1 X114.613 Y60.113 E0.00267
G1 X117.385 Y60.113 E0.00157
G1 X120.725 Y56.774 E0.00267
G1 X119.339 Y56.774 E0.00078
G1 X115.999 Y60.113 E0.00267
G0 X117.386 Y60.114
G1 X117.385 Y61.499 E0.00078
G1 X120.725 Y58.16 E0.00267
G1 X120.725 Y59.546 E0.00078
G1 X117.385 Y62.885 E0.00267
G1 X117.385 Y64.271 E0.00078
G1 X120.725 Y60.932 E0.00267
G1 X120.725 Y62.318 E0.00078
G1 X117.385 Y65.657 E0.00267
G1 X117.385 Y67.043 E0.00078
G1 X120.725 Y63.703 E0.00267
G1 X120.725 Y65.089 E0.00078
G1 X117.385 Y68.429 E0.00267
G1 X117.385 Y69.815 E0.00078
G1 X120.725 Y66.475 E0.00267
G1 X120.725 Y67.861 E0.00078
G1 X117.385 Y71.201 E0.00267
G1 X117.385 Y72.587 E0.00078
G1 X120.725 Y69.247 E0.00267
G1 X120.725 Y70.633 E0.00078
G1 X117.385 Y73.973 E0.00267
G1 X117.385 Y75.359 E0.00078
G1 X120.725 Y72.019 E0.00267
G1 X120.725 Y73.405 E0.00078
G1 X117.385 Y76.745 E0.00267
G1 X117.385 Y78.131 E0.00078
G1 X120.725 Y74.791 E0.00267
G1 X120.725 Y76.177 E0.00078
G1 X117.385 Y79.516 E0.00267
G1 X117.385 Y80.902 E0.00078
G1 X120.725 Y77.563 E0.00267
G1 X120.725 Y78.949 E0.00078
G1 X117.385 Y82.288 E0.00267
G1 X117.385 Y83.674 E0.00078
G1 X120.725 Y80.335 E0.00267
G1 X120.725 Y81.721 E0.00078
G1 X117.385 Y85.06 E0.00267
G1 X117.385 Y86.446 E0.00078
G1 X120.725 Y83.106 E0.00267
G1 X120.725 Y84.492 E0.00078
G1 X117.385 Y87.832 E0.00267
G1 X117.385 Y89.218 E0.00078
G1 X120.725 Y85.878 E0.00267
G1 X120.725 Y87.264 E0.00078
