;FLAVOR:RepRap
;TIME:19156
;Filament used: 0.0903001m
;Layer height: 0.4
;MINX:65.448
;MINY:53.464
;MINZ:0.4
;MAXX:134.552
;MAXY:101.536
;MAXZ:75.6
;Generated with Cura_SteamEngine 4.10.0
T0
M104 S30
M109 S30
M82 ;absolute extrusion mode
;Pressure advances
M400 ; Finish all current moves and for pressure advances.
M572 D0 S0.00                      ;Pressure advance enabled
;Wipe
G1 Z1 F900			;Wipe height
M83			;Extruder to relative mode
M400
G1 Y140 E0.2 F900		;Draw first thin line
G1 X1 F900
G1 Y5 E0.2 F900		;Draw second thin line
G1 X2 F900
G1 Y50 F900			;Coast in case of leakage
;M82			;Extruder to absolute mode (default)
M400			; wait for moves to finish
G92 E0			; zero extruder
;MHI3D CODE END
M83 ;relative extrusion mode
G1 F480 E-0.05
;LAYER_COUNT:184
;LAYER:0
M106 S25.5
G1 F600 Z2.4
;MESH:60_card_deck_box_base.stl
G0 X66.447 Y99.385 Z2.4
;TYPE:FILL
G1 F600 Z0.4
G1 F480 E0.05
G1 F600 X67.596 Y100.535 E0.00092
G1 X66.448 Y100.536 E0.00065
G1 X66.447 Y98 E0.00144
G1 X68.982 Y100.535 E0.00203
G1 X70.368 Y100.535 E0.00078
G1 X66.447 Y96.614 E0.00314
G1 X66.447 Y95.228 E0.00078
G1 X71.754 Y100.535 E0.00425
G1 X73.14 Y100.535 E0.00078
G1 X66.447 Y93.842 E0.00536
G1 X66.447 Y92.456 E0.00078
G1 X74.526 Y100.535 E0.00647
G1 X75.912 Y100.535 E0.00078
G1 X66.447 Y91.07 E0.00757
G1 X66.447 Y89.684 E0.00078
G1 X77.298 Y100.535 E0.00868
G1 X78.684 Y100.535 E0.00078
G1 X66.447 Y88.298 E0.00979
G1 X66.447 Y86.912 E0.00078
G1 X80.069 Y100.535 E0.0109
G1 X81.455 Y100.535 E0.00078
G1 X66.447 Y85.526 E0.01201
G1 X66.447 Y84.14 E0.00078
G1 X82.841 Y100.535 E0.01312
G1 X84.227 Y100.535 E0.00078
G1 X66.447 Y82.754 E0.01423
G1 X66.447 Y81.368 E0.00078
G1 X85.613 Y100.535 E0.01534
G1 X86.999 Y100.535 E0.00078
G1 X66.447 Y79.982 E0.01645
G1 X66.447 Y78.597 E0.00078
G1 X88.385 Y100.535 E0.01756
G1 X89.771 Y100.535 E0.00078
G1 X66.446 Y77.21 E0.01867
G1 X66.446 Y75.824 E0.00078
G1 X91.157 Y100.535 E0.01978
G1 X92.543 Y100.535 E0.00078
G1 X66.446 Y74.438 E0.02088
G1 X66.446 Y73.052 E0.00078
G1 X93.929 Y100.535 E0.02199
G1 X95.315 Y100.535 E0.00078
G1 X66.446 Y71.666 E0.0231
G1 X66.446 Y70.28 E0.00078
G1 X96.701 Y100.535 E0.02421
G1 X98.087 Y100.535 E0.00078
G1 X66.446 Y68.894 E0.02532
G1 X66.446 Y67.508 E0.00078
G1 X99.472 Y100.535 E0.02643
G1 X100.859 Y100.535 E0.00078
G1 X66.446 Y66.122 E0.02754
G1 X66.446 Y64.737 E0.00078
G1 X102.245 Y100.535 E0.02865
G1 X103.631 Y100.535 E0.00078
G1 X66.446 Y63.351 E0.02976
G1 X66.446 Y61.965 E0.00078
G1 X105.017 Y100.535 E0.03087
G1 X106.403 Y100.535 E0.00078
G1 X66.446 Y60.579 E0.03198
G1 X66.446 Y59.193 E0.00078
G1 X107.789 Y100.535 E0.03309
G1 X109.175 Y100.535 E0.00078
G1 X66.446 Y57.807 E0.03419
G1 X66.446 Y56.421 E0.00078
G1 X110.561 Y100.535 E0.0353
G1 X111.947 Y100.535 E0.00078
G1 X66.446 Y55.035 E0.03641
G1 X66.448 Y54.464 E0.00032
G1 X67.261 Y54.464 E0.00046
G1 X113.332 Y100.535 E0.03687
G1 X114.718 Y100.535 E0.00078
G1 X68.647 Y54.464 E0.03687
G1 X70.033 Y54.464 E0.00078
G1 X116.104 Y100.535 E0.03687
G1 X117.49 Y100.535 E0.00078
G1 X71.419 Y54.464 E0.03687
G1 X72.805 Y54.464 E0.00078
G1 X118.876 Y100.535 E0.03687
G1 X120.262 Y100.535 E0.00078
G1 X74.191 Y54.464 E0.03687
G1 X75.576 Y54.464 E0.00078
G1 X121.648 Y100.535 E0.03687
G1 X123.034 Y100.535 E0.00078
G1 X76.962 Y54.464 E0.03687
G1 X78.348 Y54.464 E0.00078
G1 X124.42 Y100.535 E0.03687
G1 X125.806 Y100.535 E0.00078
G1 X79.734 Y54.464 E0.03687
G1 X81.12 Y54.464 E0.00078
G1 X127.192 Y100.535 E0.03687
G1 X128.578 Y100.535 E0.00078
G1 X82.506 Y54.464 E0.03687
G1 X83.892 Y54.464 E0.00078
G1 X129.964 Y100.535 E0.03687
G1 X131.35 Y100.535 E0.00078
G1 X85.278 Y54.464 E0.03687
G1 X86.664 Y54.464 E0.00078
G1 X132.735 Y100.535 E0.03687
G1 X133.552 Y100.536 E0.00046
G1 X133.551 Y99.965 E0.00032
G1 X88.05 Y54.464 E0.03641
G1 X89.436 Y54.464 E0.00078
G1 X133.551 Y98.579 E0.0353
G1 X133.551 Y97.193 E0.00078
G1 X90.822 Y54.464 E0.0342
G1 X92.208 Y54.464 E0.00078
G1 X133.551 Y95.807 E0.03309
G1 X133.551 Y94.421 E0.00078
G1 X93.594 Y54.464 E0.03198
G1 X94.979 Y54.464 E0.00078
G1 X133.551 Y93.035 E0.03087
G1 X133.551 Y91.649 E0.00078
G1 X96.365 Y54.464 E0.02976
G1 X97.751 Y54.464 E0.00078
G1 X133.551 Y90.263 E0.02865
G1 X133.551 Y88.877 E0.00078
G1 X99.137 Y54.464 E0.02754
G1 X100.523 Y54.464 E0.00078
G1 X133.551 Y87.491 E0.02643
G1 X133.551 Y86.105 E0.00078
G1 X101.909 Y54.464 E0.02532
G1 X103.295 Y54.464 E0.00078
G1 X133.551 Y84.719 E0.02421
G1 X133.551 Y83.333 E0.00078
G1 X104.681 Y54.464 E0.0231
G1 X106.067 Y54.464 E0.00078
G1 X133.551 Y81.948 E0.02199
G1 X133.551 Y80.562 E0.00078
G1 X107.453 Y54.464 E0.02089
G1 X108.839 Y54.464 E0.00078
G1 X133.551 Y79.176 E0.01978
G1 X133.551 Y77.79 E0.00078
G1 X110.225 Y54.464 E0.01867
G1 X111.611 Y54.464 E0.00078
G1 X133.551 Y76.404 E0.01756
G1 X133.551 Y75.018 E0.00078
G1 X112.997 Y54.464 E0.01645
G1 X114.383 Y54.464 E0.00078
G1 X133.551 Y73.632 E0.01534
G1 X133.551 Y72.246 E0.00078
G1 X115.768 Y54.464 E0.01423
G1 X117.154 Y54.464 E0.00078
G1 X133.551 Y70.86 E0.01312
G1 X133.551 Y69.474 E0.00078
G1 X118.54 Y54.464 E0.01201
G1 X119.926 Y54.464 E0.00078
G1 X133.551 Y68.088 E0.0109
G1 X133.551 Y66.702 E0.00078
G1 X121.312 Y54.464 E0.00979
G1 X122.698 Y54.464 E0.00078
G1 X133.551 Y65.316 E0.00869
G1 X133.551 Y63.93 E0.00078
G1 X124.084 Y54.464 E0.00758
G1 X125.47 Y54.464 E0.00078
G1 X133.551 Y62.545 E0.00647
G1 X133.551 Y61.159 E0.00078
G1 X126.856 Y54.464 E0.00536
G1 X128.242 Y54.464 E0.00078
G1 X133.551 Y59.773 E0.00425
G1 X133.551 Y58.387 E0.00078
G1 X129.628 Y54.464 E0.00314
G1 X131.014 Y54.464 E0.00078
G1 X133.551 Y57.001 E0.00203
G1 X133.551 Y55.615 E0.00078
G1 X132.4 Y54.464 E0.00092
G1 X133.552 Y54.464 E0.00065
G0 X134.552 Y53.464
;TYPE:WALL-OUTER
G1 X134.552 Y101.536 E0.0272
G1 X65.448 Y101.536 E0.0391
G1 X65.448 Y53.464 E0.0272
G1 X134.552 Y53.464 E0.0391
G0 X134.552 Y53.964
G1 F480 E-0.05
G1 F600 Z2.4
;MESH:NONMESH
G0 X66.68 Y54.464 Z2.4
;TIME_ELAPSED:372.430257
;LAYER:1
;MESH:60_card_deck_box_base.stl
G0 X66.68 Y54.464 Z2.8
;TYPE:FILL
G1 F600 Z0.8
G1 F480 E0.05
G1 F600 X66.68 Y100.536 E0.02607
G1 X66.448 Y100.536 E0.00013
G1 X66.448 Y54.464 E0.02607
G1 X67.66 Y54.464 E0.00069
G1 X67.66 Y100.536 E0.02607
G1 X68.64 Y100.536 E0.00055
G1 X68.64 Y54.464 E0.02607
G1 X69.62 Y54.464 E0.00055
G1 X69.62 Y100.536 E0.02607
G1 X70.6 Y100.536 E0.00055
G1 X70.6 Y54.464 E0.02607
G1 X71.58 Y54.464 E0.00055
G1 X71.58 Y100.536 E0.02607
G1 X72.56 Y100.536 E0.00055
G1 X72.56 Y54.464 E0.02607
G1 X73.54 Y54.464 E0.00055
G1 X73.54 Y100.536 E0.02607
G1 X74.52 Y100.536 E0.00055
G1 X74.52 Y54.464 E0.02607
G1 X75.5 Y54.464 E0.00055
G1 X75.5 Y100.536 E0.02607
G1 X76.48 Y100.536 E0.00055
G1 X76.48 Y54.464 E0.02607
G1 X77.46 Y54.464 E0.00055
G1 X77.46 Y100.536 E0.02607
G1 X78.44 Y100.536 E0.00055
G1 X78.44 Y54.464 E0.02607
G1 X79.42 Y54.464 E0.00055
G1 X79.42 Y100.536 E0.02607
G1 X80.4 Y100.536 E0.00055
G1 X80.4 Y54.464 E0.02607
G1 X81.38 Y54.464 E0.00055
G1 X81.38 Y100.536 E0.02607
G1 X82.36 Y100.536 E0.00055
G1 X82.36 Y54.464 E0.02607
G1 X83.34 Y54.464 E0.00055
G1 X83.34 Y100.536 E0.02607
G1 X84.32 Y100.536 E0.00055
G1 X84.32 Y54.464 E0.02607
G1 X85.3 Y54.464 E0.00055
G1 X85.3 Y100.536 E0.02607
G1 X86.28 Y100.536 E0.00055
G1 X86.28 Y54.464 E0.02607
G1 X87.26 Y54.464 E0.00055
G1 X87.26 Y100.536 E0.02607
G1 X88.24 Y100.536 E0.00055
G1 X88.24 Y54.464 E0.02607
G1 X89.22 Y54.464 E0.00055
G1 X89.22 Y100.536 E0.02607
G1 X90.2 Y100.536 E0.00055
G1 X90.2 Y54.464 E0.02607
G1 X91.18 Y54.464 E0.00055
G1 X91.18 Y100.536 E0.02607
G1 X92.16 Y100.536 E0.00055
G1 X92.16 Y54.464 E0.02607
G1 X93.14 Y54.464 E0.00055
G1 X93.14 Y100.536 E0.02607
G1 X94.12 Y100.536 E0.00055
G1 X94.12 Y54.464 E0.02607
G1 X95.1 Y54.464 E0.00055
G1 X95.1 Y100.536 E0.02607
G1 X96.08 Y100.536 E0.00055
G1 X96.08 Y54.464 E0.02607
G1 X97.06 Y54.464 E0.00055
G1 X97.06 Y100.536 E0.02607
G1 X98.04 Y100.536 E0.00055
G1 X98.04 Y54.464 E0.02607
G1 X99.02 Y54.464 E0.00055
G1 X99.02 Y100.536 E0.02607
G1 X100 Y100.536 E0.00055
G1 X100 Y54.464 E0.02607
G1 X100.98 Y54.464 E0.00055
G1 X100.98 Y100.536 E0.02607
G1 X101.96 Y100.536 E0.00055
G1 X101.96 Y54.464 E0.02607
G1 X102.94 Y54.464 E0.00055
G1 X102.94 Y100.536 E0.02607
G1 X103.92 Y100.536 E0.00055
G1 X103.92 Y54.464 E0.02607
G1 X104.9 Y54.464 E0.00055
G1 X104.9 Y100.536 E0.02607
G1 X105.88 Y100.536 E0.00055
G1 X105.88 Y54.464 E0.02607
G1 X106.86 Y54.464 E0.00055
G1 X106.86 Y100.536 E0.02607
G1 X107.84 Y100.536 E0.00055
G1 X107.84 Y54.464 E0.02607
G1 X108.82 Y54.464 E0.00055
G1 X108.82 Y100.536 E0.02607
G1 X109.8 Y100.536 E0.00055
G1 X109.8 Y54.464 E0.02607
G1 X110.78 Y54.464 E0.00055
G1 X110.78 Y100.536 E0.02607
G1 X111.76 Y100.536 E0.00055
G1 X111.76 Y54.464 E0.02607
G1 X112.74 Y54.464 E0.00055
G1 X112.74 Y100.536 E0.02607
G1 X113.72 Y100.536 E0.00055
G1 X113.72 Y54.464 E0.02607
G1 X114.7 Y54.464 E0.00055
G1 X114.7 Y100.536 E0.02607
G1 X115.68 Y100.536 E0.00055
G1 X115.68 Y54.464 E0.02607
G1 X116.66 Y54.464 E0.00055
G1 X116.66 Y100.536 E0.02607
G1 X117.64 Y100.536 E0.00055
G1 X117.64 Y54.464 E0.02607
G1 X118.62 Y54.464 E0.00055
G1 X118.62 Y100.536 E0.02607
G1 X119.6 Y100.536 E0.00055
G1 X119.6 Y54.464 E0.02607
G1 X120.58 Y54.464 E0.00055
G1 X120.58 Y100.536 E0.02607
G1 X121.56 Y100.536 E0.00055
G1 X121.56 Y54.464 E0.02607
G1 X122.54 Y54.464 E0.00055
G1 X122.54 Y100.536 E0.02607
G1 X123.52 Y100.536 E0.00055
G1 X123.52 Y54.464 E0.02607
G1 X124.5 Y54.464 E0.00055
G1 X124.5 Y100.536 E0.02607
G1 X125.48 Y100.536 E0.00055
G1 X125.48 Y54.464 E0.02607
G1 X126.46 Y54.464 E0.00055
G1 X126.46 Y100.536 E0.02607
G1 X127.44 Y100.536 E0.00055
G1 X127.44 Y54.464 E0.02607
G1 X128.42 Y54.464 E0.00055
G1 X128.42 Y100.536 E0.02607
G1 X129.4 Y100.536 E0.00055
G1 X129.4 Y54.464 E0.02607
G1 X130.38 Y54.464 E0.00055
G1 X130.38 Y100.536 E0.02607
G1 X131.36 Y100.536 E0.00055
G1 X131.36 Y54.464 E0.02607
G1 X132.34 Y54.464 E0.00055
G1 X132.34 Y100.536 E0.02607
G1 X133.32 Y100.536 E0.00055
G1 X133.32 Y54.464 E0.02607
G1 X133.552 Y54.464 E0.00013
G0 X134.552 Y53.464
;TYPE:WALL-OUTER
G1 X134.552 Y101.536 E0.0272
G1 X65.448 Y101.536 E0.0391
G1 X65.448 Y53.464 E0.0272
G1 X134.552 Y53.464 E0.0391
G0 X134.552 Y53.964
G1 F480 E-0.05
G1 F600 Z2.8
;MESH:NONMESH
G0 X67.597 Y54.464 Z2.8
;TIME_ELAPSED:732.503721
;LAYER:2
;MESH:60_card_deck_box_base.stl
G0 X67.597 Y54.464 Z3.2
;TYPE:FILL
G1 F600 Z1.2
G1 F480 E0.05
G1 F600 X66.447 Y55.614 E0.00092
G1 X66.448 Y54.464 E0.00065
G1 X68.983 Y54.464 E0.00143
G1 X66.447 Y57 E0.00203
G1 X66.447 Y58.386 E0.00078
G1 X70.369 Y54.464 E0.00314
G1 X71.755 Y54.464 E0.00078
G1 X66.447 Y59.772 E0.00425
G1 X66.447 Y61.158 E0.00078
G1 X73.141 Y54.464 E0.00536
G1 X74.527 Y54.464 E0.00078
G1 X66.447 Y62.544 E0.00647
G1 X66.447 Y63.93 E0.00078
G1 X75.913 Y54.464 E0.00758
G1 X77.299 Y54.464 E0.00078
G1 X66.447 Y65.316 E0.00868
G1 X66.447 Y66.702 E0.00078
G1 X78.685 Y54.464 E0.00979
G1 X80.071 Y54.464 E0.00078
G1 X66.447 Y68.088 E0.0109
G1 X66.447 Y69.473 E0.00078
G1 X81.457 Y54.464 E0.01201
G1 X82.843 Y54.464 E0.00078
G1 X66.447 Y70.859 E0.01312
G1 X66.447 Y72.245 E0.00078
G1 X84.229 Y54.464 E0.01423
G1 X85.615 Y54.464 E0.00078
G1 X66.447 Y73.631 E0.01534
G1 X66.447 Y75.017 E0.00078
G1 X87.001 Y54.464 E0.01645
G1 X88.386 Y54.464 E0.00078
G1 X66.447 Y76.403 E0.01756
G1 X66.448 Y77.788 E0.00078
G1 X89.772 Y54.464 E0.01867
G1 X91.158 Y54.464 E0.00078
G1 X66.448 Y79.174 E0.01977
G1 X66.448 Y80.56 E0.00078
G1 X92.544 Y54.464 E0.02088
G1 X93.93 Y54.464 E0.00078
G1 X66.448 Y81.946 E0.02199
G1 X66.448 Y83.332 E0.00078
G1 X95.316 Y54.464 E0.0231
G1 X96.702 Y54.464 E0.00078
G1 X66.448 Y84.718 E0.02421
G1 X66.448 Y86.104 E0.00078
G1 X98.088 Y54.464 E0.02532
G1 X99.474 Y54.464 E0.00078
G1 X66.448 Y87.49 E0.02643
G1 X66.448 Y88.876 E0.00078
G1 X100.86 Y54.464 E0.02754
G1 X102.246 Y54.464 E0.00078
G1 X66.448 Y90.262 E0.02865
G1 X66.448 Y91.648 E0.00078
G1 X103.632 Y54.464 E0.02976
G1 X105.018 Y54.464 E0.00078
G1 X66.448 Y93.034 E0.03087
G1 X66.448 Y94.419 E0.00078
G1 X106.404 Y54.464 E0.03198
G1 X107.789 Y54.464 E0.00078
G1 X66.448 Y95.805 E0.03308
G1 X66.448 Y97.191 E0.00078
G1 X109.175 Y54.464 E0.03419
G1 X110.561 Y54.464 E0.00078
G1 X66.448 Y98.577 E0.0353
G1 X66.448 Y99.963 E0.00078
G1 X111.947 Y54.464 E0.03641
G1 X113.333 Y54.464 E0.00078
G1 X67.262 Y100.535 E0.03687
G1 X68.648 Y100.535 E0.00078
G1 X114.719 Y54.464 E0.03687
G1 X116.105 Y54.464 E0.00078
G1 X70.033 Y100.535 E0.03687
G1 X71.419 Y100.535 E0.00078
G1 X117.491 Y54.464 E0.03687
G1 X118.877 Y54.464 E0.00078
G1 X72.805 Y100.535 E0.03687
G1 X74.191 Y100.535 E0.00078
G1 X120.263 Y54.464 E0.03687
G1 X121.649 Y54.464 E0.00078
G1 X75.577 Y100.535 E0.03687
G1 X76.963 Y100.535 E0.00078
G1 X123.035 Y54.464 E0.03687
G1 X124.421 Y54.464 E0.00078
G1 X78.349 Y100.535 E0.03687
G1 X79.735 Y100.535 E0.00078
G1 X125.807 Y54.464 E0.03687
G1 X127.192 Y54.464 E0.00078
G1 X81.121 Y100.535 E0.03687
G1 X82.507 Y100.535 E0.00078
G1 X128.578 Y54.464 E0.03687
G1 X129.964 Y54.464 E0.00078
G1 X83.893 Y100.535 E0.03687
G1 X85.279 Y100.535 E0.00078
G1 X131.35 Y54.464 E0.03687
G1 X132.736 Y54.464 E0.00078
G1 X86.665 Y100.535 E0.03687
G1 X88.051 Y100.535 E0.00078
G1 X133.551 Y55.035 E0.03641
G1 X133.551 Y56.421 E0.00078
G1 X89.436 Y100.535 E0.0353
G1 X90.822 Y100.535 E0.00078
G1 X133.551 Y57.807 E0.03419
G1 X133.551 Y59.193 E0.00078
G1 X92.208 Y100.535 E0.03309
G1 X93.594 Y100.535 E0.00078
G1 X133.551 Y60.579 E0.03198
G1 X133.551 Y61.965 E0.00078
G1 X94.98 Y100.535 E0.03087
G1 X96.366 Y100.535 E0.00078
G1 X133.551 Y63.351 E0.02976
G1 X133.551 Y64.737 E0.00078
G1 X97.752 Y100.535 E0.02865
G1 X99.138 Y100.535 E0.00078
G1 X133.551 Y66.122 E0.02754
G1 X133.551 Y67.508 E0.00078
G1 X100.523 Y100.536 E0.02643
G1 X101.909 Y100.536 E0.00078
G1 X133.551 Y68.894 E0.02532
G1 X133.551 Y70.28 E0.00078
G1 X103.295 Y100.536 E0.02421
G1 X104.681 Y100.536 E0.00078
G1 X133.551 Y71.666 E0.0231
G1 X133.551 Y73.052 E0.00078
G1 X106.067 Y100.536 E0.02199
G1 X107.453 Y100.536 E0.00078
G1 X133.551 Y74.438 E0.02089
G1 X133.551 Y75.824 E0.00078
G1 X108.839 Y100.536 E0.01978
G1 X110.225 Y100.536 E0.00078
G1 X133.551 Y77.21 E0.01867
G1 X133.551 Y78.596 E0.00078
G1 X111.611 Y100.536 E0.01756
G1 X112.997 Y100.536 E0.00078
G1 X133.551 Y79.982 E0.01645
G1 X133.551 Y81.368 E0.00078
G1 X114.383 Y100.536 E0.01534
G1 X115.768 Y100.536 E0.00078
G1 X133.551 Y82.754 E0.01423
G1 X133.551 Y84.14 E0.00078
G1 X117.154 Y100.536 E0.01312
G1 X118.54 Y100.536 E0.00078
G1 X133.551 Y85.525 E0.01201
G1 X133.551 Y86.911 E0.00078
G1 X119.926 Y100.536 E0.0109
G1 X121.312 Y100.536 E0.00078
G1 X133.551 Y88.297 E0.00979
G1 X133.551 Y89.683 E0.00078
G1 X122.698 Y100.536 E0.00869
G1 X124.084 Y100.536 E0.00078
G1 X133.551 Y91.069 E0.00758
G1 X133.551 Y92.455 E0.00078
G1 X125.47 Y100.536 E0.00647
G1 X126.856 Y100.536 E0.00078
G1 X133.551 Y93.841 E0.00536
G1 X133.551 Y95.227 E0.00078
G1 X128.242 Y100.536 E0.00425
G1 X129.628 Y100.536 E0.00078
G1 X133.551 Y96.613 E0.00314
G1 X133.551 Y97.999 E0.00078
G1 X131.014 Y100.536 E0.00203
G1 X133.552 Y100.536 E0.00144
G1 X133.551 Y99.385 E0.00065
G1 X132.4 Y100.536 E0.00092
G1 F480 E-0.05
G1 F600 Z3.2
G0 X134.552 Y53.464 Z3.2
;TYPE:WALL-OUTER
G1 F600 Z1.2
G1 F480 E0.05
G1 F600 X134.552 Y101.536 E0.0272
G1 X65.448 Y101.536 E0.0391
G1 X65.448 Y53.464 E0.0272
G1 X134.552 Y53.464 E0.0391
G0 X134.552 Y53.964
G1 F480 E-0.05
G1 F600 Z3.2
;MESH:NONMESH
G0 X66.448 Y100.04 Z3.2
;TIME_ELAPSED:1096.762132
;LAYER:3
;MESH:60_card_deck_box_base.stl
G0 X66.448 Y100.04 Z3.6
;TYPE:FILL
G1 F600 Z1.6
G1 F480 E0.05
G1 F600 X133.552 Y100.04 E0.03797
G1 X133.552 Y100.536 E0.00028
G1 X66.448 Y100.536 E0.03797
G1 X66.448 Y99.06 E0.00084
G1 X133.552 Y99.06 E0.03797
G1 X133.552 Y98.08 E0.00055
G1 X66.448 Y98.08 E0.03797
G1 X66.448 Y97.1 E0.00055
G1 X133.552 Y97.1 E0.03797
G1 X133.552 Y96.12 E0.00055
G1 X66.448 Y96.12 E0.03797
G1 X66.448 Y95.14 E0.00055
G1 X133.552 Y95.14 E0.03797
G1 X133.552 Y94.16 E0.00055
G1 X66.448 Y94.16 E0.03797
G1 X66.448 Y93.18 E0.00055
G1 X133.552 Y93.18 E0.03797
G1 X133.552 Y92.2 E0.00055
G1 X66.448 Y92.2 E0.03797
G1 X66.448 Y91.22 E0.00055
G1 X133.552 Y91.22 E0.03797
G1 X133.552 Y90.24 E0.00055
G1 X66.448 Y90.24 E0.03797
