;FLAVOR:RepRap
;TIME:4520
;Filament used: 0.0189272m
;Layer height: 0.4
;MINX:67.31
;MINY:44.75
;MINZ:0.4
;MAXX:132.69
;MAXY:110.25
;MAXZ:59.2
;Generated with Cura_SteamEngine 4.10.0
T0
M104 S30
M109 S30
M82 ;absolute extrusion mode
;Pressure advances
M400 ; Finish all current moves and for pressure advances.
M572 D0 S0.00                      ;Pressure advance enabled
;Wipe
G1 Z1 F900			;Wipe height
M83			;Extruder to relative mode
M400
G1 Y140 E0.2 F900		;Draw first thin line
G1 X1 F900
G1 Y5 E0.2 F900		;Draw second thin line
G1 X2 F900
G1 Y50 F900			;Coast in case of leakage
;M82			;Extruder to absolute mode (default)
M400			; wait for moves to finish
G92 E0			; zero extruder
;MHI3D CODE END
M83 ;relative extrusion mode
G1 F480 E-0.05
;LAYER_COUNT:143
;LAYER:0
M106 S25.5
G1 F600 Z2.4
;MESH:squarecircle.stl
G0 X89.987 Y50.182 Z2.4
;TYPE:FILL
G1 F600 Z0.4
G1 F480 E0.05
G1 F600 X89.603 Y50.473 E0.00027
G1 X126.055 Y86.926 E0.02917
G1 X125.502 Y87.758 E0.00057
G1 X88.828 Y51.084 E0.02935
G1 X88.303 Y51.51 E0.00038
G1 X88.065 Y51.707 E0.00017
G1 X124.936 Y88.578 E0.02951
G1 X124.394 Y89.362 E0.00054
G1 X124.368 Y89.396 E0.00002
G1 X87.319 Y52.347 E0.02965
G1 X87.248 Y52.411 E0.00005
G1 X86.692 Y52.906 E0.00042
G1 X86.587 Y53.001 E0.00008
G1 X123.788 Y90.202 E0.02977
G1 X123.338 Y90.827 E0.00044
G1 X123.204 Y91.004 E0.00013
G1 X85.866 Y53.666 E0.02988
G1 X85.561 Y53.953 E0.00024
G1 X85.156 Y54.341 E0.00032
G1 X122.609 Y91.795 E0.02997
G1 X122.263 Y92.257 E0.00033
G1 X122.009 Y92.58 E0.00023
G1 X84.456 Y55.028 E0.03005
G1 X84.43 Y55.055 E0.00002
G1 X83.869 Y55.623 E0.00045
G1 X83.768 Y55.725 E0.00008
G1 X121.399 Y93.357 E0.03012
G1 X121.167 Y93.654 E0.00021
G1 X120.783 Y94.127 E0.00034
G1 X83.09 Y56.434 E0.03016
G1 X82.742 Y56.806 E0.00029
G1 X82.422 Y57.151 E0.00027
G1 X120.161 Y94.89 E0.0302
G1 X120.057 Y95.018 E0.00009
G0 X120.056 Y95.017
G1 X119.56 Y95.606 E0.00044
G1 X119.527 Y95.643 E0.00003
G1 X81.763 Y57.878 E0.03022
G1 X81.614 Y58.046 E0.00013
G1 X81.132 Y58.591 E0.00041
G1 X81.112 Y58.613 E0.00002
G1 X118.885 Y96.387 E0.03023
G1 X118.382 Y96.959 E0.00043
G1 X118.235 Y97.122 E0.00012
G1 X80.47 Y59.357 E0.03022
G1 X80.446 Y59.387 E0.00002
G1 X79.947 Y59.98 E0.00044
G1 X79.838 Y60.111 E0.0001
G1 X117.575 Y97.848 E0.0302
G1 X117.256 Y98.196 E0.00027
G0 X117.257 Y98.197
G1 X116.908 Y98.567 E0.00029
G1 X79.213 Y60.872 E0.03017
G1 X78.829 Y61.35 E0.00035
G1 X78.597 Y61.642 E0.00021
G1 X116.229 Y99.274 E0.03012
G1 X116.127 Y99.381 E0.00008
G1 X115.566 Y99.949 E0.00045
G1 X115.541 Y99.972 E0.00002
G1 X77.988 Y62.419 E0.03005
G1 X77.739 Y62.74 E0.00023
G1 X77.387 Y63.204 E0.00033
G1 X114.842 Y100.659 E0.02997
G1 X114.442 Y101.046 E0.00031
G0 X114.441 Y101.045
G1 X114.131 Y101.334 E0.00024
G1 X76.793 Y63.995 E0.02988
G1 X76.658 Y64.179 E0.00013
G1 X76.209 Y64.797 E0.00043
G1 X113.41 Y101.998 E0.02977
G1 X113.232 Y102.164 E0.00014
G1 X112.754 Y102.589 E0.00036
G1 X112.678 Y102.652 E0.00006
G1 X75.628 Y65.603 E0.02965
G1 X75.598 Y65.647 E0.00003
G1 X75.06 Y66.421 E0.00053
G1 X111.931 Y103.292 E0.02951
G1 X111.655 Y103.525 E0.0002
G1 X111.17 Y103.917 E0.00035
G1 X74.495 Y67.242 E0.02935
G1 X73.941 Y68.073 E0.00057
G1 X110.393 Y104.525 E0.02917
G1 X110.002 Y104.826 E0.00028
G1 X109.6 Y105.119 E0.00028
G1 X73.391 Y68.909 E0.02898
G1 X72.851 Y69.755 E0.00057
G1 X108.791 Y105.696 E0.02876
G1 X108.422 Y105.95 E0.00025
G1 X107.961 Y106.251 E0.00031
G1 X72.317 Y70.607 E0.02853
G1 X71.791 Y71.467 E0.00057
G1 X107.105 Y106.781 E0.02826
G1 X106.886 Y106.915 E0.00015
G1 X106.35 Y107.22 E0.00035
G1 X106.224 Y107.286 E0.00008
G1 X71.273 Y72.335 E0.02797
G1 X70.76 Y73.208 E0.00057
G1 X105.313 Y107.761 E0.02765
G1 X104.921 Y107.951 E0.00025
G1 X104.426 Y108.175 E0.00031
G1 X104.365 Y108.199 E0.00004
G1 X70.26 Y74.094 E0.02729
G1 X69.773 Y74.966 E0.00057
G1 X69.762 Y74.982 E0.00001
G1 X103.366 Y108.586 E0.02689
G1 X102.647 Y108.825 E0.00043
G1 X102.306 Y108.912 E0.0002
G1 X69.278 Y75.883 E0.02643
G1 X68.912 Y76.568 E0.00044
G1 X68.797 Y76.789 E0.00014
G1 X101.161 Y109.153 E0.0259
G1 X101.082 Y109.169 E0.00005
G1 X100.332 Y109.24 E0.00043
G1 X99.861 Y109.238 E0.00027
G1 X68.766 Y78.144 E0.02488
G1 X68.905 Y78.413 E0.00017
G1 X69.812 Y80.103 E0.00109
G1 X70.415 Y81.178 E0.0007
G1 X98.294 Y109.058 E0.02231
G1 X98.171 Y109.037 E0.00007
G1 X97.334 Y108.82 E0.00049
G1 X96.458 Y108.53 E0.00052
G1 X96.331 Y108.48 E0.00008
G1 X72.439 Y84.589 E0.01912
G1 X72.545 Y84.762 E0.00011
G1 X73.537 Y86.316 E0.00104
G1 X74.551 Y87.839 E0.00104
G1 X75.588 Y89.337 E0.00103
G1 X76.649 Y90.808 E0.00103
G0 X76.65 Y90.808
G1 X77.745 Y92.264 E0.00103
G1 X78.822 Y93.642 E0.00099
G1 X79.255 Y94.176 E0.00039
G1 X89.603 Y104.524 E0.00828
G1 X89.993 Y104.822 E0.00028
G1 X90.509 Y105.204 E0.00036
G1 X91.054 Y105.59 E0.00038
G1 X91.574 Y105.945 E0.00036
G1 X92.105 Y106.294 E0.00036
G1 X92.623 Y106.619 E0.00035
G0 X92.623 Y106.62
G1 X93.111 Y106.914 E0.00032
G1 X93.622 Y107.205 E0.00033
G1 X93.724 Y107.259 E0.00007
G1 X75.106 Y88.642 E0.0149
G1 X74.93 Y88.466
G1 F480 E-0.05
G1 F600 Z2.4
G0 X89.989 Y50.181 Z2.4
G1 F600 Z0.4
G1 F480 E0.05
G1 F600 X89.994 Y50.177 E0
G1 X90.397 Y49.881 E0.00028
G1 X126.606 Y86.09 E0.02898
G1 X127.146 Y85.245 E0.00057
G1 X91.206 Y49.305 E0.02876
G1 X91.582 Y49.047 E0.00026
G1 X92.037 Y48.749 E0.00031
G1 X127.68 Y84.393 E0.02852
G1 X128.206 Y83.533 E0.00057
G1 X92.893 Y48.219 E0.02826
G1 X93.149 Y48.066 E0.00017
G0 X93.149 Y48.065
G1 X93.639 Y47.786 E0.00032
G1 X93.772 Y47.713 E0.00009
G1 X128.724 Y82.665 E0.02797
G1 X129.236 Y81.791 E0.00057
G1 X94.685 Y47.239 E0.02765
G1 X95.114 Y47.033 E0.00027
G1 X95.586 Y46.82 E0.00029
G1 X95.632 Y46.801 E0.00003
G1 X129.737 Y80.905 E0.02729
G1 X130.224 Y80.039 E0.00056
G1 X130.235 Y80.018 E0.00001
G1 X96.631 Y46.413 E0.02689
G1 X97.336 Y46.18 E0.00042
G1 X97.691 Y46.088 E0.00021
G1 X130.72 Y79.116 E0.02643
G1 X131.089 Y78.43 E0.00044
G1 X131.2 Y78.211 E0.00014
G1 X98.835 Y45.845 E0.0259
G1 X98.916 Y45.831 E0.00005
G1 X99.665 Y45.76 E0.00043
G1 X100.134 Y45.759 E0.00027
G1 X131.237 Y76.862 E0.02489
G1 X131.087 Y76.567 E0.00019
G1 X130.224 Y74.96 E0.00103
G1 X129.584 Y73.823 E0.00074
G1 X101.702 Y45.941 E0.02231
G1 X101.832 Y45.964 E0.00007
G1 X102.685 Y46.185 E0.0005
G1 X103.095 Y46.315 E0.00024
G1 X103.554 Y46.475 E0.00028
G1 X103.664 Y46.517 E0.00007
G1 X127.563 Y70.416 E0.01913
G1 X127.439 Y70.212 E0.00014
G1 X126.452 Y68.666 E0.00104
G1 X125.453 Y67.167 E0.00102
G1 X124.405 Y65.655 E0.00104
G1 X123.336 Y64.173 E0.00103
G1 X122.26 Y62.739 E0.00101
G1 X121.177 Y61.358 E0.00099
G1 X120.748 Y60.829 E0.00039
G1 X110.381 Y50.462 E0.0083
G1 X110.012 Y50.181 E0.00026
G1 X109.487 Y49.796 E0.00037
G1 X108.934 Y49.403 E0.00038
G0 X108.934 Y49.402
G1 X108.422 Y49.052 E0.00035
G1 X107.894 Y48.705 E0.00036
G1 X107.373 Y48.379 E0.00035
G1 X106.865 Y48.072 E0.00034
G1 X106.386 Y47.799 E0.00031
G1 X106.268 Y47.736 E0.00008
G1 X124.893 Y66.36 E0.0149
G1 X125.069 Y66.536
G1 F480 E-0.05
G1 F600 Z2.4
G0 X113.418 Y51.663 Z2.4
;TYPE:WALL-OUTER
G1 F600 Z0.4
G1 F480 E0.05
G1 F600 X113.984 Y52.167 E0.00043
G1 X114.553 Y52.688 E0.00044
G1 X115.13 Y53.229 E0.00045
G1 X115.702 Y53.78 E0.00045
G1 X116.273 Y54.344 E0.00045
G1 X116.845 Y54.923 E0.00046
G1 X117.417 Y55.516 E0.00047
G1 X117.987 Y56.121 E0.00047
G1 X118.568 Y56.752 E0.00049
G1 X119.133 Y57.381 E0.00048
G1 X119.7 Y58.023 E0.00048
G1 X120.265 Y58.679 E0.00049
G1 X120.827 Y59.347 E0.00049
G1 X121.394 Y60.035 E0.0005
G1 X121.955 Y60.728 E0.0005
G1 X123.06 Y62.139 E0.00101
G1 X124.148 Y63.587 E0.00102
G1 X125.217 Y65.069 E0.00103
G1 X126.275 Y66.597 E0.00105
G1 X127.294 Y68.128 E0.00104
G1 X128.291 Y69.69 E0.00105
G1 X129.265 Y71.281 E0.00106
G1 X130.201 Y72.878 E0.00105
G1 X131.104 Y74.486 E0.00104
G1 X131.977 Y76.111 E0.00104
G1 X132.688 Y77.501 E0.00088
G1 X131.969 Y78.904 E0.00089
G1 X131.096 Y80.529 E0.00104
G1 X130.188 Y82.146 E0.00105
G1 X129.256 Y83.735 E0.00104
G1 X128.282 Y85.325 E0.00106
G1 X127.284 Y86.887 E0.00105
G1 X126.26 Y88.425 E0.00105
G1 X125.206 Y89.946 E0.00105
G1 X124.138 Y91.427 E0.00103
G1 X123.05 Y92.874 E0.00102
G1 X121.945 Y94.284 E0.00101
G1 X121.384 Y94.977 E0.0005
G1 X120.825 Y95.657 E0.0005
G1 X120.259 Y96.328 E0.0005
G1 X119.694 Y96.983 E0.00049
G1 X119.126 Y97.627 E0.00049
G1 X118.558 Y98.259 E0.00048
G1 X117.988 Y98.878 E0.00048
G1 X117.419 Y99.483 E0.00047
G1 X116.839 Y100.083 E0.00047
G1 X116.268 Y100.661 E0.00046
G1 X115.696 Y101.226 E0.00045
G1 X115.125 Y101.775 E0.00045
G1 X114.554 Y102.31 E0.00044
G1 X113.981 Y102.835 E0.00044
G1 X113.408 Y103.345 E0.00043
G1 X112.848 Y103.829 E0.00042
G1 X112.285 Y104.301 E0.00042
G1 X111.724 Y104.757 E0.00041
G1 X111.169 Y105.195 E0.0004
G1 X110.608 Y105.622 E0.0004
G1 X110.057 Y106.027 E0.00039
G1 X109.504 Y106.42 E0.00038
G1 X108.97 Y106.786 E0.00037
G1 X108.436 Y107.136 E0.00036
G1 X107.901 Y107.471 E0.00036
G1 X107.38 Y107.785 E0.00034
G1 X106.844 Y108.09 E0.00035
G1 X106.34 Y108.364 E0.00032
G1 X105.834 Y108.623 E0.00032
G1 X105.333 Y108.863 E0.00031
G1 X104.833 Y109.089 E0.00031
G1 X104.346 Y109.292 E0.0003
G1 X103.862 Y109.477 E0.00029
G1 X102.941 Y109.781 E0.00055
G1 X102.046 Y110.013 E0.00052
G1 X101.202 Y110.163 E0.00049
G1 X100.384 Y110.24 E0.00046
G1 X99.612 Y110.24 E0.00044
G1 X98.793 Y110.164 E0.00047
G1 X97.949 Y110.013 E0.00049
G1 X97.046 Y109.778 E0.00053
G1 X96.128 Y109.474 E0.00055
G1 X95.637 Y109.286 E0.0003
G1 X95.167 Y109.089 E0.00029
G1 X94.662 Y108.861 E0.00031
G1 X94.161 Y108.621 E0.00031
G1 X93.655 Y108.361 E0.00032
G1 X93.146 Y108.085 E0.00033
G1 X92.616 Y107.783 E0.00035
G1 X92.097 Y107.47 E0.00034
G1 X91.564 Y107.136 E0.00036
G1 X91.024 Y106.781 E0.00037
G1 X90.49 Y106.416 E0.00037
G1 X89.931 Y106.02 E0.00039
G1 X89.387 Y105.618 E0.00038
G1 X88.826 Y105.191 E0.0004
G1 X88.27 Y104.752 E0.0004
G1 X87.709 Y104.296 E0.00041
G1 X87.152 Y103.828 E0.00041
G1 X86.575 Y103.33 E0.00043
G1 X86.009 Y102.826 E0.00043
G1 X85.444 Y102.309 E0.00043
G1 X84.869 Y101.77 E0.00045
G1 X84.298 Y101.22 E0.00045
G1 X83.726 Y100.655 E0.00045
G1 X83.149 Y100.071 E0.00046
G1 X82.577 Y99.478 E0.00047
G1 X82.006 Y98.872 E0.00047
G1 X81.436 Y98.253 E0.00048
G1 X80.868 Y97.621 E0.00048
G1 X80.3 Y96.976 E0.00049
G1 X79.729 Y96.314 E0.00049
G1 X79.17 Y95.65 E0.00049
G1 X78.607 Y94.967 E0.0005
G1 X78.044 Y94.271 E0.00051
G1 X76.945 Y92.866 E0.00101
G1 X75.85 Y91.41 E0.00103
G1 X74.777 Y89.922 E0.00104
G1 X73.729 Y88.409 E0.00104
G1 X72.705 Y86.87 E0.00105
G1 X71.703 Y85.3 E0.00105
G1 X70.734 Y83.718 E0.00105
G1 X69.802 Y82.129 E0.00104
G1 X68.895 Y80.511 E0.00105
G1 X68.023 Y78.887 E0.00104
G1 X67.312 Y77.5 E0.00088
G1 X68.032 Y76.094 E0.00089
G1 X68.901 Y74.477 E0.00104
G1 X69.803 Y72.868 E0.00104
G1 X70.745 Y71.263 E0.00105
G1 X71.714 Y69.682 E0.00105
G1 X72.712 Y68.119 E0.00105
G1 X73.741 Y66.573 E0.00105
G1 X74.788 Y65.061 E0.00104
G1 X75.858 Y63.579 E0.00103
G1 X76.951 Y62.124 E0.00103
G1 X78.051 Y60.72 E0.00101
G1 X78.615 Y60.023 E0.00051
G1 X79.178 Y59.34 E0.0005
G1 X79.737 Y58.677 E0.00049
G1 X80.302 Y58.022 E0.00049
G1 X80.87 Y57.377 E0.00049
G1 X81.444 Y56.739 E0.00049
G1 X82.014 Y56.12 E0.00048
G1 X82.585 Y55.514 E0.00047
G1 X83.157 Y54.921 E0.00047
G1 X83.728 Y54.343 E0.00046
G1 X84.3 Y53.778 E0.00045
G1 X84.877 Y53.223 E0.00045
G1 X85.452 Y52.684 E0.00045
G1 X86.016 Y52.168 E0.00043
G1 X86.588 Y51.659 E0.00043
G1 X87.148 Y51.174 E0.00042
G1 X87.711 Y50.702 E0.00042
G1 X88.278 Y50.243 E0.00041
G1 X88.841 Y49.799 E0.00041
G1 X89.395 Y49.376 E0.00039
G1 X89.939 Y48.976 E0.00038
G1 X90.485 Y48.588 E0.00038
G1 X91.034 Y48.211 E0.00038
G1 X91.567 Y47.862 E0.00036
G1 X92.099 Y47.529 E0.00036
G1 X92.633 Y47.208 E0.00035
G1 X93.153 Y46.912 E0.00034
G1 X93.657 Y46.638 E0.00032
G1 X94.164 Y46.379 E0.00032
G1 X94.68 Y46.131 E0.00032
G1 X95.174 Y45.908 E0.00031
G1 X95.657 Y45.707 E0.0003
G1 X96.134 Y45.524 E0.00029
G1 X97.048 Y45.222 E0.00054
G1 X97.961 Y44.985 E0.00053
G1 X98.796 Y44.837 E0.00048
G1 X99.613 Y44.76 E0.00046
G1 X100.384 Y44.759 E0.00044
G1 X101.208 Y44.837 E0.00047
G1 X102.054 Y44.988 E0.00049
G1 X102.957 Y45.223 E0.00053
G1 X103.409 Y45.365 E0.00027
G1 X103.884 Y45.531 E0.00028
G1 X104.353 Y45.71 E0.00028
G1 X104.83 Y45.91 E0.00029
G1 X105.342 Y46.141 E0.00032
G1 X105.843 Y46.381 E0.00031
G1 X106.339 Y46.636 E0.00032
G1 X106.862 Y46.919 E0.00034
G1 X107.372 Y47.21 E0.00033
G1 X107.897 Y47.527 E0.00035
G1 X108.444 Y47.869 E0.00037
G1 X108.972 Y48.216 E0.00036
G1 X109.514 Y48.587 E0.00037
G1 X110.067 Y48.98 E0.00038
G1 X110.611 Y49.38 E0.00038
G1 X111.171 Y49.807 E0.0004
G1 X111.729 Y50.247 E0.0004
G1 X112.289 Y50.702 E0.00041
G1 X112.852 Y51.174 E0.00042
G1 X113.418 Y51.663 E0.00042
G0 X113.791 Y51.995
G1 F480 E-0.05
G1 F600 Z2.4
;MESH:NONMESH
G0 X80.504 Y59.318 Z2.4
;TIME_ELAPSED:313.358186
;LAYER:1
;MESH:squarecircle.stl
G0 X80.504 Y59.318 Z2.8
;TYPE:FILL
G1 F600 Z0.8
G1 F480 E0.05
G1 F600 X80.4 Y59.441 E0.00009
G1 X80.4 Y95.556 E0.02044
G1 X79.925 Y94.992 E0.00042
G1 X79.42 Y94.38 E0.00045
G1 X79.42 Y60.621 E0.0191
G1 X79.406 Y60.638 E0.00001
G1 X78.83 Y61.349 E0.00052
G1 X78.44 Y61.847 E0.00036
G1 X78.44 Y93.155 E0.01772
G1 X77.715 Y92.228 E0.00067
G1 X77.46 Y91.888 E0.00024
G1 X77.46 Y63.115 E0.01628
G1 X76.648 Y64.193 E0.00076
G1 X76.48 Y64.425 E0.00016
G1 X76.48 Y90.573 E0.0148
G1 X75.575 Y89.317 E0.00088
G1 X75.5 Y89.208 E0.00007
G1 X75.5 Y65.789 E0.01325
G1 X74.578 Y67.122 E0.00092
G1 X74.52 Y67.208 E0.00006
G1 X74.52 Y87.792 E0.01165
G1 X73.547 Y86.329 E0.00099
G1 X73.54 Y86.318 E0.00001
G1 X73.54 Y68.679 E0.00998
G1 X72.56 Y70.213 E0.00103
G1 X72.56 Y84.781 E0.00824
G1 X72.502 Y84.691 E0.00006
G1 X71.58 Y83.184 E0.001
G1 X71.58 Y71.815 E0.00643
G1 X70.687 Y73.338 E0.001
G1 X70.6 Y73.492 E0.0001
G1 X70.6 Y81.505 E0.00453
G1 X69.75 Y79.991 E0.00098
G1 X69.62 Y79.748 E0.00016
G1 X69.62 Y75.251 E0.00254
G1 X68.911 Y76.569 E0.00085
G1 X68.436 Y77.5 E0.00059
G1 X68.64 Y77.898 E0.00025
G1 X68.64 Y77.1 E0.00045
G1 F480 E-0.05
G1 F600 Z2.8
G0 X81.064 Y58.669 Z2.8
G1 F600 Z0.8
G1 F480 E0.05
G1 F600 X81.38 Y58.31 E0.00027
G1 X81.38 Y96.689 E0.02172
G1 X81.609 Y96.95 E0.0002
G1 X82.167 Y97.57 E0.00047
G1 X82.36 Y97.779 E0.00016
G1 X82.36 Y57.221 E0.02295
G1 X82.752 Y56.795 E0.00033
G1 X83.313 Y56.199 E0.00046
G1 X83.34 Y56.17 E0.00002
G1 X83.34 Y98.827 E0.02414
G1 X83.851 Y99.358 E0.00042
G1 X84.32 Y99.833 E0.00038
G1 X84.32 Y55.166 E0.02528
G1 X84.435 Y55.05 E0.00009
G1 X84.997 Y54.495 E0.00045
G1 X85.3 Y54.203 E0.00024
G1 X85.3 Y100.796 E0.02637
G1 X85.548 Y101.035 E0.00019
G1 X86.109 Y101.561 E0.00044
G1 X86.28 Y101.717 E0.00013
G1 X86.28 Y53.281 E0.02741
G1 X86.688 Y52.908 E0.00031
G1 X87.248 Y52.41 E0.00042
G1 X87.26 Y52.399 E0.00001
G1 X87.26 Y102.599 E0.02841
G1 X87.788 Y103.057 E0.0004
G1 X88.24 Y103.436 E0.00033
G1 X88.24 Y51.563 E0.02935
G1 X88.344 Y51.476 E0.00008
G1 X88.909 Y51.017 E0.00041
G0 X88.909 Y51.018
G1 X89.22 Y50.772 E0.00022
G1 X89.22 Y104.228 E0.03025
G1 X89.424 Y104.39 E0.00015
G1 X89.966 Y104.802 E0.00039
G0 X89.967 Y104.801
G1 X90.2 Y104.972 E0.00016
G1 X90.2 Y50.026 E0.03109
G1 X90.532 Y49.781 E0.00023
G1 X91.068 Y49.401 E0.00037
G1 X91.18 Y49.324 E0.00008
G1 X91.18 Y105.676 E0.03189
G1 X91.571 Y105.943 E0.00027
G1 X92.112 Y106.299 E0.00037
G1 X92.16 Y106.329 E0.00003
G1 X92.16 Y48.67 E0.03263
G1 X92.646 Y48.367 E0.00032
G1 X93.137 Y48.071 E0.00032
G0 X93.14 Y48.069
G1 X93.14 Y106.93 E0.03331
G1 X93.606 Y107.197 E0.0003
G1 X94.109 Y107.47 E0.00032
G1 X94.12 Y107.475 E0.00001
G1 X94.12 Y47.525 E0.03392
G1 X94.147 Y47.511 E0.00002
G1 X94.6 Y47.279 E0.00029
G0 X94.6 Y47.28
G1 X95.1 Y47.039 E0.00031
G1 X95.1 Y107.96 E0.03447
G1 X95.559 Y108.168 E0.00029
G1 X96.004 Y108.355 E0.00027
G1 X96.08 Y108.384 E0.00005
G1 X96.08 Y46.613 E0.03496
G1 X96.467 Y46.467 E0.00023
G1 X96.881 Y46.323 E0.00025
G1 X97.06 Y46.27 E0.00011
G1 X97.06 Y108.731 E0.03535
G1 X97.772 Y108.942 E0.00042
G1 X98.04 Y109 E0.00016
G1 X98.04 Y45.999 E0.03565
G1 X98.552 Y45.887 E0.0003
G1 X99.02 Y45.823 E0.00027
G1 X99.02 Y109.175 E0.03585
G1 X99.31 Y109.216 E0.00017
G1 X99.995 Y109.25 E0.00039
G1 X100 Y109.25 E0
G1 X100 Y45.75 E0.03593
G1 X100.013 Y45.75 E0.00001
