;FLAVOR:RepRap
;TIME:5030
;Filament used: 0.020964m
;Layer height: 0.4
;MINX:65.56
;MINY:43.004
;MINZ:0.4
;MAXX:134.441
;MAXY:112
;MAXZ:62
;Generated with Cura_SteamEngine 4.10.0
T0
M104 S30
M109 S30
M82 ;absolute extrusion mode
;Pressure advances
M400 ; Finish all current moves and for pressure advances.
M572 D0 S0.00                      ;Pressure advance enabled
;Wipe
G1 Z1 F900			;Wipe height
M83			;Extruder to relative mode
M400
G1 Y140 E0.2 F900		;Draw first thin line
G1 X1 F900
G1 Y5 E0.2 F900		;Draw second thin line
G1 X2 F900
G1 Y50 F900			;Coast in case of leakage
;M82			;Extruder to absolute mode (default)
M400			; wait for moves to finish
G92 E0			; zero extruder
;MHI3D CODE END
M83 ;relative extrusion mode
G1 F480 E-0.05
;LAYER_COUNT:150
;LAYER:0
M106 S25.5
G1 F600 Z2.4
;MESH:squarecircle.stl
G0 X91.641 Y47.126 Z2.4
;TYPE:FILL
G1 F600 Z0.4
G1 F480 E0.05
G1 F600 X91.086 Y47.49 E0.00038
G1 X90.903 Y47.615 E0.00013
G1 X128.775 Y85.487 E0.03031
G1 X128.234 Y86.332 E0.00057
G1 X90.088 Y48.186 E0.03053
G1 X89.986 Y48.259 E0.00007
G1 X89.962 Y48.279 E0.00002
G1 X89.949 Y48.285 E0.00001
G1 X89.405 Y48.685 E0.00038
G1 X89.289 Y48.774 E0.00008
G1 X127.688 Y87.172 E0.03073
G1 X127.134 Y88.004 E0.00057
G1 X88.509 Y49.379 E0.03091
G1 X88.184 Y49.636 E0.00023
G1 X87.74 Y49.996 E0.00032
G1 X126.574 Y88.83 E0.03108
G1 X126.007 Y89.649 E0.00056
G1 X86.988 Y50.63 E0.03123
G1 X86.521 Y51.036 E0.00035
G1 X86.249 Y51.277 E0.00021
G1 X125.433 Y90.461 E0.03136
G1 X124.852 Y91.266 E0.00056
G1 X85.521 Y51.934 E0.03148
G1 X85.352 Y52.089 E0.00013
G1 X84.803 Y52.603 E0.00043
G1 X124.261 Y92.061 E0.03158
G1 X123.666 Y92.852 E0.00056
G1 X84.096 Y53.281 E0.03167
G1 X83.555 Y53.817 E0.00043
G1 X83.4 Y53.972 E0.00012
G1 X123.062 Y93.634 E0.03174
G1 X122.453 Y94.411 E0.00056
G1 X82.715 Y54.672 E0.0318
G1 X82.37 Y55.032 E0.00028
G1 X82.038 Y55.382 E0.00027
G1 X121.835 Y95.179 E0.03185
G1 X121.752 Y95.283 E0.00008
G1 X121.211 Y95.94 E0.00048
G1 X81.371 Y56.101 E0.03188
G1 X81.184 Y56.306 E0.00016
G1 X80.712 Y56.828 E0.0004
G1 X120.577 Y96.693 E0.0319
G1 X119.991 Y97.374 E0.00051
G1 X119.935 Y97.437 E0.00005
G1 X80.062 Y57.564 E0.03191
G1 X79.999 Y57.639 E0.00006
G1 X79.42 Y58.308 E0.0005
G1 X119.285 Y98.172 E0.0319
G1 X118.814 Y98.695 E0.0004
G0 X118.815 Y98.696
G1 X118.627 Y98.9 E0.00016
G1 X78.786 Y59.059 E0.03188
G1 X78.244 Y59.72 E0.00048
G1 X78.161 Y59.82 E0.00007
G1 X117.959 Y99.618 E0.03185
G1 X117.635 Y99.964 E0.00027
G1 X117.282 Y100.327 E0.00029
G1 X77.543 Y60.588 E0.0318
G1 X76.934 Y61.365 E0.00056
G1 X116.597 Y101.028 E0.03174
G1 X116.441 Y101.187 E0.00013
G1 X115.901 Y101.718 E0.00043
G1 X76.329 Y62.146 E0.03167
G1 X75.735 Y62.938 E0.00056
G1 X115.194 Y102.397 E0.03158
G1 X114.662 Y102.897 E0.00041
G1 X114.476 Y103.065 E0.00014
G1 X75.145 Y63.734 E0.03148
G1 X74.564 Y64.539 E0.00056
G1 X113.749 Y103.724 E0.03136
G1 X113.477 Y103.968 E0.00021
G1 X113.009 Y104.37 E0.00035
G1 X73.989 Y65.35 E0.03123
G1 X73.422 Y66.168 E0.00056
G1 X112.256 Y105.002 E0.03108
G1 X111.72 Y105.44 E0.00039
G1 X111.488 Y105.621 E0.00017
G1 X72.863 Y66.995 E0.03091
G1 X72.309 Y67.827 E0.00057
G1 X110.708 Y106.226 E0.03073
G1 X110.584 Y106.323 E0.00009
G1 X110.025 Y106.734 E0.00039
G1 X109.909 Y106.814 E0.00008
G1 X71.763 Y68.667 E0.03053
G1 X71.223 Y69.513 E0.00057
G1 X109.094 Y107.384 E0.03031
G1 X108.893 Y107.523 E0.00014
G1 X108.361 Y107.872 E0.00036
G1 X108.258 Y107.934 E0.00007
G1 X70.692 Y70.368 E0.03006
G1 X70.165 Y71.227 E0.00057
G1 X107.401 Y108.463 E0.0298
G1 X107.284 Y108.535 E0.00008
G1 X106.73 Y108.851 E0.00036
G1 X106.517 Y108.965 E0.00014
G1 X69.65 Y72.098 E0.0295
G1 X69.138 Y72.972 E0.00057
G1 X105.602 Y109.436 E0.02918
G1 X105.18 Y109.641 E0.00027
G1 X104.723 Y109.847 E0.00028
G1 X104.654 Y109.874 E0.00004
G1 X68.638 Y73.858 E0.02882
G1 X68.139 Y74.745 E0.00058
G1 X103.661 Y110.267 E0.02843
G1 X103.293 Y110.397 E0.00022
G1 X102.81 Y110.549 E0.00029
G1 X102.608 Y110.599 E0.00012
G1 X67.654 Y75.646 E0.02797
G1 X67.206 Y76.483 E0.00054
G1 X67.171 Y76.549 E0.00004
G1 X101.476 Y110.854 E0.02745
G1 X101.148 Y110.914 E0.00019
G1 X100.355 Y110.989 E0.00045
G1 X100.224 Y110.988 E0.00007
G1 X66.702 Y77.465 E0.02683
G1 X66.686 Y77.5 E0.00002
G1 X67.199 Y78.501 E0.00064
G1 X68.102 Y80.185 E0.00108
G1 X68.188 Y80.337 E0.0001
G1 X98.745 Y110.894 E0.02445
G1 X98.058 Y110.775 E0.00039
G1 X97.193 Y110.551 E0.00051
G1 X96.932 Y110.467 E0.00016
G1 X70.058 Y83.594 E0.02151
G1 X71.034 Y85.187 E0.00106
G1 X72.079 Y86.824 E0.0011
G1 X73.147 Y88.429 E0.00109
G1 X74.238 Y90.006 E0.00109
G1 X75.322 Y91.508 E0.00105
G1 X75.69 Y91.998 E0.00035
G1 X91.418 Y107.725 E0.01259
G1 X91.639 Y107.872 E0.00015
G1 X92.194 Y108.219 E0.00037
G1 X92.722 Y108.538 E0.00035
G1 X93.248 Y108.838 E0.00034
G1 X93.781 Y109.127 E0.00034
G1 X94.277 Y109.381 E0.00032
G0 X94.277 Y109.38
G1 X94.625 Y109.547 E0.00022
G1 X72.429 Y87.351 E0.01776
G1 X72.253 Y87.175
G1 F480 E-0.05
G1 F600 Z2.4
G0 X91.641 Y47.127 Z2.4
G1 F600 Z0.4
G1 F480 E0.05
G1 F600 X91.738 Y47.065 E0.00007
G1 X129.306 Y84.632 E0.03006
G1 X129.832 Y83.773 E0.00057
G1 X92.597 Y46.538 E0.0298
G1 X92.745 Y46.449 E0.0001
G1 X93.258 Y46.156 E0.00033
G1 X93.48 Y46.034 E0.00014
G1 X130.348 Y82.902 E0.0295
G1 X130.86 Y82.028 E0.00057
G1 X94.393 Y45.562 E0.02918
G1 X94.786 Y45.373 E0.00025
G1 X95.279 Y45.152 E0.00031
G1 X95.342 Y45.125 E0.00004
G1 X131.359 Y81.142 E0.02882
G1 X131.858 Y80.255 E0.00058
G1 X96.334 Y44.73 E0.02843
G1 X96.701 Y44.604 E0.00022
G1 X97.176 Y44.454 E0.00028
G1 X97.388 Y44.399 E0.00012
G1 X132.343 Y79.354 E0.02797
G1 X132.792 Y78.518 E0.00054
G1 X132.825 Y78.45 E0.00004
G1 X98.519 Y44.143 E0.02745
G1 X98.86 Y44.083 E0.0002
G1 X99.641 Y44.011 E0.00044
G1 X99.772 Y44.011 E0.00007
G1 X133.295 Y77.534 E0.02683
G1 X133.314 Y77.501 E0.00002
G1 X132.805 Y76.509 E0.00063
G1 X131.881 Y74.788 E0.00111
G1 X131.81 Y74.663 E0.00008
G1 X101.25 Y44.103 E0.02446
G1 X101.937 Y44.225 E0.00039
G1 X102.815 Y44.452 E0.00051
G1 X103.063 Y44.53 E0.00015
G1 X129.942 Y71.41 E0.02151
G1 X128.95 Y69.787 E0.00108
G1 X127.91 Y68.158 E0.00109
G1 X126.842 Y66.554 E0.00109
G1 X125.75 Y64.975 E0.00109
G1 X124.636 Y63.433 E0.00108
G1 X124.326 Y63.021 E0.00029
G1 X108.569 Y47.265 E0.01261
G1 X108.346 Y47.118 E0.00015
G1 X107.873 Y46.821 E0.00032
G1 X107.217 Y46.426 E0.00043
G1 X106.76 Y46.166 E0.0003
G1 X106.209 Y45.868 E0.00035
G1 X105.727 Y45.621 E0.00031
G0 X105.727 Y45.622
G1 X105.368 Y45.449 E0.00023
G1 X127.577 Y67.658 E0.01777
G1 X127.753 Y67.834
G1 F480 E-0.05
G1 F600 Z2.4
G0 X87.046 Y105.726 Z2.4
;TYPE:WALL-OUTER
G1 F600 Z0.4
G1 F480 E0.05
G1 F600 X86.452 Y105.229 E0.00044
G1 X85.852 Y104.71 E0.00045
G1 X85.255 Y104.178 E0.00045
G1 X84.66 Y103.634 E0.00046
G1 X84.054 Y103.066 E0.00047
G1 X83.453 Y102.488 E0.00047
G1 X82.851 Y101.893 E0.00048
G1 X82.244 Y101.278 E0.00049
G1 X81.642 Y100.654 E0.00049
G1 X81.04 Y100.015 E0.0005
G1 X80.44 Y99.363 E0.0005
G1 X79.841 Y98.698 E0.00051
G1 X79.245 Y98.019 E0.00051
G1 X78.643 Y97.321 E0.00052
G1 X78.054 Y96.622 E0.00052
G1 X77.461 Y95.903 E0.00053
G1 X76.869 Y95.171 E0.00053
G1 X75.711 Y93.691 E0.00106
G1 X74.558 Y92.158 E0.00109
G1 X73.428 Y90.592 E0.00109
G1 X72.325 Y88.998 E0.0011
G1 X71.247 Y87.378 E0.0011
G1 X70.192 Y85.725 E0.00111
G1 X69.171 Y84.059 E0.00111
G1 X68.19 Y82.386 E0.0011
G1 X67.23 Y80.675 E0.00111
G1 X66.317 Y78.973 E0.00109
G1 X65.562 Y77.5 E0.00094
G1 X66.326 Y76.009 E0.00095
G1 X67.241 Y74.306 E0.00109
G1 X68.196 Y72.603 E0.0011
G1 X69.182 Y70.922 E0.0011
G1 X70.203 Y69.257 E0.00111
G1 X71.254 Y67.611 E0.00111
G1 X72.337 Y65.984 E0.00111
G1 X73.439 Y64.391 E0.0011
G1 X74.566 Y62.831 E0.00109
G1 X75.717 Y61.299 E0.00108
G1 X76.876 Y59.82 E0.00106
G1 X77.469 Y59.087 E0.00053
G1 X78.058 Y58.373 E0.00052
G1 X78.651 Y57.67 E0.00052
G1 X79.247 Y56.979 E0.00052
G1 X79.847 Y56.296 E0.00051
G1 X80.448 Y55.629 E0.00051
G1 X81.048 Y54.977 E0.0005
G1 X81.65 Y54.338 E0.0005
G1 X82.252 Y53.714 E0.00049
G1 X82.853 Y53.105 E0.00048
G1 X83.454 Y52.511 E0.00048
G1 X84.062 Y51.927 E0.00048
G1 X84.668 Y51.359 E0.00047
G1 X85.262 Y50.816 E0.00046
G1 X85.865 Y50.28 E0.00046
G1 X86.454 Y49.769 E0.00044
G1 X87.047 Y49.272 E0.00044
G1 X87.644 Y48.787 E0.00044
G1 X88.231 Y48.324 E0.00042
G1 X88.813 Y47.879 E0.00041
G1 X89.4 Y47.448 E0.00041
G1 X89.969 Y47.044 E0.00039
G1 X90.538 Y46.654 E0.00039
G1 X91.109 Y46.28 E0.00039
G1 X91.668 Y45.929 E0.00037
G1 X92.231 Y45.591 E0.00037
G1 X92.78 Y45.278 E0.00036
G1 X93.31 Y44.99 E0.00034
G1 X93.845 Y44.717 E0.00034
G1 X94.376 Y44.461 E0.00033
G1 X94.895 Y44.228 E0.00032
G1 X95.406 Y44.015 E0.00031
G1 X95.923 Y43.816 E0.00031
G1 X96.401 Y43.65 E0.00029
G1 X96.899 Y43.493 E0.0003
G1 X97.826 Y43.253 E0.00054
G1 X98.733 Y43.091 E0.00052
G1 X99.591 Y43.011 E0.00049
G1 X100.408 Y43.01 E0.00046
G1 X101.271 Y43.091 E0.00049
G1 X102.157 Y43.249 E0.00051
G1 X103.102 Y43.493 E0.00055
G1 X103.602 Y43.651 E0.0003
G1 X104.082 Y43.818 E0.00029
G1 X104.599 Y44.016 E0.00031
G1 X105.096 Y44.224 E0.0003
G1 X105.623 Y44.461 E0.00033
G1 X106.161 Y44.72 E0.00034
G1 X106.685 Y44.988 E0.00033
G1 X107.236 Y45.286 E0.00035
G1 X107.773 Y45.593 E0.00035
G1 X108.327 Y45.926 E0.00037
G1 X108.894 Y46.282 E0.00038
G1 X109.459 Y46.652 E0.00038
G1 X110.031 Y47.044 E0.00039
G1 X110.606 Y47.452 E0.0004
G1 X111.185 Y47.877 E0.00041
G1 X111.774 Y48.327 E0.00042
G1 X112.362 Y48.792 E0.00042
G1 X112.958 Y49.277 E0.00043
G1 X113.546 Y49.769 E0.00043
G1 X114.141 Y50.284 E0.00045
G1 X114.738 Y50.815 E0.00045
G1 X115.337 Y51.363 E0.00046
G1 X115.945 Y51.933 E0.00047
G1 X116.547 Y52.512 E0.00047
G1 X117.148 Y53.106 E0.00048
G1 X117.75 Y53.716 E0.00048
G1 X118.352 Y54.34 E0.00049
G1 X118.953 Y54.978 E0.0005
G1 X119.564 Y55.642 E0.00051
G1 X120.163 Y56.307 E0.00051
G1 X120.756 Y56.981 E0.00051
G1 X121.351 Y57.672 E0.00052
G1 X121.943 Y58.375 E0.00052
G1 X122.54 Y59.099 E0.00053
G1 X123.13 Y59.828 E0.00053
G1 X124.294 Y61.314 E0.00107
G1 X125.441 Y62.84 E0.00108
G1 X126.566 Y64.398 E0.00109
G1 X127.674 Y66 E0.0011
G1 X128.752 Y67.62 E0.0011
G1 X129.802 Y69.265 E0.0011
G1 X130.828 Y70.94 E0.00111
G1 X131.813 Y72.621 E0.0011
G1 X132.763 Y74.314 E0.0011
G1 X133.687 Y76.035 E0.00111
G1 X134.438 Y77.501 E0.00093
G1 X133.674 Y78.99 E0.00095
G1 X132.756 Y80.701 E0.0011
G1 X131.8 Y82.403 E0.0011
G1 X130.819 Y84.076 E0.0011
G1 X129.793 Y85.75 E0.00111
G1 X128.742 Y87.395 E0.0011
G1 X127.664 Y89.014 E0.0011
G1 X126.556 Y90.615 E0.0011
G1 X125.43 Y92.174 E0.00109
G1 X124.278 Y93.706 E0.00108
G1 X123.12 Y95.184 E0.00106
G1 X122.53 Y95.913 E0.00053
G1 X121.945 Y96.624 E0.00052
G1 X121.345 Y97.335 E0.00053
G1 X120.746 Y98.03 E0.00052
G1 X120.153 Y98.704 E0.00051
G1 X119.554 Y99.369 E0.00051
G1 X118.954 Y100.021 E0.0005
G1 X118.354 Y100.659 E0.0005
G1 X117.744 Y101.29 E0.0005
G1 X117.143 Y101.899 E0.00048
G1 X116.542 Y102.493 E0.00048
G1 X115.94 Y103.071 E0.00047
G1 X115.338 Y103.635 E0.00047
G1 X114.735 Y104.187 E0.00046
G1 X114.136 Y104.72 E0.00045
G1 X113.542 Y105.234 E0.00044
G1 X112.948 Y105.731 E0.00044
G1 X112.352 Y106.216 E0.00043
G1 X111.773 Y106.674 E0.00042
G1 X111.183 Y107.124 E0.00042
G1 X110.603 Y107.55 E0.00041
G1 X110.028 Y107.958 E0.0004
G1 X109.457 Y108.349 E0.00039
G1 X108.893 Y108.718 E0.00038
G1 X108.325 Y109.075 E0.00038
G1 X107.78 Y109.403 E0.00036
G1 X107.217 Y109.724 E0.00037
G1 X106.687 Y110.012 E0.00034
G1 X106.152 Y110.284 E0.00034
G1 X105.614 Y110.543 E0.00034
G1 X105.107 Y110.771 E0.00031
G1 X104.584 Y110.989 E0.00032
G1 X104.074 Y111.185 E0.00031
G1 X103.594 Y111.351 E0.00029
G1 X103.097 Y111.508 E0.00029
G1 X102.156 Y111.751 E0.00055
G1 X101.268 Y111.908 E0.00051
G1 X100.407 Y111.989 E0.00049
G1 X99.589 Y111.989 E0.00046
G1 X98.73 Y111.909 E0.00049
G1 X97.839 Y111.751 E0.00051
G1 X96.901 Y111.508 E0.00055
G1 X96.401 Y111.35 E0.0003
G1 X95.916 Y111.182 E0.00029
G1 X95.398 Y110.983 E0.00031
G1 X94.902 Y110.775 E0.0003
G1 X94.381 Y110.541 E0.00032
G1 X93.843 Y110.282 E0.00034
G1 X93.315 Y110.012 E0.00034
G1 X92.762 Y109.712 E0.00036
G1 X92.215 Y109.4 E0.00036
G1 X91.67 Y109.071 E0.00036
G1 X91.102 Y108.716 E0.00038
G1 X90.544 Y108.349 E0.00038
G1 X89.966 Y107.954 E0.0004
G1 X89.385 Y107.542 E0.0004
G1 X88.812 Y107.12 E0.0004
G1 X88.222 Y106.67 E0.00042
G1 X87.642 Y106.211 E0.00042
G1 X87.046 Y105.726 E0.00043
G0 X86.663 Y105.405
G1 F480 E-0.05
G1 F600 Z2.4
;MESH:NONMESH
G0 X67.66 Y75.642 Z2.4
;TIME_ELAPSED:346.656461
;LAYER:1
;MESH:squarecircle.stl
G0 X67.66 Y75.642 Z2.8
;TYPE:FILL
G1 F600 Z0.8
G1 F480 E0.05
G1 F600 X67.66 Y79.357 E0.0021
G1 X67.19 Y78.481 E0.00056
G1 X66.686 Y77.5 E0.00062
G1 X67.208 Y76.484 E0.00065
G1 X68.137 Y74.754 E0.00111
G1 X68.64 Y73.856 E0.00058
G1 X68.64 Y81.143 E0.00412
G1 X69.046 Y81.868 E0.00047
G1 X69.62 Y82.848 E0.00064
G1 X69.62 Y72.151 E0.00605
G1 X70.048 Y71.422 E0.00048
G1 X70.6 Y70.52 E0.0006
G1 X70.6 Y84.478 E0.0079
G1 X71.02 Y85.165 E0.00046
G1 X71.58 Y86.042 E0.00059
G1 X71.58 Y68.957 E0.00967
G1 X72.093 Y68.154 E0.00054
G1 X72.56 Y67.453 E0.00048
G1 X72.56 Y87.546 E0.01137
G1 X73.136 Y88.412 E0.00059
G1 X73.54 Y88.995 E0.0004
G1 X73.54 Y66.003 E0.01301
G1 X74.261 Y64.961 E0.00072
G1 X74.52 Y64.602 E0.00025
G1 X74.52 Y90.394 E0.0146
G1 X75.351 Y91.548 E0.0008
G1 X75.5 Y91.746 E0.00014
G1 X75.5 Y63.253 E0.01612
G1 X76.48 Y61.953 E0.00092
G1 X76.48 Y93.051 E0.0176
G0 X76.481 Y93.053
G1 X77.46 Y94.304 E0.0009
G1 X77.46 Y60.698 E0.01902
G1 X77.655 Y60.449 E0.00018
G1 X78.257 Y59.705 E0.00054
G1 X78.44 Y59.482 E0.00016
G1 X78.44 Y95.517 E0.02039
G1 X78.815 Y95.972 E0.00033
G1 X79.391 Y96.656 E0.00051
G1 X79.42 Y96.689 E0.00002
G1 X79.42 Y58.309 E0.02172
G1 X80.012 Y57.621 E0.00051
G1 X80.4 Y57.18 E0.00033
G1 X80.4 Y97.818 E0.023
G1 X80.582 Y98.026 E0.00016
G1 X81.171 Y98.681 E0.0005
G1 X81.38 Y98.908 E0.00017
G1 X81.38 Y56.093 E0.02423
G1 X81.786 Y55.652 E0.00034
G1 X82.36 Y55.042 E0.00047
G1 X82.36 Y99.957 E0.02542
G1 X82.946 Y100.565 E0.00048
G1 X83.34 Y100.964 E0.00032
G1 X83.34 Y54.035 E0.02656
G1 X83.563 Y53.81 E0.00018
G1 X84.15 Y53.229 E0.00047
G1 X84.32 Y53.065 E0.00013
G1 X84.32 Y101.934 E0.02765
G1 X84.733 Y102.331 E0.00032
G1 X85.3 Y102.863 E0.00044
G1 X85.3 Y52.137 E0.02871
G1 X85.362 Y52.079 E0.00005
G1 X85.934 Y51.556 E0.00044
G1 X86.28 Y51.248 E0.00026
G1 X86.28 Y103.752 E0.02971
G1 X86.501 Y103.949 E0.00017
G1 X87.093 Y104.462 E0.00044
G1 X87.26 Y104.602 E0.00012
G1 X87.26 Y50.399 E0.03067
G1 X87.683 Y50.046 E0.00031
G1 X88.24 Y49.592 E0.00041
G1 X88.24 Y105.41 E0.03159
G1 X88.251 Y105.419 E0.00001
G1 X88.828 Y105.875 E0.00042
G1 X89.22 Y106.174 E0.00028
G1 X89.22 Y48.827 E0.03245
G1 X89.413 Y48.68 E0.00014
G1 X89.98 Y48.265 E0.0004
G1 X90.2 Y48.108 E0.00015
G1 X90.2 Y106.891 E0.03326
G1 X90.546 Y107.137 E0.00024
G1 X91.092 Y107.511 E0.00037
G1 X91.18 Y107.568 E0.00006
G1 X91.18 Y47.428 E0.03403
G1 X91.649 Y47.122 E0.00032
G1 X92.16 Y46.802 E0.00034
G1 X92.16 Y108.198 E0.03474
G1 X92.193 Y108.219 E0.00002
G1 X92.703 Y108.527 E0.00034
G1 X93.14 Y108.776 E0.00028
G1 X93.14 Y46.224 E0.0354
G1 X93.251 Y46.161 E0.00007
G1 X93.801 Y45.863 E0.00035
G1 X94.12 Y45.699 E0.0002
G1 X94.12 Y109.3 E0.03599
G1 X94.307 Y109.396 E0.00012
G1 X94.775 Y109.622 E0.00029
G1 X95.1 Y109.767 E0.0002
G1 X95.1 Y45.232 E0.03652
G1 X95.312 Y45.138 E0.00013
G0 X95.312 Y45.137
G1 X95.77 Y44.946 E0.00028
G1 X96.08 Y44.827 E0.00019
G1 X96.08 Y110.173 E0.03698
G1 X96.259 Y110.242 E0.00011
G1 X96.708 Y110.398 E0.00027
G1 X97.06 Y110.509 E0.00021
G1 X97.06 Y44.492 E0.03736
G1 X97.197 Y44.449 E0.00008
G1 X98.04 Y44.231 E0.00049
G1 X98.04 Y110.761 E0.03765
G1 X98.44 Y110.849 E0.00023
G1 X99.02 Y110.929 E0.00033
G1 X99.02 Y44.068 E0.03784
G1 X99.642 Y44.011 E0.00035
G1 X100 Y44.01 E0.0002
G1 X100 Y111 E0.03791
G1 X100.725 Y110.965 E0.00041
G1 X100.98 Y110.931 E0.00015
G1 X100.98 Y44.07 E0.03784
G1 X101.16 Y44.087 E0.0001
G1 X101.947 Y44.227 E0.00045
G1 X101.96 Y44.231 E0.00001
G1 X101.96 Y110.76 E0.03765
G1 X102.387 Y110.667 E0.00025
G1 X102.838 Y110.542 E0.00026
G1 X102.94 Y110.511 E0.00006
G1 X102.94 Y44.491 E0.03736
G1 X103.296 Y44.603 E0.00021
G1 X103.73 Y44.754 E0.00026
G1 X103.92 Y44.828 E0.00012
G1 X103.92 Y110.173 E0.03698
